; generated by Slic3r 1.2.9 on 2017-04-04 at 12:41:50

; external perimeters extrusion width = 0.60mm
; perimeters extrusion width = 0.60mm
; infill extrusion width = 0.60mm
; solid infill extrusion width = 0.60mm
; top infill extrusion width = 0.60mm

M107
M190 S55 ; set bed temperature
M104 S200 ; set temperature
G28 ; home all axes
G1 Z5 F5000 ; lift nozzle

M109 S200 ; wait for temperature to be reached
G21 ; set units to millimeters
G90 ; use absolute coordinates
M82 ; use absolute distances for extrusion
G92 E0
G1 E-4.00000 F2400.00000
G92 E0
G1 Z0.300 F4800.000
G1 X89.122 Y90.017 F4800.000
G1 E4.00000 F2400.00000
G1 X89.910 Y89.236 E4.04138 F4200.000
G1 X90.634 Y88.583 E4.07775
G1 X91.410 Y87.988 E4.11423
G1 X91.847 Y87.696 E4.13384
G1 X92.693 Y87.208 E4.17023
G1 X93.162 Y86.977 E4.18974
G1 X94.066 Y86.602 E4.22623
G1 X94.561 Y86.434 E4.24574
G1 X95.505 Y86.181 E4.28218
G1 X96.019 Y86.079 E4.30174
G1 X96.983 Y85.952 E4.33799
G1 X97.511 Y85.917 E4.35774
G1 X98.000 Y85.901 E4.37599
G1 X102.000 Y85.901 E4.52517
G1 X102.489 Y85.917 E4.54342
G1 X103.017 Y85.952 E4.56316 F4200.000
G1 X103.981 Y86.079 E4.59942
G1 X104.493 Y86.181 E4.61887
G1 X105.439 Y86.434 E4.65542
G1 X105.934 Y86.602 E4.67493
G1 X106.838 Y86.977 E4.71141
G1 X107.307 Y87.208 E4.73093
G1 X108.153 Y87.696 E4.76732
G1 X108.590 Y87.988 E4.78693
G1 X109.366 Y88.583 E4.82341
G1 X110.090 Y89.236 E4.85978
G1 X120.261 Y99.307 E5.39361
G1 X121.691 Y101.281 E5.48453
G1 X122.478 Y104.621 E5.61250
G1 X122.478 Y106.621 E5.68710
G1 X122.081 Y109.026 E5.77801
G1 X120.931 Y111.176 E5.86893
G1 X119.151 Y112.841 E5.95985
G1 X116.930 Y113.846 E6.05077
G1 X115.000 Y114.099 E6.12336
G1 X85.000 Y114.099 E7.24225
G1 X82.595 Y113.702 E7.33317
G1 X80.445 Y112.552 E7.42409
G1 X78.780 Y110.772 E7.51501
G1 X77.775 Y108.551 E7.60592
G1 X77.522 Y106.621 E7.67852
G1 X77.522 Y104.621 E7.75311
G1 X77.919 Y102.216 E7.84403
G1 X79.739 Y99.307 E7.97200
G1 X89.058 Y90.080 E8.46110
G1 X89.330 Y90.227 F4800.000
G1 X90.118 Y89.446 E8.50248 F4200.000
G1 X90.829 Y88.806 E8.53818
G1 X91.575 Y88.234 E8.57322
G1 X92.012 Y87.942 E8.59283
G1 X92.823 Y87.473 E8.62778
G1 X93.293 Y87.242 E8.64729
G1 X94.161 Y86.882 E8.68233
G1 X94.656 Y86.714 E8.70185
G1 X95.562 Y86.471 E8.73685
G1 X96.077 Y86.369 E8.75640
G1 X97.002 Y86.247 E8.79123
G1 X97.530 Y86.212 E8.81096
G1 X98.000 Y86.197 E8.82849
G1 X102.000 Y86.197 E8.97767
G1 X102.470 Y86.212 E8.99520
G1 X102.998 Y86.247 E9.01493 F4200.000
G1 X103.923 Y86.369 E9.04976
G1 X104.435 Y86.470 E9.06920
G1 X105.344 Y86.714 E9.10431
G1 X105.839 Y86.882 E9.12383
G1 X106.707 Y87.242 E9.15887
G1 X107.177 Y87.473 E9.17838
G1 X107.988 Y87.942 E9.21333
G1 X108.425 Y88.234 E9.23294
G1 X109.171 Y88.806 E9.26798
G1 X109.882 Y89.446 E9.30368
G1 X120.053 Y99.517 E9.83752
G1 X121.448 Y101.456 E9.92661
G1 X122.182 Y104.621 E10.04777
G1 X122.182 Y106.621 E10.12237
G1 X121.785 Y108.976 E10.21146
G1 X120.638 Y111.071 E10.30055
G1 X118.866 Y112.674 E10.38964
G1 X116.667 Y113.607 E10.47873
G1 X115.000 Y113.803 E10.54135
G1 X85.000 Y113.803 E11.66023
G1 X82.645 Y113.406 E11.74933
G1 X80.550 Y112.259 E11.83842
G1 X78.947 Y110.487 E11.92751
G1 X78.014 Y108.288 E12.01660
G1 X77.818 Y106.621 E12.07921
G1 X77.818 Y104.621 E12.15381
G1 X78.215 Y102.266 E12.24290
G1 X79.947 Y99.517 E12.36406
G1 X89.266 Y90.290 E12.85316
G1 X89.538 Y90.437 F4800.000
G1 X90.326 Y89.657 E12.89455 F4200.000
G1 X91.024 Y89.028 E12.92958
G1 X91.739 Y88.479 E12.96318
G1 X92.176 Y88.187 E12.98278
G1 X92.954 Y87.738 E13.01629
G1 X93.423 Y87.507 E13.03581
G1 X94.256 Y87.162 E13.06940
G1 X94.751 Y86.994 E13.08892
G1 X95.620 Y86.761 E13.12248
G1 X96.134 Y86.659 E13.14203
G1 X97.022 Y86.541 E13.17542
G1 X97.550 Y86.507 E13.19514
G1 X98.000 Y86.492 E13.21195
G1 X102.000 Y86.492 E13.36114
G1 X102.450 Y86.507 E13.37794
G1 X102.978 Y86.541 E13.39767 F4200.000
G1 X103.866 Y86.659 E13.43106
G1 X104.377 Y86.760 E13.45051
G1 X105.249 Y86.994 E13.48417
G1 X105.744 Y87.162 E13.50369
G1 X106.577 Y87.507 E13.53728
G1 X107.046 Y87.738 E13.55680
G1 X107.824 Y88.187 E13.59031
G1 X108.261 Y88.479 E13.60991
G1 X108.976 Y89.028 E13.64351
G1 X109.674 Y89.657 E13.67854
G1 X119.845 Y99.727 E14.21238
G1 X121.204 Y101.631 E14.29961
G1 X121.887 Y104.621 E14.41401
G1 X121.887 Y106.621 E14.48860
G1 X121.490 Y108.926 E14.57582
G1 X120.344 Y110.965 E14.66305
G1 X118.582 Y112.503 E14.75027
G1 X116.408 Y113.362 E14.83750
G1 X115.000 Y113.508 E14.89027
G1 X85.000 Y113.508 E16.00916
G1 X82.695 Y113.111 E16.09639
G1 X80.656 Y111.965 E16.18361
G1 X79.118 Y110.203 E16.27084
G1 X78.259 Y108.029 E16.35806
G1 X78.113 Y106.621 E16.41084
G1 X78.113 Y104.621 E16.48543
G1 X78.510 Y102.316 E16.57265
G1 X80.155 Y99.727 E16.68705
G1 X89.474 Y90.501 E17.17615
G1 X89.746 Y90.647 F4800.000
G1 X90.534 Y89.867 E17.21754 F4200.000
G1 X91.219 Y89.250 E17.25191
G1 X91.903 Y88.725 E17.28406
G1 X92.340 Y88.433 E17.30366
G1 X93.085 Y88.003 E17.33573
G1 X93.554 Y87.772 E17.35524
G1 X94.351 Y87.442 E17.38740
G1 X94.846 Y87.274 E17.40692
G1 X95.678 Y87.051 E17.43904
G1 X96.192 Y86.949 E17.45859
G1 X97.041 Y86.836 E17.49054
G1 X97.569 Y86.802 E17.51026
G1 X98.000 Y86.788 E17.52634
G1 X102.000 Y86.788 E17.67553
G1 X102.431 Y86.802 E17.69161
G1 X102.959 Y86.836 E17.71133 F4200.000
G1 X103.808 Y86.949 E17.74329
G1 X104.319 Y87.050 E17.76273
G1 X105.154 Y87.274 E17.79496
G1 X105.649 Y87.442 E17.81447
G1 X106.446 Y87.772 E17.84663
G1 X106.915 Y88.003 E17.86614
G1 X107.660 Y88.433 E17.89821
G1 X108.097 Y88.725 E17.91781
G1 X108.781 Y89.250 E17.94997
G1 X109.466 Y89.867 E17.98434
G1 X119.637 Y99.937 E18.51817
G1 X120.959 Y101.804 E18.60349
G1 X121.591 Y104.621 E18.71116
G1 X121.591 Y106.621 E18.78576
G1 X121.194 Y108.874 E18.87107
G1 X120.051 Y110.855 E18.95639
G1 X118.300 Y112.327 E19.04171
G1 X116.151 Y113.111 E19.12703
G1 X115.000 Y113.212 E19.17011
G1 X85.000 Y113.212 E20.28900
G1 X82.747 Y112.815 E20.37432
G1 X80.766 Y111.672 E20.45964
G1 X79.294 Y109.921 E20.54495
G1 X78.510 Y107.772 E20.63027
G1 X78.409 Y106.621 E20.67336
G1 X78.409 Y104.621 E20.74795
G1 X78.806 Y102.368 E20.83327
G1 X80.363 Y99.937 E20.94094
G1 X89.682 Y90.711 E21.43004
G1 X89.954 Y90.857 F4800.000
G1 X90.742 Y90.077 E21.47142 F4200.000
G1 X91.414 Y89.472 E21.50512
G1 X92.067 Y88.971 E21.53583
G1 X92.504 Y88.679 E21.55543
G1 X93.216 Y88.269 E21.58606
G1 X93.685 Y88.037 E21.60558
G1 X94.446 Y87.722 E21.63629
G1 X94.941 Y87.554 E21.65581
G1 X95.736 Y87.341 E21.68648
G1 X96.250 Y87.239 E21.70603
G1 X97.061 Y87.131 E21.73656
G1 X97.588 Y87.097 E21.75626
G1 X98.000 Y87.083 E21.77163
G1 X102.412 Y87.097 E21.93617
G1 X102.939 Y87.131 E21.95588 F4200.000
G1 X103.750 Y87.239 E21.98640
G1 X104.262 Y87.340 E22.00584
G1 X105.059 Y87.554 E22.03663
G1 X105.554 Y87.722 E22.05614
G1 X106.315 Y88.037 E22.08686
G1 X106.784 Y88.269 E22.10637
G1 X107.496 Y88.679 E22.13700
G1 X107.933 Y88.971 E22.15660
G1 X108.586 Y89.472 E22.18731
G1 X109.258 Y90.077 E22.22101
G1 X119.429 Y100.147 E22.75485
G1 X120.713 Y101.977 E22.83822
G1 X121.296 Y104.621 E22.93920
G1 X121.296 Y106.621 E23.01379
G1 X120.899 Y108.821 E23.09716
G1 X119.758 Y110.743 E23.18053
G1 X118.018 Y112.146 E23.26390
G1 X115.000 Y112.917 E23.38007
G1 X85.000 Y112.917 E24.49896
G1 X82.800 Y112.520 E24.58233
G1 X80.878 Y111.379 E24.66570
G1 X79.475 Y109.639 E24.74906
G1 X78.704 Y106.621 E24.86524
G1 X78.704 Y104.621 E24.93983
G1 X79.101 Y102.421 E25.02320
G1 X80.571 Y100.147 E25.12418
G1 X89.890 Y90.921 E25.61328
G1 E21.61328 F2400.00000
G92 E0
G1 X102.915 Y102.902 F4800.000
G1 E4.00000 F2400.00000
G1 X102.450 Y103.240 E4.02142 F4200.000
G1 X101.947 Y103.517 E4.04283
G1 X101.413 Y103.728 E4.06425
G1 X100.857 Y103.871 E4.08567
G1 X100.287 Y103.943 E4.10709
G1 X99.713 Y103.943 E4.12850
G1 X99.143 Y103.871 E4.14992
G1 X98.587 Y103.728 E4.17134
G1 X98.053 Y103.517 E4.19276
G1 X97.550 Y103.240 E4.21417
G1 X97.085 Y102.902 E4.23559
G1 X96.667 Y102.509 E4.25701
G1 X96.301 Y102.067 E4.27843
G1 X95.993 Y101.582 E4.29984
G1 X95.748 Y101.062 E4.32126
G1 X95.571 Y100.516 E4.34268
G1 X95.463 Y99.952 E4.36410
G1 X95.427 Y99.379 E4.38551
G1 X95.463 Y98.806 E4.40693
G1 X95.571 Y98.242 E4.42835
G1 X95.748 Y97.696 E4.44977
G1 X95.993 Y97.176 E4.47118
G1 X96.301 Y96.691 E4.49260
G1 X96.667 Y96.249 E4.51402
G1 X97.085 Y95.856 E4.53544
G1 X97.550 Y95.518 E4.55687
G1 X98.058 Y95.239 E4.57849
G1 X98.587 Y95.030 E4.59971
G1 X99.141 Y94.888 E4.62101
G1 X99.717 Y94.815 E4.64269 F4200.000
G1 X100.288 Y94.815 E4.66397
G1 X100.856 Y94.887 E4.68532
G1 X101.412 Y95.030 E4.70675
G1 X101.942 Y95.239 E4.72797
G1 X102.450 Y95.518 E4.74959
G1 X102.915 Y95.856 E4.77103
G1 X103.333 Y96.249 E4.79244
G1 X103.699 Y96.691 E4.81386
G1 X104.007 Y97.176 E4.83528
G1 X104.252 Y97.696 E4.85670
G1 X104.429 Y98.242 E4.87811
G1 X104.537 Y98.806 E4.89953
G1 X104.573 Y99.379 E4.92095
G1 X104.537 Y99.952 E4.94237
G1 X104.429 Y100.516 E4.96378
G1 X104.252 Y101.062 E4.98520
G1 X104.007 Y101.582 E5.00662
G1 X103.699 Y102.067 E5.02804
G1 X103.333 Y102.509 E5.04945
G1 X102.980 Y102.841 E5.06751
G1 X102.726 Y102.674 F4800.000
G1 X102.291 Y102.990 E5.08754 F4200.000
G1 X101.821 Y103.249 E5.10757
G1 X101.322 Y103.446 E5.12760
G1 X100.801 Y103.580 E5.14764
G1 X100.269 Y103.647 E5.16767
G1 X99.731 Y103.647 E5.18770
G1 X99.199 Y103.580 E5.20773
G1 X98.678 Y103.446 E5.22776
G1 X98.179 Y103.249 E5.24779
G1 X97.709 Y102.990 E5.26782
G1 X97.274 Y102.674 E5.28785
G1 X96.883 Y102.307 E5.30788
G1 X96.540 Y101.893 E5.32791
G1 X96.252 Y101.439 E5.34794
G1 X96.024 Y100.953 E5.36797
G1 X95.858 Y100.443 E5.38800
G1 X95.757 Y99.915 E5.40803
G1 X95.723 Y99.379 E5.42806
G1 X95.757 Y98.843 E5.44809
G1 X95.858 Y98.315 E5.46812
G1 X96.024 Y97.805 E5.48815
G1 X96.252 Y97.319 E5.50818
G1 X96.540 Y96.865 E5.52821
G1 X96.883 Y96.452 E5.54824
G1 X97.274 Y96.084 E5.56827
G1 X97.709 Y95.768 E5.58831
G1 X98.184 Y95.507 E5.60854
G1 X98.679 Y95.312 E5.62838
G1 X99.196 Y95.179 E5.64829
G1 X99.736 Y95.111 E5.66858 F4200.000
G1 X100.269 Y95.111 E5.68848
G1 X100.800 Y95.178 E5.70844
G1 X101.321 Y95.311 E5.72848
G1 X101.816 Y95.507 E5.74833
G1 X102.291 Y95.768 E5.76855
G1 X102.726 Y96.084 E5.78860
G1 X103.117 Y96.451 E5.80863
G1 X103.460 Y96.865 E5.82866
G1 X103.748 Y97.319 E5.84869
G1 X103.976 Y97.805 E5.86872
G1 X104.142 Y98.315 E5.88875
G1 X104.243 Y98.843 E5.90878
G1 X104.277 Y99.379 E5.92881
G1 X104.243 Y99.915 E5.94884
G1 X104.142 Y100.443 E5.96887
G1 X103.976 Y100.953 E5.98890
G1 X103.748 Y101.439 E6.00893
G1 X103.460 Y101.893 E6.02896
G1 X103.117 Y102.307 E6.04899
G1 X102.792 Y102.613 E6.06566
G1 X102.537 Y102.446 F4800.000
G1 X102.133 Y102.740 E6.08431 F4200.000
G1 X101.695 Y102.981 E6.10295
G1 X101.230 Y103.165 E6.12159
G1 X100.746 Y103.289 E6.14023
G1 X100.250 Y103.352 E6.15888
G1 X99.750 Y103.352 E6.17752
G1 X99.254 Y103.289 E6.19616
G1 X98.770 Y103.165 E6.21481
G1 X98.305 Y102.981 E6.23345
G1 X97.867 Y102.740 E6.25209
G1 X97.463 Y102.446 E6.27073
G1 X97.098 Y102.104 E6.28938
G1 X96.780 Y101.719 E6.30802
G1 X96.512 Y101.297 E6.32666
G1 X96.299 Y100.844 E6.34531
G1 X96.145 Y100.369 E6.36395
G1 X96.051 Y99.878 E6.38259
G1 X96.020 Y99.379 E6.40123
G1 X96.051 Y98.880 E6.41988
G1 X96.145 Y98.389 E6.43852
G1 X96.299 Y97.914 E6.45716
G1 X96.512 Y97.461 E6.47580
G1 X96.780 Y97.039 E6.49445
G1 X97.098 Y96.654 E6.51309
G1 X97.463 Y96.312 E6.53173
G1 X97.867 Y96.018 E6.55038
G1 X98.310 Y95.775 E6.56922
G1 X98.771 Y95.593 E6.58768
G1 X99.251 Y95.470 E6.60620
G1 X99.754 Y95.406 E6.62510 F4200.000
G1 X100.251 Y95.407 E6.64362
G1 X100.745 Y95.469 E6.66220
G1 X101.229 Y95.593 E6.68085
G1 X101.690 Y95.775 E6.69931
G1 X102.133 Y96.018 E6.71815
G1 X102.537 Y96.312 E6.73680
G1 X102.902 Y96.654 E6.75544
G1 X103.220 Y97.039 E6.77409
G1 X103.488 Y97.461 E6.79273
G1 X103.701 Y97.914 E6.81137
G1 X103.855 Y98.389 E6.83001
G1 X103.949 Y98.880 E6.84866
G1 X103.980 Y99.379 E6.86730
G1 X103.949 Y99.878 E6.88594
G1 X103.855 Y100.369 E6.90459
G1 X103.701 Y100.844 E6.92323
G1 X103.488 Y101.297 E6.94187
G1 X103.220 Y101.719 E6.96052
G1 X102.902 Y102.104 E6.97916
G1 X102.603 Y102.384 E6.99444
G1 X102.610 Y102.940 F4800.000
G1 X105.229 Y105.392 F4800.000
G1 X114.229 Y105.392 E7.33011 F4200.000
G1 X114.229 Y105.850 E7.34717
G1 X85.771 Y105.850 E8.40854
G1 X85.771 Y105.392 E8.42560
G1 X94.771 Y105.392 E8.76127
G1 X94.771 Y97.404 E9.05919
G1 X94.800 Y96.958 E9.07588
G1 X94.883 Y96.544 E9.09162
G1 X95.019 Y96.144 E9.10736
G1 X95.205 Y95.765 E9.12311
G1 X95.440 Y95.414 E9.13885
G1 X95.718 Y95.097 E9.15459
G1 X96.035 Y94.819 E9.17034
G1 X96.385 Y94.585 E9.18602
G1 X96.765 Y94.397 E9.20183
G1 X97.165 Y94.262 E9.21757
G1 X97.579 Y94.180 E9.23331
G1 X98.025 Y94.150 E9.25000
G1 X101.975 Y94.150 E9.39730
G1 X102.419 Y94.179 E9.41392
G1 X102.835 Y94.262 E9.42974
G1 X103.235 Y94.398 E9.44548
G1 X103.614 Y94.584 E9.46122
G1 X103.965 Y94.819 E9.47696
G1 X104.282 Y95.097 E9.49271
G1 X104.560 Y95.414 E9.50845
G1 X104.795 Y95.765 E9.52419
G1 X104.981 Y96.144 E9.53994
G1 X105.117 Y96.544 E9.55568
G1 X105.199 Y96.958 E9.57143
G1 X105.229 Y97.404 E9.58811
G1 X105.229 Y105.302 E9.88268
G1 X105.524 Y105.097 F4800.000
G1 X114.524 Y105.097 E10.21835 F4200.000
G1 X114.524 Y106.145 E10.25746
G1 X85.476 Y106.145 E11.34087
G1 X85.476 Y105.097 E11.37999
G1 X94.476 Y105.097 E11.71565
G1 X94.476 Y97.395 E12.00291
G1 X94.507 Y96.919 E12.02068
G1 X94.597 Y96.467 E12.03787
G1 X94.745 Y96.031 E12.05506
G1 X94.949 Y95.617 E12.07225
G1 X95.205 Y95.234 E12.08944
G1 X95.509 Y94.888 E12.10663
G1 X95.855 Y94.584 E12.12382
G1 X96.237 Y94.329 E12.14094
G1 X96.652 Y94.124 E12.15820
G1 X97.088 Y93.976 E12.17538
G1 X97.540 Y93.886 E12.19257
G1 X98.016 Y93.855 E12.21034
G1 X101.984 Y93.855 E12.35837
G1 X102.458 Y93.886 E12.37607
G1 X102.912 Y93.976 E12.39333
G1 X103.348 Y94.124 E12.41051
G1 X103.762 Y94.328 E12.42770
G1 X104.145 Y94.584 E12.44489
G1 X104.491 Y94.888 E12.46208
G1 X104.795 Y95.234 E12.47927
G1 X105.051 Y95.617 E12.49646
G1 X105.255 Y96.031 E12.51365
G1 X105.403 Y96.467 E12.53084
G1 X105.493 Y96.919 E12.54803
G1 X105.524 Y97.395 E12.56580
G1 X105.524 Y105.007 E12.84970
G1 X105.820 Y104.801 F4800.000
G1 X114.820 Y104.801 E13.18537 F4200.000
G1 X114.820 Y106.441 E13.24653
G1 X85.180 Y106.441 E14.35199
G1 X85.180 Y104.801 E14.41316
G1 X94.180 Y104.801 E14.74883
G1 X94.180 Y97.385 E15.02542
G1 X94.213 Y96.880 E15.04427
G1 X94.311 Y96.390 E15.06291
G1 X94.471 Y95.917 E15.08154
G1 X94.692 Y95.469 E15.10018
G1 X94.970 Y95.054 E15.11881
G1 X95.299 Y94.678 E15.13745
G1 X95.675 Y94.349 E15.15608
G1 X96.089 Y94.072 E15.17464
G1 X96.538 Y93.850 E15.19335
G1 X97.011 Y93.690 E15.21198
G1 X97.501 Y93.592 E15.23062
G1 X98.006 Y93.559 E15.24947
G1 X101.994 Y93.559 E15.39822
G1 X102.497 Y93.592 E15.41700
G1 X102.989 Y93.690 E15.43571
G1 X103.462 Y93.850 E15.45434
G1 X103.910 Y94.071 E15.47297
G1 X104.325 Y94.349 E15.49161
G1 X104.701 Y94.678 E15.51024
G1 X105.030 Y95.054 E15.52888
G1 X105.308 Y95.469 E15.54751
G1 X105.529 Y95.917 E15.56615
G1 X105.689 Y96.390 E15.58478
G1 X105.787 Y96.880 E15.60341
G1 X105.820 Y97.385 E15.62227
G1 X105.820 Y104.711 E15.89551
G1 X105.820 Y105.401 F4800.000
G1 X105.081 Y105.621 F4800.000
G1 X114.081 Y105.621 E16.23117 F4200.000
G1 X105.060 Y105.206 F4800.000
G1 X102.926 Y103.072 E16.34652 F4200.000
G1 X103.155 Y102.872 E16.35813
G1 X105.060 Y104.777 E16.46110
G1 X105.060 Y104.349 E16.47747
G1 X103.376 Y102.665 E16.56850
G1 X103.578 Y102.438 E16.58010
G1 X105.060 Y103.920 E16.66022
G1 X105.060 Y103.492 E16.67660
G1 X103.772 Y102.203 E16.74623
G1 X103.946 Y101.949 E16.75802
G1 X105.060 Y103.063 E16.81826
G1 X105.060 Y102.635 E16.83464
G1 X104.112 Y101.687 E16.88589
G1 X104.255 Y101.402 E16.89809
G1 X105.060 Y102.206 E16.94159
G1 X105.060 Y101.778 E16.95797
G1 X104.393 Y101.110 E16.99406
G1 X104.500 Y100.790 E17.00699
G1 X105.060 Y101.349 E17.03725
G1 X105.060 Y100.921 E17.05363
G1 X104.600 Y100.461 E17.07848
G1 X104.894 Y100.326 E17.09083
G1 X105.060 Y100.493 E17.09981
G1 X104.912 Y105.486 F4800.000
G1 X102.678 Y103.252 E17.22059 F4200.000
G1 X102.421 Y103.423 E17.23240
G1 X104.679 Y105.681 E17.35447
G1 X104.251 Y105.681 E17.37085
G1 X102.144 Y103.575 E17.48471
