; generated by Slic3r 1.2.9 on 2017-04-05 at 18:29:36

; external perimeters extrusion width = 0.60mm
; perimeters extrusion width = 0.60mm
; infill extrusion width = 0.60mm
; solid infill extrusion width = 0.60mm
; top infill extrusion width = 0.60mm

M107
M190 S55 ; set bed temperature
M104 S200 ; set temperature
G28 ; home all axes
G1 Z5 F5000 ; lift nozzle

M109 S200 ; wait for temperature to be reached
G21 ; set units to millimeters
G90 ; use absolute coordinates
M82 ; use absolute distances for extrusion
G92 E0
G1 Z0.300 F4800.000
G1 E-4.00000 F2400.00000
G92 E0
G1 X84.245 Y84.358 F4800.000
G1 E4.00000 F2400.00000
G1 X84.638 Y83.993 E4.02002 F4200.000
G1 X86.391 Y82.481 E4.10635
G1 X86.705 Y82.225 E4.12146
G1 X87.418 Y81.727 E4.15390
G1 X89.650 Y80.371 E4.25131
G1 X90.564 Y79.923 E4.28924
G1 X92.726 Y79.047 E4.37624
G1 X93.068 Y78.917 E4.38992
G1 X93.957 Y78.656 E4.42448
G1 X96.599 Y78.069 E4.52539
G1 X97.511 Y77.957 E4.55967
G1 X99.834 Y77.821 E4.64647
G1 X100.957 Y77.832 E4.68834
G1 X103.520 Y78.097 E4.78446 F4200.000
G1 X104.547 Y78.282 E4.82336
G1 X107.025 Y78.957 E4.91915
G1 X107.875 Y79.249 E4.95268
G1 X110.353 Y80.379 E5.05426
G1 X111.134 Y80.798 E5.08730
G1 X113.412 Y82.326 E5.18960
G1 X114.021 Y82.787 E5.21809
G1 X114.406 Y83.127 E5.23725
G1 X116.084 Y84.716 E5.32345
G1 X116.490 Y85.132 E5.34510
G1 X116.938 Y85.667 E5.37115
G1 X118.335 Y87.506 E5.45727
G1 X118.620 Y87.906 E5.47561
G1 X119.048 Y88.615 E5.50646
G1 X120.276 Y90.957 E5.60513
G1 X120.646 Y91.858 E5.64143
G1 X121.482 Y94.382 E5.74059
G1 X121.666 Y95.150 E5.77005
G1 X121.972 Y96.824 E5.83353
G1 X122.087 Y97.743 E5.86806
G1 X122.199 Y99.575 E5.93654
G1 X122.212 Y100.109 E5.95646
G1 X122.183 Y100.707 E5.97877
G1 X121.996 Y103.003 E6.06470
G1 X121.875 Y103.851 E6.09665
G1 X121.218 Y106.536 E6.19973
G1 X121.015 Y107.207 E6.22587
G1 X120.805 Y107.749 E6.24757
G1 X119.889 Y109.866 E6.33357
G1 X119.665 Y110.338 E6.35307
G1 X119.289 Y110.997 E6.38138
G1 X117.794 Y113.299 E6.48374
G1 X117.243 Y113.990 E6.51669
G1 X115.377 Y116.035 E6.61996
G1 X114.740 Y116.608 E6.65189
G1 X112.558 Y118.328 E6.75553
G1 X111.846 Y118.783 E6.78705
G1 X109.825 Y119.912 E6.87339
G1 X109.402 Y120.131 E6.89115
G1 X108.635 Y120.459 E6.92226
G1 X106.004 Y121.392 E7.02638
G1 X105.198 Y121.590 E7.05735
G1 X102.915 Y122.012 E7.14393
G1 X102.443 Y122.084 E7.16175
G1 X101.629 Y122.147 E7.19219
G1 X99.236 Y122.194 E7.28147
G1 X98.206 Y122.141 E7.31992
G1 X95.637 Y121.774 E7.41672
G1 X94.627 Y121.554 E7.45525
G1 X92.156 Y120.775 E7.55189
G1 X91.201 Y120.396 E7.59023
G1 X88.885 Y119.223 E7.68705
G1 X88.005 Y118.695 E7.72532
G1 X85.908 Y117.160 E7.82223
G1 X85.122 Y116.491 E7.86073
G1 X83.307 Y114.640 E7.95743
G1 X82.654 Y113.870 E7.99507
G1 X81.148 Y111.727 E8.09276
G1 X80.695 Y110.989 E8.12504
G1 X80.510 Y110.628 E8.14018
G1 X79.508 Y108.537 E8.22667
G1 X79.295 Y108.050 E8.24650
G1 X79.057 Y107.361 E8.27368
G1 X78.325 Y104.835 E8.37175
G1 X78.136 Y103.818 E8.41036
G1 X77.854 Y101.493 E8.49769
G1 X77.805 Y100.829 E8.52252
G1 X77.806 Y100.235 E8.54467
G1 X77.935 Y97.491 E8.64712
G1 X78.059 Y96.657 E8.67858
G1 X78.620 Y94.013 E8.77938
G1 X78.898 Y93.132 E8.81386
G1 X79.743 Y90.949 E8.90116
G1 X80.159 Y90.041 E8.93838
G1 X81.509 Y87.735 E9.03805
G1 X81.940 Y87.088 E9.06706
G1 X82.253 Y86.686 E9.08606
G1 X83.752 Y84.892 E9.17326
G1 X84.182 Y84.422 E9.19700
G1 X84.391 Y84.631 F4800.000
G1 X84.831 Y84.216 E9.21955 F4200.000
G1 X86.584 Y82.705 E9.30588
G1 X86.888 Y82.457 E9.32052
G1 X87.573 Y81.980 E9.35163
G1 X89.799 Y80.626 E9.44880
G1 X90.675 Y80.197 E9.48517
G1 X92.837 Y79.321 E9.57217
G1 X93.170 Y79.195 E9.58547
G1 X94.022 Y78.944 E9.61860
G1 X96.653 Y78.360 E9.71913
G1 X97.528 Y78.252 E9.75200
G1 X99.852 Y78.116 E9.83880
G1 X100.932 Y78.126 E9.87908
G1 X103.489 Y78.391 E9.97499 F4200.000
G1 X104.474 Y78.568 E10.01229
G1 X106.947 Y79.242 E10.10788
G1 X107.762 Y79.522 E10.14003
G1 X110.230 Y80.647 E10.24119
G1 X110.978 Y81.050 E10.27288
G1 X113.246 Y82.571 E10.37473
G1 X113.830 Y83.013 E10.40205
G1 X114.203 Y83.342 E10.42059
G1 X115.881 Y84.931 E10.50678
G1 X116.273 Y85.332 E10.52771
G1 X116.703 Y85.845 E10.55268
G1 X118.099 Y87.685 E10.63881
G1 X118.376 Y88.074 E10.65661
G1 X118.786 Y88.753 E10.68620
G1 X120.009 Y91.083 E10.78435
G1 X120.365 Y91.952 E10.81936
G1 X121.199 Y94.467 E10.91818
G1 X121.376 Y95.203 E10.94641
G1 X121.682 Y96.877 E11.00990
G1 X121.792 Y97.761 E11.04311
G1 X121.904 Y99.593 E11.11159
G1 X121.916 Y100.107 E11.13074
G1 X121.889 Y100.683 E11.15225
G1 X121.701 Y102.979 E11.23818
G1 X121.585 Y103.792 E11.26881
G1 X120.931 Y106.464 E11.37141
G1 X120.736 Y107.107 E11.39647
G1 X120.533 Y107.632 E11.41745
G1 X119.618 Y109.748 E11.50344
G1 X119.401 Y110.205 E11.52232
G1 X119.040 Y110.837 E11.54946
G1 X117.552 Y113.129 E11.65137
G1 X117.024 Y113.792 E11.68297
G1 X115.167 Y115.827 E11.78575
G1 X114.556 Y116.376 E11.81637
G1 X112.385 Y118.089 E11.91950
G1 X111.702 Y118.525 E11.94973
G1 X109.681 Y119.654 E12.03607
G1 X109.270 Y119.867 E12.05331
G1 X108.535 Y120.181 E12.08314
G1 X105.917 Y121.110 E12.18674
G1 X105.144 Y121.300 E12.21643
G1 X102.861 Y121.721 E12.30301
G1 X102.403 Y121.792 E12.32029
G1 X101.623 Y121.852 E12.34948
G1 X99.230 Y121.899 E12.43875
G1 X98.238 Y121.847 E12.47581
G1 X95.679 Y121.482 E12.57220
G1 X94.707 Y121.269 E12.60933
G1 X92.246 Y120.493 E12.70557
G1 X91.325 Y120.127 E12.74252
G1 X89.019 Y118.960 E12.83893
G1 X88.171 Y118.450 E12.87580
G1 X86.084 Y116.922 E12.97231
G1 X85.326 Y116.277 E13.00940
G1 X83.518 Y114.433 E13.10571
G1 X82.892 Y113.695 E13.14180
G1 X81.390 Y111.558 E13.23925
G1 X80.956 Y110.850 E13.27020
G1 X80.777 Y110.500 E13.28487
G1 X79.774 Y108.409 E13.37135
G1 X79.571 Y107.942 E13.39037
G1 X79.340 Y107.278 E13.41656
G1 X78.612 Y104.761 E13.51431
G1 X78.429 Y103.782 E13.55145
G1 X78.148 Y101.458 E13.63877
G1 X78.100 Y100.821 E13.66258
G1 X78.101 Y100.248 E13.68396
G1 X78.230 Y97.517 E13.78590
G1 X78.349 Y96.718 E13.81607
G1 X78.908 Y94.084 E13.91649
G1 X79.174 Y93.238 E13.94954
G1 X80.019 Y91.055 E14.03684
G1 X80.418 Y90.182 E14.07266
G1 X81.764 Y87.886 E14.17194
G1 X82.177 Y87.265 E14.19975
G1 X82.480 Y86.875 E14.21815
G1 X83.979 Y85.081 E14.30534
G1 X84.330 Y84.697 E14.32475
G1 X84.548 Y84.896 F4800.000
G1 X85.024 Y84.440 E14.34934 F4200.000
G1 X86.777 Y82.929 E14.43567
G1 X87.072 Y82.688 E14.44985
G1 X87.727 Y82.232 E14.47962
G1 X89.948 Y80.882 E14.57656
G1 X90.786 Y80.471 E14.61137
G1 X92.948 Y79.595 E14.69837
G1 X93.272 Y79.472 E14.71129
G1 X94.087 Y79.232 E14.74300
G1 X96.708 Y78.650 E14.84313
G1 X97.545 Y78.547 E14.87459
G1 X99.869 Y78.412 E14.96139
G1 X100.906 Y78.421 E15.00008
G1 X103.459 Y78.685 E15.09579 F4200.000
G1 X104.401 Y78.855 E15.13149
G1 X106.868 Y79.527 E15.22687
G1 X107.649 Y79.795 E15.25765
G1 X110.106 Y80.916 E15.35838
G1 X110.822 Y81.301 E15.38871
G1 X113.081 Y82.815 E15.49013
G1 X113.639 Y83.239 E15.51627
G1 X113.999 Y83.557 E15.53418
G1 X115.678 Y85.146 E15.62038
G1 X116.056 Y85.533 E15.64058
G1 X116.468 Y86.024 E15.66448
G1 X117.864 Y87.863 E15.75060
G1 X118.132 Y88.241 E15.76788
G1 X118.525 Y88.891 E15.79620
G1 X119.741 Y91.209 E15.89382
G1 X120.085 Y92.045 E15.92756
G1 X120.915 Y94.551 E16.02602
G1 X121.085 Y95.256 E16.05305
G1 X121.391 Y96.930 E16.11653
G1 X121.497 Y97.779 E16.14842
G1 X121.609 Y99.611 E16.21690
G1 X121.620 Y100.104 E16.23529
G1 X121.594 Y100.659 E16.25599
G1 X121.406 Y102.955 E16.34192
G1 X121.296 Y103.733 E16.37124
G1 X120.644 Y106.392 E16.47335
G1 X120.458 Y107.008 E16.49734
G1 X120.262 Y107.514 E16.51759
G1 X119.347 Y109.631 E16.60359
G1 X119.137 Y110.072 E16.62182
G1 X118.791 Y110.677 E16.64780
G1 X117.310 Y112.959 E16.74927
G1 X116.805 Y113.593 E16.77951
G1 X114.956 Y115.620 E16.88181
G1 X114.372 Y116.145 E16.91111
G1 X112.211 Y117.849 E17.01374
G1 X111.558 Y118.267 E17.04267
G1 X109.537 Y119.395 E17.12901
G1 X109.139 Y119.602 E17.14574
G1 X108.435 Y119.903 E17.17428
G1 X105.830 Y120.827 E17.27736
G1 X105.090 Y121.009 E17.30578
G1 X102.808 Y121.431 E17.39235
G1 X102.364 Y121.499 E17.40910
G1 X101.617 Y121.556 E17.43703
G1 X99.224 Y121.603 E17.52629
G1 X98.269 Y121.553 E17.56196
G1 X95.722 Y121.189 E17.65795
G1 X94.786 Y120.984 E17.69367
G1 X92.335 Y120.211 E17.78951
G1 X91.449 Y119.859 E17.82507
G1 X89.153 Y118.696 E17.92108
G1 X88.338 Y118.206 E17.95655
G1 X86.259 Y116.684 E18.05265
G1 X85.530 Y116.063 E18.08834
G1 X83.730 Y114.227 E18.18426
G1 X83.131 Y113.520 E18.21880
G1 X81.632 Y111.388 E18.31599
G1 X81.217 Y110.711 E18.34561
G1 X81.043 Y110.372 E18.35981
G1 X80.041 Y108.282 E18.44630
G1 X79.846 Y107.834 E18.46450
G1 X79.624 Y107.195 E18.48971
G1 X78.898 Y104.686 E18.58713
G1 X78.723 Y103.746 E18.62280
G1 X78.441 Y101.422 E18.71012
G1 X78.396 Y100.813 E18.73291
G1 X78.397 Y100.260 E18.75351
G1 X78.524 Y97.544 E18.85495
G1 X78.638 Y96.778 E18.88382
G1 X79.195 Y94.154 E18.98385
G1 X79.449 Y93.345 E19.01549
G1 X80.294 Y91.162 E19.10279
G1 X80.678 Y90.323 E19.13720
G1 X82.019 Y88.036 E19.23609
G1 X82.414 Y87.441 E19.26271
G1 X82.707 Y87.065 E19.28050
G1 X84.206 Y85.271 E19.36769
G1 X84.487 Y84.963 E19.38326
G1 X84.705 Y85.162 F4800.000
G1 X85.217 Y84.664 E19.40989 F4200.000
G1 X86.970 Y83.153 E19.49621
G1 X87.255 Y82.920 E19.50993
G1 X87.881 Y82.484 E19.53836
G1 X90.096 Y81.137 E19.63507
G1 X90.897 Y80.745 E19.66831
G1 X93.059 Y79.869 E19.75531
G1 X93.373 Y79.750 E19.76786
G1 X94.152 Y79.521 E19.79815
G1 X96.763 Y78.941 E19.89789
G1 X97.563 Y78.842 E19.92794
G1 X99.886 Y78.707 E20.01474
G1 X100.881 Y78.715 E20.05184
G1 X103.428 Y78.979 E20.14734 F4200.000
G1 X104.327 Y79.141 E20.18144
G1 X106.790 Y79.812 E20.27662
G1 X107.535 Y80.068 E20.30602
G1 X109.982 Y81.184 E20.40633
G1 X110.666 Y81.552 E20.43530
G1 X112.915 Y83.060 E20.53628
G1 X113.449 Y83.464 E20.56125
G1 X113.796 Y83.771 E20.57853
G1 X115.474 Y85.360 E20.66473
G1 X115.839 Y85.734 E20.68420
G1 X116.232 Y86.203 E20.70703
G1 X117.628 Y88.042 E20.79316
G1 X117.888 Y88.408 E20.80990
G1 X118.264 Y89.029 E20.83695
G1 X119.474 Y91.334 E20.93406
G1 X119.805 Y92.139 E20.96651
G1 X120.632 Y94.636 E21.06462
G1 X120.794 Y95.309 E21.09044
G1 X121.100 Y96.983 E21.15392
G1 X121.202 Y97.797 E21.18448
G1 X121.314 Y99.629 E21.25296
G1 X121.325 Y100.102 E21.27060
G1 X121.300 Y100.635 E21.29048
G1 X121.112 Y102.931 E21.37641
G1 X121.006 Y103.674 E21.40442
G1 X120.357 Y106.321 E21.50604
G1 X120.179 Y106.909 E21.52895
G1 X119.991 Y107.397 E21.54848
G1 X119.075 Y109.513 E21.63448
G1 X118.873 Y109.940 E21.65208
G1 X118.543 Y110.517 E21.67690
G1 X117.068 Y112.790 E21.77792
G1 X116.585 Y113.395 E21.80681
G1 X114.746 Y115.412 E21.90862
G1 X114.188 Y115.914 E21.93661
G1 X112.038 Y117.610 E22.03874
G1 X111.414 Y118.009 E22.06637
G1 X109.392 Y119.137 E22.15271
G1 X109.007 Y119.337 E22.16891
G1 X108.335 Y119.625 E22.19618
G1 X105.743 Y120.545 E22.29873
G1 X105.037 Y120.718 E22.32587
G1 X102.754 Y121.140 E22.41245
G1 X102.324 Y121.206 E22.42866
G1 X101.611 Y121.261 E22.45534
G1 X99.218 Y121.307 E22.54459
G1 X98.301 Y121.259 E22.57887
G1 X95.764 Y120.896 E22.67444
G1 X94.865 Y120.699 E22.70877
G1 X92.424 Y119.930 E22.80421
G1 X91.574 Y119.591 E22.83837
G1 X89.287 Y118.433 E22.93398
G1 X88.504 Y117.961 E22.96806
G1 X86.434 Y116.445 E23.06375
G1 X85.734 Y115.849 E23.09803
G1 X83.941 Y114.020 E23.19356
G1 X83.369 Y113.345 E23.22655
G1 X81.875 Y111.219 E23.32349
G1 X81.478 Y110.572 E23.35179
G1 X81.310 Y110.245 E23.36552
G1 X80.307 Y108.154 E23.45200
G1 X80.121 Y107.726 E23.46939
G1 X79.908 Y107.113 E23.49362
G1 X79.184 Y104.612 E23.59071
G1 X79.016 Y103.711 E23.62490
G1 X78.734 Y101.386 E23.71223
G1 X78.691 Y100.805 E23.73399
G1 X78.692 Y100.273 E23.75381
G1 X78.819 Y97.570 E23.85475
G1 X78.927 Y96.838 E23.88232
G1 X79.482 Y94.225 E23.98198
G1 X79.725 Y93.452 E24.01220
G1 X80.636 Y91.105 E24.10609
G1 X80.938 Y90.464 E24.13250
G1 X81.085 Y90.201 E24.14376
G1 X82.273 Y88.186 E24.23100
G1 X82.651 Y87.618 E24.25643
G1 X82.934 Y87.254 E24.27362
G1 X84.645 Y85.228 E24.37252
G1 E20.37252 F2400.00000
G92 E0
G1 X89.393 Y89.623 F4800.000
G1 E4.00000 F2400.00000
G1 X91.188 Y88.066 E4.08862 F4200.000
G1 X93.342 Y86.741 E4.18294
G1 X95.590 Y85.835 E4.27333
G1 X97.955 Y85.306 E4.36371
G1 X100.255 Y85.172 E4.44965
G1 X100.470 Y85.180 E4.45768
G1 X102.735 Y85.418 E4.54260 F4200.000
G1 X105.060 Y86.052 E4.63248
G1 X107.261 Y87.060 E4.72277
G1 X109.274 Y88.416 E4.81329
G1 X111.011 Y90.052 E4.90231
G1 X112.545 Y92.067 E4.99673
G1 X113.668 Y94.207 E5.08686
G1 X114.426 Y96.486 E5.17646
G1 X114.739 Y98.201 E5.24147
G1 X114.849 Y100.048 E5.31048
G1 X114.658 Y102.392 E5.39819
G1 X114.078 Y104.736 E5.48826
G1 X113.137 Y106.929 E5.57727
G1 X111.771 Y109.064 E5.67180
G1 X110.142 Y110.858 E5.76217
G1 X108.244 Y112.362 E5.85250
G1 X106.125 Y113.538 E5.94289
G1 X103.850 Y114.352 E6.03300
G1 X101.465 Y114.787 E6.12343
G1 X99.107 Y114.833 E6.21137
G1 X96.706 Y114.490 E6.30181
G1 X94.393 Y113.760 E6.39228
G1 X92.235 Y112.667 E6.48251
G1 X90.280 Y111.236 E6.57288
G1 X88.583 Y109.505 E6.66327
G1 X87.189 Y107.519 E6.75378
G1 X86.121 Y105.286 E6.84611
G1 X85.443 Y102.918 E6.93796
G1 X85.165 Y100.622 E7.02421
G1 X85.260 Y98.246 E7.11291
G1 X85.769 Y95.776 E7.20697
G1 X86.671 Y93.478 E7.29905
G1 X87.913 Y91.395 E7.38947
G1 X89.336 Y89.692 E7.47224
G1 X104.630 Y86.129 F4800.000
G1 X113.844 Y95.344 E7.96102 F4200.000
G1 X114.054 Y95.974 F4800.000
G1 X104.051 Y85.971 E8.49159 F4200.000
G1 X103.473 Y85.814 E8.51407
G1 X114.263 Y96.604 E9.08642
G1 X114.358 Y97.118 E9.10605
G1 X102.895 Y85.656 E9.71407
G1 X102.375 Y85.556 E9.73392
G1 X114.452 Y97.633 E10.37449
G1 X114.545 Y98.147 E10.39410
G1 X101.905 Y85.507 E11.06457
G1 X101.436 Y85.458 E11.08229
G1 X114.591 Y98.613 E11.78010
G1 X114.617 Y99.060 E11.79690
G1 X100.966 Y85.408 E12.52105
G1 X100.496 Y85.359 E12.53877
G1 X114.644 Y99.507 E13.28926
G1 X114.671 Y99.954 E13.30606
G1 X100.065 Y85.348 E14.08081
G1 X99.668 Y85.371 E14.09574
G1 X114.659 Y100.363 E14.89095
G1 X114.628 Y100.752 E14.90559
G1 X99.270 Y85.395 E15.72020
G1 X98.873 Y85.418 E15.73512
G1 X114.596 Y101.141 E16.56913
G1 X114.564 Y101.529 E16.58376
G1 X98.476 Y85.441 E17.43716
G1 X98.079 Y85.464 E17.45208
G1 X114.533 Y101.918 E18.32488
G1 X114.501 Y102.307 E18.33951
G1 X97.714 Y85.520 E19.22996
G1 X97.371 Y85.597 E19.24317
G1 X114.437 Y102.663 E20.14842
G1 X114.353 Y102.999 E20.16143
G1 X97.027 Y85.674 E21.08045
G1 X96.683 Y85.751 E21.09365
G1 X114.268 Y103.336 E22.02644
G1 X114.184 Y103.672 E22.03945
G1 X96.340 Y85.827 E22.98600
G1 X95.996 Y85.904 E22.99921
G1 X114.100 Y104.008 E23.95953
G1 X114.016 Y104.345 E23.97254
G1 X95.652 Y85.981 E24.94663
G1 X95.346 Y86.095 E24.95890
G1 X113.932 Y104.681 E25.94481
G1 X113.811 Y104.981 E25.95693
G1 X95.046 Y86.215 E26.95232
G1 X94.746 Y86.336 E26.96444
G1 X113.685 Y105.275 E27.96904
G1 X113.559 Y105.569 E27.98104
G1 X94.447 Y86.457 E28.99484
G1 X94.147 Y86.578 E29.00695
G1 X113.433 Y105.864 E30.02994
G1 X113.307 Y106.158 E30.04195
G1 X93.847 Y86.699 E31.07414
G1 X93.548 Y86.820 E31.08626
G1 X113.180 Y106.452 E32.12765
G1 X113.054 Y106.746 E32.13965
G1 X93.266 Y86.958 E33.18929
G1 X93.006 Y87.118 E33.20076
G1 X112.908 Y107.020 E34.25643
G1 X112.744 Y107.277 E34.26785
G1 X92.745 Y87.278 E35.32863
G1 X92.485 Y87.439 E35.34009
G1 X112.579 Y107.533 E36.40598
G1 X112.415 Y107.789 E36.41740
G1 X92.225 Y87.599 E37.48838
G1 X91.965 Y87.759 E37.49984
G1 X112.251 Y108.046 E38.57593
G1 X112.087 Y108.302 E38.58735
G1 X91.704 Y87.919 E39.66854
G1 X91.444 Y88.079 E39.68001
G1 X111.923 Y108.558 E40.76630
G1 X111.759 Y108.815 E40.77772
G1 X91.194 Y88.250 E41.86855
G1 X90.969 Y88.445 E41.87973
G1 X111.583 Y109.059 E42.97316
G1 X111.383 Y109.279 E42.98433
G1 X90.744 Y88.641 E44.07909
G1 X90.519 Y88.836 E44.09027
G1 X111.183 Y109.500 E45.18637
G1 X110.983 Y109.720 E45.19753
G1 X90.294 Y89.031 E46.29495
G1 X90.069 Y89.226 E46.30613
G1 X110.782 Y109.940 E47.40489
G1 X110.582 Y110.161 E47.41605
G1 X89.843 Y89.422 E48.51613
G1 X89.624 Y89.623 E48.52729
G1 X110.382 Y110.381 E49.62838
G1 X110.175 Y110.594 E49.63953
G1 X89.414 Y89.833 E50.74076
G1 X89.217 Y90.057 E50.75194
G1 X109.965 Y110.804 E51.85246
G1 X109.736 Y110.996 E51.86365
