; generated by Slic3r 1.2.9 on 2017-04-06 at 10:04:22

; external perimeters extrusion width = 0.60mm
; perimeters extrusion width = 0.60mm
; infill extrusion width = 0.60mm
; solid infill extrusion width = 0.60mm
; top infill extrusion width = 0.60mm
; support material extrusion width = 0.60mm

M107
M190 S55 ; set bed temperature
M104 S200 ; set temperature
G28 ; home all axes
G1 Z5 F5000 ; lift nozzle

M109 S200 ; wait for temperature to be reached
G21 ; set units to millimeters
G90 ; use absolute coordinates
M82 ; use absolute distances for extrusion
G92 E0
G1 E-4.00000 F2400.00000
G92 E0
G1 Z0.300 F4800.000
G1 X84.290 Y84.320 F4800.000
G1 E4.00000 F2400.00000
G1 X84.667 Y83.971 E4.01915 F4200.000
G1 X86.426 Y82.455 E4.10575
G1 X86.868 Y82.103 E4.12683
G1 X87.417 Y81.730 E4.15157
G1 X89.479 Y80.471 E4.24169
G1 X90.111 Y80.127 E4.26854
G1 X90.596 Y79.909 E4.28837
G1 X92.770 Y79.029 E4.37583
G1 X93.245 Y78.855 E4.39471
G1 X93.964 Y78.653 E4.42255
G1 X96.646 Y78.059 E4.52501
G1 X97.519 Y77.954 E4.55781
G1 X99.855 Y77.818 E4.64508
G1 X100.848 Y77.820 E4.68210
G1 X103.505 Y78.092 E4.78172 F4200.000
G1 X104.259 Y78.212 E4.81020
G1 X104.775 Y78.335 E4.82998
G1 X107.023 Y78.953 E4.91693
G1 X107.713 Y79.180 E4.94401
G1 X108.215 Y79.388 E4.96428
G1 X110.678 Y80.535 E5.06561
G1 X111.428 Y80.978 E5.09810
G1 X113.304 Y82.248 E5.18261
G1 X113.667 Y82.506 E5.19923
G1 X114.294 Y83.017 E5.22938
G1 X116.070 Y84.694 E5.32048
G1 X116.509 Y85.146 E5.34398
G1 X116.940 Y85.662 E5.36906
G1 X118.434 Y87.631 E5.46124
G1 X119.008 Y88.542 E5.50140
G1 X120.158 Y90.710 E5.59291
G1 X120.419 Y91.258 E5.61557
G1 X120.645 Y91.847 E5.63908
G1 X121.415 Y94.155 E5.72985
G1 X121.646 Y95.022 E5.76330
G1 X121.986 Y96.870 E5.83337
G1 X122.090 Y97.722 E5.86539
G1 X122.214 Y99.859 E5.94521
G1 X122.192 Y100.635 E5.97418
G1 X121.988 Y103.081 E6.06571
G1 X121.819 Y104.142 E6.10581
G1 X121.221 Y106.539 E6.19796
G1 X121.020 Y107.204 E6.22385
G1 X120.810 Y107.747 E6.24556
G1 X119.891 Y109.872 E6.33190
G1 X119.673 Y110.332 E6.35090
G1 X119.294 Y110.998 E6.37947
G1 X117.979 Y113.041 E6.47008
G1 X117.631 Y113.529 E6.49243
G1 X117.233 Y114.009 E6.51571
G1 X115.702 Y115.703 E6.60086
G1 X115.334 Y116.085 E6.62064
G1 X114.740 Y116.614 E6.65032
G1 X112.923 Y118.061 E6.73695
G1 X112.665 Y118.258 E6.74905
G1 X112.006 Y118.694 E6.77853
G1 X109.772 Y119.946 E6.87404
G1 X109.155 Y120.253 E6.89972
G1 X108.595 Y120.481 E6.92228
G1 X106.280 Y121.311 E7.01399
G1 X105.495 Y121.529 E7.04440
G1 X102.846 Y122.028 E7.14492
G1 X101.866 Y122.141 E7.18170
G1 X99.263 Y122.197 E7.27882
G1 X98.617 Y122.181 E7.30293
G1 X98.004 Y122.119 E7.32589
G1 X95.274 Y121.711 E7.42886
G1 X94.436 Y121.499 E7.46108
G1 X92.203 Y120.790 E7.54848
G1 X91.882 Y120.681 E7.56111
G1 X91.098 Y120.347 E7.59289
G1 X88.892 Y119.226 E7.68517
G1 X88.134 Y118.780 E7.71797
G1 X85.915 Y117.162 E7.82041
G1 X85.341 Y116.693 E7.84805
G1 X84.975 Y116.343 E7.86695
G1 X83.332 Y114.661 E7.95464
G1 X82.983 Y114.278 E7.97395
G1 X82.535 Y113.703 E8.00116
G1 X81.122 Y111.681 E8.09315
G1 X80.798 Y111.165 E8.11587
G1 X80.529 Y110.656 E8.13736
G1 X79.344 Y108.152 E8.24067
G1 X79.067 Y107.371 E8.27158
G1 X78.383 Y105.016 E8.36303
G1 X78.162 Y103.967 E8.40304
G1 X77.860 Y101.489 E8.49612
G1 X77.811 Y100.824 E8.52100
G1 X77.813 Y100.242 E8.54269
G1 X77.941 Y97.497 E8.64517
G1 X78.065 Y96.660 E8.67676
G1 X78.629 Y94.009 E8.77783
G1 X78.909 Y93.118 E8.81267
G1 X79.917 Y90.547 E8.91565
G1 X80.305 Y89.789 E8.94742
G1 X81.500 Y87.761 E9.03520
G1 X82.056 Y86.938 E9.07226
G1 X83.761 Y84.888 E9.17171
G1 X84.229 Y84.385 E9.19730
G1 X84.495 Y84.532 F4800.000
G1 X84.860 Y84.195 E9.21585 F4200.000
G1 X86.619 Y82.679 E9.30245
G1 X87.045 Y82.339 E9.32277
G1 X87.573 Y81.981 E9.34657
G1 X89.633 Y80.723 E9.43658
G1 X90.239 Y80.393 E9.46233
G1 X90.707 Y80.183 E9.48146
G1 X92.881 Y79.303 E9.56893
G1 X93.340 Y79.135 E9.58715
G1 X94.029 Y78.941 E9.61385
G1 X96.699 Y78.350 E9.71585
G1 X97.537 Y78.250 E9.74731
G1 X99.872 Y78.113 E9.83457
G1 X100.827 Y78.115 E9.87019
G1 X103.474 Y78.386 E9.96942 F4200.000
G1 X104.197 Y78.502 E9.99672
G1 X104.697 Y78.620 E10.01587
G1 X106.945 Y79.238 E10.10283
G1 X107.610 Y79.457 E10.12894
G1 X108.091 Y79.657 E10.14838
G1 X110.543 Y80.798 E10.24925
G1 X111.262 Y81.223 E10.28040
G1 X113.139 Y82.493 E10.36491
G1 X113.494 Y82.746 E10.38117
G1 X114.095 Y83.235 E10.41008
G1 X115.867 Y84.908 E10.50097
G1 X116.291 Y85.346 E10.52371
G1 X116.705 Y85.841 E10.54775
G1 X118.196 Y87.807 E10.63981
G1 X118.747 Y88.681 E10.67832
G1 X119.896 Y90.848 E10.76983
G1 X120.147 Y91.374 E10.79155
G1 X120.364 Y91.940 E10.81417
G1 X121.135 Y94.249 E10.90494
G1 X121.356 Y95.080 E10.93701
G1 X121.695 Y96.923 E11.00690
G1 X121.795 Y97.740 E11.03761
G1 X121.919 Y99.866 E11.11703
G1 X121.897 Y100.610 E11.14481
G1 X121.693 Y103.056 E11.23634
G1 X121.531 Y104.074 E11.27479
G1 X120.934 Y106.468 E11.36680
G1 X120.741 Y107.105 E11.39163
G1 X120.539 Y107.630 E11.41261
G1 X119.620 Y109.754 E11.49894
G1 X119.409 Y110.200 E11.51732
G1 X119.045 Y110.838 E11.54472
G1 X117.731 Y112.880 E11.63527
G1 X117.398 Y113.348 E11.65670
G1 X117.014 Y113.811 E11.67915
G1 X115.483 Y115.505 E11.76430
G1 X115.125 Y115.875 E11.78351
G1 X114.555 Y116.383 E11.81196
G1 X112.739 Y117.830 E11.89859
G1 X112.488 Y118.021 E11.91033
G1 X111.857 Y118.439 E11.93860
G1 X109.628 Y119.688 E12.03388
G1 X109.036 Y119.982 E12.05851
G1 X108.495 Y120.202 E12.08032
G1 X106.286 Y120.997 E12.16787
G1 X105.432 Y121.240 E12.20097
G1 X102.792 Y121.737 E12.30116
G1 X101.849 Y121.845 E12.33659
G1 X99.257 Y121.901 E12.43326
G1 X98.634 Y121.886 E12.45651
G1 X98.047 Y121.826 E12.47853
G1 X95.333 Y121.421 E12.58086
G1 X94.526 Y121.217 E12.61192
G1 X92.292 Y120.509 E12.69932
G1 X91.982 Y120.403 E12.71154
G1 X91.228 Y120.081 E12.74213
G1 X89.026 Y118.963 E12.83421
G1 X88.300 Y118.535 E12.86566
G1 X86.090 Y116.924 E12.96765
G1 X85.540 Y116.474 E12.99415
G1 X85.186 Y116.136 E13.01239
G1 X83.543 Y114.455 E13.10008
G1 X83.207 Y114.085 E13.11871
G1 X82.777 Y113.533 E13.14480
G1 X81.366 Y111.514 E13.23669
G1 X81.055 Y111.019 E13.25849
G1 X80.796 Y110.528 E13.27920
G1 X79.616 Y108.037 E13.38197
G1 X79.351 Y107.288 E13.41161
G1 X78.667 Y104.934 E13.50306
G1 X78.455 Y103.927 E13.54142
G1 X78.154 Y101.453 E13.63436
G1 X78.106 Y100.816 E13.65822
G1 X78.108 Y100.255 E13.67913
G1 X78.236 Y97.523 E13.78111
G1 X78.355 Y96.720 E13.81140
G1 X78.916 Y94.079 E13.91211
G1 X79.184 Y93.224 E13.94551
G1 X80.187 Y90.666 E14.04800
G1 X80.560 Y89.939 E14.07847
G1 X81.755 Y87.912 E14.16625
G1 X82.290 Y87.120 E14.20188
G1 X83.988 Y85.077 E14.30095
G1 X84.434 Y84.598 E14.32536
G1 X84.700 Y84.745 F4800.000
G1 X85.054 Y84.419 E14.34329 F4200.000
G1 X86.812 Y82.903 E14.42989
G1 X87.222 Y82.576 E14.44945
G1 X87.730 Y82.232 E14.47232
G1 X89.787 Y80.975 E14.56223
G1 X90.367 Y80.659 E14.58687
G1 X90.818 Y80.457 E14.60531
G1 X92.992 Y79.577 E14.69277
G1 X93.434 Y79.415 E14.71034
G1 X94.094 Y79.230 E14.73589
G1 X96.752 Y78.641 E14.83745
G1 X97.554 Y78.545 E14.86755
G1 X99.890 Y78.408 E14.95482
G1 X100.807 Y78.410 E14.98903
G1 X103.443 Y78.680 E15.08787 F4200.000
G1 X104.135 Y78.791 E15.11400
G1 X104.618 Y78.905 E15.13252
G1 X106.866 Y79.523 E15.21947
G1 X107.507 Y79.734 E15.24463
G1 X107.967 Y79.925 E15.26323
G1 X110.408 Y81.061 E15.36363
G1 X111.096 Y81.468 E15.39344
G1 X112.973 Y82.738 E15.47795
G1 X113.320 Y82.985 E15.49387
G1 X113.896 Y83.454 E15.52153
G1 X115.664 Y85.123 E15.61222
G1 X116.074 Y85.546 E15.63419
G1 X116.469 Y86.019 E15.65720
G1 X117.959 Y87.983 E15.74913
G1 X118.486 Y88.819 E15.78598
G1 X119.635 Y90.987 E15.87749
G1 X119.875 Y91.490 E15.89828
G1 X120.084 Y92.034 E15.92002
G1 X120.855 Y94.342 E16.01079
G1 X121.066 Y95.138 E16.04148
G1 X121.405 Y96.976 E16.11119
G1 X121.500 Y97.758 E16.14057
G1 X121.623 Y99.873 E16.21960
G1 X121.603 Y100.586 E16.24618
G1 X121.399 Y103.031 E16.33771
G1 X121.243 Y104.006 E16.37451
G1 X120.647 Y106.396 E16.46639
G1 X120.463 Y107.006 E16.49016
G1 X120.267 Y107.512 E16.51040
G1 X119.348 Y109.637 E16.59673
G1 X119.145 Y110.067 E16.61449
G1 X118.796 Y110.678 E16.64071
G1 X117.483 Y112.718 E16.73121
G1 X117.164 Y113.166 E16.75171
G1 X116.794 Y113.613 E16.77335
G1 X115.264 Y115.307 E16.85850
G1 X114.916 Y115.666 E16.87712
G1 X114.371 Y116.152 E16.90436
G1 X112.555 Y117.599 E16.99099
G1 X112.312 Y117.784 E17.00236
G1 X111.707 Y118.184 E17.02942
G1 X109.484 Y119.430 E17.12448
G1 X108.918 Y119.711 E17.14805
G1 X108.394 Y119.924 E17.16912
G1 X106.191 Y120.717 E17.25645
G1 X105.370 Y120.951 E17.28830
G1 X102.739 Y121.446 E17.38815
G1 X101.831 Y121.550 E17.42222
G1 X99.252 Y121.606 E17.51845
G1 X98.651 Y121.591 E17.54086
G1 X98.089 Y121.534 E17.56193
G1 X95.393 Y121.132 E17.66361
G1 X94.615 Y120.935 E17.69351
G1 X92.381 Y120.227 E17.78092
G1 X92.082 Y120.124 E17.79273
G1 X91.357 Y119.815 E17.82212
G1 X89.160 Y118.699 E17.91401
G1 X88.465 Y118.290 E17.94410
G1 X86.265 Y116.686 E18.04565
G1 X85.739 Y116.255 E18.07101
G1 X85.398 Y115.930 E18.08859
G1 X83.755 Y114.248 E18.17627
G1 X83.431 Y113.892 E18.19423
G1 X83.020 Y113.364 E18.21919
G1 X81.609 Y111.346 E18.31100
G1 X81.312 Y110.872 E18.33186
G1 X81.062 Y110.400 E18.35180
G1 X79.889 Y107.923 E18.45403
G1 X79.635 Y107.206 E18.48240
G1 X78.951 Y104.851 E18.57384
G1 X78.748 Y103.888 E18.61056
G1 X78.447 Y101.418 E18.70336
G1 X78.402 Y100.807 E18.72619
G1 X78.403 Y100.267 E18.74633
G1 X78.530 Y97.549 E18.84781
G1 X78.644 Y96.781 E18.87680
G1 X79.203 Y94.149 E18.97715
G1 X79.460 Y93.331 E19.00911
G1 X80.458 Y90.785 E19.11111
G1 X80.814 Y90.089 E19.14026
G1 X82.010 Y88.062 E19.22805
G1 X82.523 Y87.301 E19.26226
G1 X84.215 Y85.267 E19.36095
G1 X84.639 Y84.811 E19.38417
G1 X84.905 Y84.958 F4800.000
G1 X85.247 Y84.643 E19.40149 F4200.000
G1 X87.005 Y83.127 E19.48809
G1 X87.399 Y82.813 E19.50688
G1 X87.886 Y82.483 E19.52883
G1 X89.941 Y81.227 E19.61863
G1 X90.495 Y80.926 E19.64217
G1 X90.929 Y80.731 E19.65991
G1 X93.103 Y79.851 E19.74737
G1 X93.529 Y79.695 E19.76429
G1 X94.159 Y79.518 E19.78869
G1 X96.806 Y78.932 E19.88980
G1 X97.571 Y78.840 E19.91855
G1 X99.907 Y78.703 E20.00582
G1 X100.786 Y78.705 E20.03862
G1 X103.412 Y78.974 E20.13707 F4200.000
G1 X104.073 Y79.080 E20.16202
G1 X104.540 Y79.190 E20.17992
G1 X106.788 Y79.808 E20.26688
G1 X107.404 Y80.011 E20.29106
G1 X107.844 Y80.194 E20.30883
G1 X110.273 Y81.324 E20.40877
G1 X110.931 Y81.713 E20.43724
G1 X112.807 Y82.983 E20.52176
G1 X113.147 Y83.225 E20.53732
G1 X113.697 Y83.672 E20.56374
G1 X115.460 Y85.338 E20.65422
G1 X115.856 Y85.746 E20.67543
G1 X116.234 Y86.198 E20.69740
G1 X117.721 Y88.159 E20.78920
G1 X118.225 Y88.958 E20.82440
G1 X119.374 Y91.125 E20.91591
G1 X119.623 Y91.653 E20.93766
G1 X119.803 Y92.128 E20.95662
G1 X120.574 Y94.436 E21.04738
G1 X120.815 Y95.398 E21.08435
G1 X121.114 Y97.029 E21.14622
G1 X121.205 Y97.776 E21.17428
G1 X121.322 Y99.704 E21.24630
G1 X121.308 Y100.561 E21.27829
G1 X121.104 Y103.007 E21.36982
G1 X120.956 Y103.938 E21.40497
G1 X120.360 Y106.324 E21.49672
G1 X120.184 Y106.907 E21.51942
G1 X119.996 Y107.395 E21.53893
G1 X119.077 Y109.520 E21.62526
G1 X118.880 Y109.935 E21.64239
G1 X118.548 Y110.518 E21.66744
G1 X117.236 Y112.557 E21.75787
G1 X116.931 Y112.985 E21.77746
G1 X116.575 Y113.415 E21.79827
G1 X115.044 Y115.109 E21.88343
G1 X114.708 Y115.456 E21.90147
G1 X114.187 Y115.920 E21.92749
G1 X112.370 Y117.368 E22.01411
G1 X112.135 Y117.547 E22.02513
G1 X111.558 Y117.929 E22.05097
G1 X109.339 Y119.172 E22.14580
G1 X108.799 Y119.440 E22.16832
G1 X108.294 Y119.646 E22.18864
G1 X106.096 Y120.437 E22.27576
G1 X105.307 Y120.662 E22.30636
G1 X102.685 Y121.155 E22.40588
G1 X101.814 Y121.255 E22.43859
G1 X99.246 Y121.310 E22.53438
G1 X98.668 Y121.296 E22.55593
G1 X98.131 Y121.241 E22.57606
G1 X95.452 Y120.842 E22.67709
G1 X94.704 Y120.654 E22.70584
G1 X92.471 Y119.945 E22.79324
G1 X92.181 Y119.846 E22.80465
G1 X91.486 Y119.549 E22.83284
G1 X89.294 Y118.436 E22.92454
G1 X88.630 Y118.045 E22.95328
G1 X86.440 Y116.447 E23.05437
G1 X85.937 Y116.036 E23.07860
G1 X85.609 Y115.723 E23.09552
G1 X83.966 Y114.041 E23.18320
G1 X83.655 Y113.699 E23.20048
G1 X83.262 Y113.194 E23.22432
G1 X81.853 Y111.179 E23.31604
G1 X81.569 Y110.726 E23.33596
G1 X81.329 Y110.272 E23.35513
G1 X80.161 Y107.808 E23.45682
G1 X79.919 Y107.123 E23.48391
G1 X79.235 Y104.769 E23.57536
G1 X79.041 Y103.849 E23.61043
G1 X78.741 Y101.382 E23.70309
G1 X78.697 Y100.799 E23.72490
G1 X78.699 Y100.280 E23.74426
G1 X78.825 Y97.575 E23.84524
G1 X78.933 Y96.841 E23.87293
G1 X79.490 Y94.219 E23.97291
G1 X79.736 Y93.438 E24.00344
G1 X80.729 Y90.904 E24.10495
G1 X81.069 Y90.239 E24.13280
G1 X82.264 Y88.212 E24.22058
G1 X82.756 Y87.483 E24.25337
G1 X84.442 Y85.456 E24.35168
G1 X84.844 Y85.024 E24.37371
G1 E20.37371 F2400.00000
G92 E0
G1 X111.175 Y109.722 F4800.000
G1 E4.00000 F2400.00000
G1 X110.141 Y110.864 E4.05747 F4200.000
G1 X108.276 Y112.347 E4.14633
G1 X106.084 Y113.559 E4.23974
G1 X103.929 Y114.334 E4.32515
G1 X101.522 Y114.785 E4.41649
G1 X99.134 Y114.836 E4.50557
G1 X96.649 Y114.477 E4.59924
G1 X94.309 Y113.721 E4.69093
G1 X92.243 Y112.670 E4.77740
G1 X90.287 Y111.238 E4.86782
G1 X88.560 Y109.470 E4.95999
G1 X87.197 Y107.522 E5.04865
G1 X86.133 Y105.302 E5.14045
G1 X85.451 Y102.928 E5.23261
G1 X85.171 Y100.618 E5.31938
G1 X85.268 Y98.236 E5.40829
G1 X85.780 Y95.762 E5.50252
G1 X86.655 Y93.516 E5.59243
G1 X87.913 Y91.401 E5.68419
G1 X89.402 Y89.619 E5.77082
G1 X91.223 Y88.040 E5.86070
G1 X93.304 Y86.762 E5.95179
G1 X95.597 Y85.832 E6.04407
G1 X97.963 Y85.304 E6.13449
G1 X100.426 Y85.171 E6.22648
G1 X102.719 Y85.413 E6.31248
G1 X105.148 Y86.082 E6.40646 F4200.000
G1 X107.314 Y87.084 E6.49545
G1 X109.340 Y88.464 E6.58688
G1 X110.998 Y90.030 E6.67193
G1 X112.510 Y92.004 E6.76470
G1 X113.666 Y94.192 E6.85698
G1 X114.428 Y96.475 E6.94672
G1 X114.742 Y98.183 E7.01151
G1 X114.854 Y100.036 E7.08073
G1 X114.636 Y102.523 E7.17387
G1 X114.082 Y104.740 E7.25908
G1 X113.139 Y106.936 E7.34820
G1 X111.815 Y109.014 E7.44011
G1 X111.235 Y109.655 E7.47234
G1 X114.057 Y95.968 F4800.000
G1 X104.067 Y85.979 E8.00227 F4200.000
G1 X103.487 Y85.819 E8.02485
G1 X114.267 Y96.598 E8.59671
G1 X114.361 Y97.114 E8.61635
G1 X102.906 Y85.659 E9.22402
G1 X102.381 Y85.553 E9.24414
G1 X114.456 Y97.629 E9.88472
G1 X114.551 Y98.144 E9.90437
G1 X101.911 Y85.504 E10.57491
G1 X101.441 Y85.454 E10.59264
G1 X114.595 Y98.608 E11.29045
G1 X114.622 Y99.056 E11.30727
G1 X100.971 Y85.405 E12.03145
G1 X100.501 Y85.355 E12.04917
G1 X114.649 Y99.504 E12.79972
G1 X114.676 Y99.951 E12.81653
G1 X100.080 Y85.355 E13.59083
G1 X99.681 Y85.377 E13.60582
G1 X114.662 Y100.357 E14.40053
G1 X114.628 Y100.744 E14.41509
G1 X99.282 Y85.398 E15.22917
G1 X98.883 Y85.420 E15.24416
G1 X114.594 Y101.130 E16.07760
G1 X114.560 Y101.517 E16.09216
G1 X98.484 Y85.441 E16.94498
G1 X98.085 Y85.463 E16.95997
G1 X114.526 Y101.904 E17.83216
G1 X114.492 Y102.290 E17.84672
G1 X97.720 Y85.518 E18.73647
G1 X97.376 Y85.595 E18.74968
G1 X114.441 Y102.660 E19.65498
G1 X114.357 Y102.996 E19.66799
G1 X97.033 Y85.672 E20.58706
G1 X96.689 Y85.748 E20.60027
G1 X114.273 Y103.333 E21.53311
G1 X114.189 Y103.669 E21.54612
G1 X96.345 Y85.825 E22.49273
G1 X96.002 Y85.902 E22.50594
G1 X114.105 Y104.006 E23.46633
G1 X114.021 Y104.342 E23.47934
G1 X95.658 Y85.979 E24.45349
G1 X95.352 Y86.093 E24.46576
G1 X113.937 Y104.678 E25.45170
G1 X113.817 Y104.979 E25.46384
G1 X95.052 Y86.214 E26.45929
G1 X94.753 Y86.336 E26.47140
G1 X113.691 Y105.273 E27.47603
G1 X113.564 Y105.567 E27.48804
G1 X94.454 Y86.457 E28.50185
G1 X94.155 Y86.578 E28.51396
G1 X113.438 Y105.862 E29.53694
G1 X113.312 Y106.156 E29.54895
G1 X93.855 Y86.699 E30.58110
G1 X93.556 Y86.821 E30.59321
G1 X113.186 Y106.450 E31.63454
G1 X113.059 Y106.744 E31.64655
G1 X93.269 Y86.953 E32.69644
G1 X93.008 Y87.113 E32.70791
G1 X112.914 Y107.020 E33.76392
G1 X112.751 Y107.276 E33.77535
G1 X92.748 Y87.273 E34.83649
G1 X92.487 Y87.434 E34.84796
G1 X112.587 Y107.533 E35.91424
G1 X112.423 Y107.790 E35.92566
G1 X92.227 Y87.594 E36.99708
G1 X91.966 Y87.754 E37.00854
G1 X112.260 Y108.047 E38.08509
G1 X112.096 Y108.304 E38.09652
G1 X91.706 Y87.914 E39.17820
