; generated by Slic3r 1.2.9 on 2017-04-06 at 10:02:40

; external perimeters extrusion width = 0.60mm
; perimeters extrusion width = 0.60mm
; infill extrusion width = 0.60mm
; solid infill extrusion width = 0.60mm
; top infill extrusion width = 0.60mm
; support material extrusion width = 0.60mm

M107
M190 S55 ; set bed temperature
M104 S200 ; set temperature
G28 ; home all axes
G1 Z5 F5000 ; lift nozzle

M109 S200 ; wait for temperature to be reached
G21 ; set units to millimeters
G90 ; use absolute coordinates
M82 ; use absolute distances for extrusion
G92 E0
G1 E-4.00000 F2400.00000
G92 E0
G1 Z0.300 F4800.000
G1 X84.245 Y84.358 F4800.000
G1 E4.00000 F2400.00000
G1 X84.638 Y83.993 E4.02002 F4200.000
G1 X86.391 Y82.481 E4.10635
G1 X86.705 Y82.225 E4.12146
G1 X87.418 Y81.727 E4.15390
G1 X89.650 Y80.371 E4.25131
G1 X90.564 Y79.923 E4.28924
G1 X92.726 Y79.047 E4.37624
G1 X93.068 Y78.917 E4.38992
G1 X93.957 Y78.656 E4.42448
G1 X96.599 Y78.069 E4.52539
G1 X97.511 Y77.957 E4.55967
G1 X99.834 Y77.821 E4.64647
G1 X100.957 Y77.832 E4.68834
G1 X103.520 Y78.097 E4.78446 F4200.000
G1 X104.547 Y78.282 E4.82336
G1 X107.025 Y78.957 E4.91915
G1 X107.875 Y79.249 E4.95268
G1 X110.353 Y80.379 E5.05426
G1 X111.134 Y80.798 E5.08730
G1 X113.412 Y82.326 E5.18960
G1 X114.021 Y82.787 E5.21809
G1 X114.406 Y83.127 E5.23725
G1 X116.084 Y84.716 E5.32345
G1 X116.490 Y85.132 E5.34510
G1 X116.938 Y85.667 E5.37115
G1 X118.335 Y87.506 E5.45727
G1 X118.620 Y87.906 E5.47561
G1 X119.048 Y88.615 E5.50646
G1 X120.276 Y90.957 E5.60513
G1 X120.646 Y91.858 E5.64143
G1 X121.482 Y94.382 E5.74059
G1 X121.666 Y95.150 E5.77005
G1 X121.972 Y96.824 E5.83353
G1 X122.087 Y97.743 E5.86806
G1 X122.199 Y99.575 E5.93654
G1 X122.212 Y100.109 E5.95646
G1 X122.183 Y100.707 E5.97877
G1 X121.996 Y103.003 E6.06470
G1 X121.875 Y103.851 E6.09665
G1 X121.218 Y106.536 E6.19973
G1 X121.015 Y107.207 E6.22587
G1 X120.805 Y107.749 E6.24757
G1 X119.889 Y109.866 E6.33357
G1 X119.665 Y110.338 E6.35307
G1 X119.289 Y110.997 E6.38138
G1 X117.794 Y113.299 E6.48374
G1 X117.243 Y113.990 E6.51669
G1 X115.377 Y116.035 E6.61996
G1 X114.740 Y116.608 E6.65189
G1 X112.558 Y118.328 E6.75553
G1 X111.846 Y118.783 E6.78705
G1 X109.825 Y119.912 E6.87339
G1 X109.402 Y120.131 E6.89115
G1 X108.635 Y120.459 E6.92226
G1 X106.004 Y121.392 E7.02638
G1 X105.198 Y121.590 E7.05735
G1 X102.915 Y122.012 E7.14393
G1 X102.443 Y122.084 E7.16175
G1 X101.629 Y122.147 E7.19219
G1 X99.236 Y122.194 E7.28147
G1 X98.206 Y122.141 E7.31992
G1 X95.637 Y121.774 E7.41672
G1 X94.627 Y121.554 E7.45525
G1 X92.156 Y120.775 E7.55189
G1 X91.201 Y120.396 E7.59023
G1 X88.885 Y119.223 E7.68705
G1 X88.005 Y118.695 E7.72532
G1 X85.908 Y117.160 E7.82223
G1 X85.122 Y116.491 E7.86073
G1 X83.307 Y114.640 E7.95743
G1 X82.654 Y113.870 E7.99507
G1 X81.148 Y111.727 E8.09276
G1 X80.695 Y110.989 E8.12504
G1 X80.510 Y110.628 E8.14018
G1 X79.508 Y108.537 E8.22667
G1 X79.295 Y108.050 E8.24650
G1 X79.057 Y107.361 E8.27368
G1 X78.325 Y104.835 E8.37175
G1 X78.136 Y103.818 E8.41036
G1 X77.854 Y101.493 E8.49769
G1 X77.805 Y100.829 E8.52252
G1 X77.806 Y100.235 E8.54467
G1 X77.935 Y97.491 E8.64712
G1 X78.059 Y96.657 E8.67858
G1 X78.620 Y94.013 E8.77938
G1 X78.898 Y93.132 E8.81386
G1 X79.743 Y90.949 E8.90116
G1 X80.159 Y90.041 E8.93838
G1 X81.509 Y87.735 E9.03805
G1 X81.940 Y87.088 E9.06706
G1 X82.253 Y86.686 E9.08606
G1 X83.752 Y84.892 E9.17326
G1 X84.182 Y84.422 E9.19700
G1 X84.454 Y84.567 F4800.000
G1 X84.831 Y84.216 E9.21620 F4200.000
G1 X86.584 Y82.705 E9.30252
G1 X86.888 Y82.457 E9.31716
G1 X87.573 Y81.980 E9.34827
G1 X89.799 Y80.626 E9.44545
G1 X90.675 Y80.197 E9.48182
G1 X92.837 Y79.321 E9.56882
G1 X93.170 Y79.195 E9.58212
G1 X94.022 Y78.944 E9.61525
G1 X96.653 Y78.360 E9.71577
G1 X97.528 Y78.252 E9.74864
G1 X99.852 Y78.116 E9.83544
G1 X100.932 Y78.126 E9.87572
G1 X103.489 Y78.391 E9.97164 F4200.000
G1 X104.474 Y78.568 E10.00894
G1 X106.947 Y79.242 E10.10452
G1 X107.762 Y79.522 E10.13668
G1 X110.230 Y80.647 E10.23783
G1 X110.978 Y81.050 E10.26952
G1 X113.246 Y82.571 E10.37138
G1 X113.830 Y83.013 E10.39869
G1 X114.203 Y83.342 E10.41723
G1 X115.881 Y84.931 E10.50343
G1 X116.273 Y85.332 E10.52435
G1 X116.703 Y85.845 E10.54933
G1 X118.099 Y87.685 E10.63545
G1 X118.376 Y88.074 E10.65326
G1 X118.786 Y88.753 E10.68284
G1 X120.009 Y91.083 E10.78099
G1 X120.365 Y91.952 E10.81601
G1 X121.199 Y94.467 E10.91482
G1 X121.376 Y95.203 E10.94306
G1 X121.682 Y96.877 E11.00654
G1 X121.792 Y97.761 E11.03975
G1 X121.904 Y99.593 E11.10823
G1 X121.916 Y100.107 E11.12739
G1 X121.889 Y100.683 E11.14889
G1 X121.701 Y102.979 E11.23482
G1 X121.585 Y103.792 E11.26545
G1 X120.931 Y106.464 E11.36805
G1 X120.736 Y107.107 E11.39312
G1 X120.533 Y107.632 E11.41409
G1 X119.618 Y109.748 E11.50009
G1 X119.401 Y110.205 E11.51896
G1 X119.040 Y110.837 E11.54611
G1 X117.552 Y113.129 E11.64802
G1 X117.024 Y113.792 E11.67961
G1 X115.167 Y115.827 E11.78239
G1 X114.556 Y116.376 E11.81301
G1 X112.385 Y118.089 E11.91615
G1 X111.702 Y118.525 E11.94637
G1 X109.681 Y119.654 E12.03271
G1 X109.270 Y119.867 E12.04996
G1 X108.535 Y120.181 E12.07978
G1 X105.917 Y121.110 E12.18338
G1 X105.144 Y121.300 E12.21308
G1 X102.861 Y121.721 E12.29965
G1 X102.403 Y121.792 E12.31694
G1 X101.623 Y121.852 E12.34612
G1 X99.230 Y121.899 E12.43539
G1 X98.238 Y121.847 E12.47245
G1 X95.679 Y121.482 E12.56885
G1 X94.707 Y121.269 E12.60597
G1 X92.246 Y120.493 E12.70221
G1 X91.325 Y120.127 E12.73916
G1 X89.019 Y118.960 E12.83558
G1 X88.171 Y118.450 E12.87245
G1 X86.084 Y116.922 E12.96895
G1 X85.326 Y116.277 E13.00604
G1 X83.518 Y114.433 E13.10236
G1 X82.892 Y113.695 E13.13845
G1 X81.390 Y111.558 E13.23589
G1 X80.956 Y110.850 E13.26684
G1 X80.777 Y110.500 E13.28151
G1 X79.774 Y108.409 E13.36800
G1 X79.571 Y107.942 E13.38702
G1 X79.340 Y107.278 E13.41321
G1 X78.612 Y104.761 E13.51096
G1 X78.429 Y103.782 E13.54809
G1 X78.148 Y101.458 E13.63542
G1 X78.100 Y100.821 E13.65923
G1 X78.101 Y100.248 E13.68060
G1 X78.230 Y97.517 E13.78255
G1 X78.349 Y96.718 E13.81271
G1 X78.908 Y94.084 E13.91313
G1 X79.174 Y93.238 E13.94619
G1 X80.019 Y91.055 E14.03349
G1 X80.418 Y90.182 E14.06930
G1 X81.764 Y87.886 E14.16858
G1 X82.177 Y87.265 E14.19639
G1 X82.480 Y86.875 E14.21480
G1 X83.979 Y85.081 E14.30199
G1 X84.391 Y84.631 E14.32475
G1 X84.664 Y84.776 F4800.000
G1 X85.024 Y84.440 E14.34313 F4200.000
G1 X86.777 Y82.929 E14.42945
G1 X87.072 Y82.688 E14.44363
G1 X87.727 Y82.232 E14.47340
G1 X89.948 Y80.882 E14.57034
G1 X90.786 Y80.471 E14.60515
G1 X92.948 Y79.595 E14.69215
G1 X93.272 Y79.472 E14.70507
G1 X94.087 Y79.232 E14.73678
G1 X96.708 Y78.650 E14.83692
G1 X97.545 Y78.547 E14.86838
G1 X99.869 Y78.412 E14.95518
G1 X100.906 Y78.421 E14.99387
G1 X103.459 Y78.685 E15.08957 F4200.000
G1 X104.401 Y78.855 E15.12527
G1 X106.868 Y79.527 E15.22066
G1 X107.649 Y79.795 E15.25143
G1 X110.106 Y80.916 E15.35217
G1 X110.822 Y81.301 E15.38250
G1 X113.081 Y82.815 E15.48391
G1 X113.639 Y83.239 E15.51006
G1 X113.999 Y83.557 E15.52797
G1 X115.678 Y85.146 E15.61417
G1 X116.056 Y85.533 E15.63436
G1 X116.468 Y86.024 E15.65826
G1 X117.864 Y87.863 E15.74439
G1 X118.132 Y88.241 E15.76166
G1 X118.525 Y88.891 E15.78998
G1 X119.741 Y91.209 E15.88761
G1 X120.085 Y92.045 E15.92135
G1 X120.915 Y94.551 E16.01981
G1 X121.085 Y95.256 E16.04683
G1 X121.391 Y96.930 E16.11032
G1 X121.497 Y97.779 E16.14220
G1 X121.609 Y99.611 E16.21068
G1 X121.620 Y100.104 E16.22908
G1 X121.594 Y100.659 E16.24978
G1 X121.406 Y102.955 E16.33571
G1 X121.296 Y103.733 E16.36502
G1 X120.644 Y106.392 E16.46714
G1 X120.458 Y107.008 E16.49112
G1 X120.262 Y107.514 E16.51137
G1 X119.347 Y109.631 E16.59737
G1 X119.137 Y110.072 E16.61561
G1 X118.791 Y110.677 E16.64159
G1 X117.310 Y112.959 E16.74306
G1 X116.805 Y113.593 E16.77330
G1 X114.956 Y115.620 E16.87559
G1 X114.372 Y116.145 E16.90490
G1 X112.211 Y117.849 E17.00753
G1 X111.558 Y118.267 E17.03646
G1 X109.537 Y119.395 E17.12280
G1 X109.139 Y119.602 E17.13952
G1 X108.435 Y119.903 E17.16807
G1 X105.830 Y120.827 E17.27114
G1 X105.090 Y121.009 E17.29956
G1 X102.808 Y121.431 E17.38614
G1 X102.364 Y121.499 E17.40289
G1 X101.617 Y121.556 E17.43082
G1 X99.224 Y121.603 E17.52008
G1 X98.269 Y121.553 E17.55575
G1 X95.722 Y121.189 E17.65173
G1 X94.786 Y120.984 E17.68746
G1 X92.335 Y120.211 E17.78330
G1 X91.449 Y119.859 E17.81885
G1 X89.153 Y118.696 E17.91487
G1 X88.338 Y118.206 E17.95034
G1 X86.259 Y116.684 E18.04644
G1 X85.530 Y116.063 E18.08212
G1 X83.730 Y114.227 E18.17805
G1 X83.131 Y113.520 E18.21258
G1 X81.632 Y111.388 E18.30978
G1 X81.217 Y110.711 E18.33940
G1 X81.043 Y110.372 E18.35360
G1 X80.041 Y108.282 E18.44008
G1 X79.846 Y107.834 E18.45829
G1 X79.624 Y107.195 E18.48350
G1 X78.898 Y104.686 E18.58092
G1 X78.723 Y103.746 E18.61658
G1 X78.441 Y101.422 E18.70391
G1 X78.396 Y100.813 E18.72669
G1 X78.397 Y100.260 E18.74729
G1 X78.524 Y97.544 E18.84873
G1 X78.638 Y96.778 E18.87760
G1 X79.195 Y94.154 E18.97764
G1 X79.449 Y93.345 E19.00928
G1 X80.294 Y91.162 E19.09658
G1 X80.678 Y90.323 E19.13098
G1 X82.019 Y88.036 E19.22987
G1 X82.414 Y87.441 E19.25649
G1 X82.707 Y87.065 E19.27429
G1 X84.206 Y85.271 E19.36148
G1 X84.600 Y84.839 E19.38327
G1 X84.873 Y84.985 F4800.000
G1 X85.217 Y84.664 E19.40082 F4200.000
G1 X86.970 Y83.153 E19.48714
G1 X87.255 Y82.920 E19.50086
G1 X87.881 Y82.484 E19.52930
G1 X90.096 Y81.137 E19.62600
G1 X90.897 Y80.745 E19.65924
G1 X93.059 Y79.869 E19.74624
G1 X93.373 Y79.750 E19.75879
G1 X94.152 Y79.521 E19.78908
G1 X96.763 Y78.941 E19.88882
G1 X97.563 Y78.842 E19.91887
G1 X99.886 Y78.707 E20.00567
G1 X100.881 Y78.715 E20.04277
G1 X103.428 Y78.979 E20.13827 F4200.000
G1 X104.327 Y79.141 E20.17237
G1 X106.790 Y79.812 E20.26755
G1 X107.535 Y80.068 E20.29695
G1 X109.982 Y81.184 E20.39727
G1 X110.666 Y81.552 E20.42623
G1 X112.915 Y83.060 E20.52721
G1 X113.449 Y83.464 E20.55218
G1 X113.796 Y83.771 E20.56947
G1 X115.474 Y85.360 E20.65566
G1 X115.839 Y85.734 E20.67513
G1 X116.232 Y86.203 E20.69796
G1 X117.628 Y88.042 E20.78409
G1 X117.888 Y88.408 E20.80083
G1 X118.264 Y89.029 E20.82788
G1 X119.474 Y91.334 E20.92499
G1 X119.805 Y92.139 E20.95744
G1 X120.632 Y94.636 E21.05555
G1 X120.794 Y95.309 E21.08137
G1 X121.100 Y96.983 E21.14485
G1 X121.202 Y97.797 E21.17542
G1 X121.314 Y99.629 E21.24390
G1 X121.325 Y100.102 E21.26153
G1 X121.300 Y100.635 E21.28142
G1 X121.112 Y102.931 E21.36735
G1 X121.006 Y103.674 E21.39535
G1 X120.357 Y106.321 E21.49698
G1 X120.179 Y106.909 E21.51989
G1 X119.991 Y107.397 E21.53942
G1 X119.075 Y109.513 E21.62541
G1 X118.873 Y109.940 E21.64301
G1 X118.543 Y110.517 E21.66783
G1 X117.068 Y112.790 E21.76886
G1 X116.585 Y113.395 E21.79774
G1 X114.746 Y115.412 E21.89955
G1 X114.188 Y115.914 E21.92754
G1 X112.038 Y117.610 E22.02967
G1 X111.414 Y118.009 E22.05730
G1 X109.392 Y119.137 E22.14364
G1 X109.007 Y119.337 E22.15984
G1 X108.335 Y119.625 E22.18711
G1 X105.743 Y120.545 E22.28966
G1 X105.037 Y120.718 E22.31680
G1 X102.754 Y121.140 E22.40338
G1 X102.324 Y121.206 E22.41959
G1 X101.611 Y121.261 E22.44627
G1 X99.218 Y121.307 E22.53552
G1 X98.301 Y121.259 E22.56980
G1 X95.764 Y120.896 E22.66538
G1 X94.865 Y120.699 E22.69970
G1 X92.424 Y119.930 E22.79514
G1 X91.574 Y119.591 E22.82930
G1 X89.287 Y118.433 E22.92491
G1 X88.504 Y117.961 E22.95899
G1 X86.434 Y116.445 E23.05469
G1 X85.734 Y115.849 E23.08896
G1 X83.941 Y114.020 E23.18449
G1 X83.369 Y113.345 E23.21748
G1 X81.875 Y111.219 E23.31443
G1 X81.478 Y110.572 E23.34272
G1 X81.310 Y110.245 E23.35645
G1 X80.307 Y108.154 E23.44293
G1 X80.121 Y107.726 E23.46032
G1 X79.908 Y107.113 E23.48455
G1 X79.184 Y104.612 E23.58164
G1 X79.016 Y103.711 E23.61583
G1 X78.734 Y101.386 E23.70316
G1 X78.691 Y100.805 E23.72492
G1 X78.692 Y100.273 E23.74474
G1 X78.819 Y97.570 E23.84568
G1 X78.927 Y96.838 E23.87325
G1 X79.482 Y94.225 E23.97291
G1 X79.725 Y93.452 E24.00313
G1 X80.570 Y91.269 E24.09043
G1 X80.938 Y90.464 E24.12342
G1 X82.273 Y88.186 E24.22192
G1 X82.651 Y87.618 E24.24735
G1 X82.934 Y87.254 E24.26454
G1 X84.433 Y85.460 E24.35173
G1 X84.809 Y85.048 E24.37254
G1 E20.37254 F2400.00000
G92 E0
G1 X111.422 Y109.448 F4800.000
G1 E4.00000 F2400.00000
G1 X110.142 Y110.858 E4.07102 F4200.000
G1 X108.244 Y112.362 E4.16135
G1 X106.125 Y113.538 E4.25174
G1 X103.962 Y114.318 E4.33750
G1 X103.850 Y114.352 E4.34186
G1 X101.465 Y114.787 E4.43229
G1 X99.107 Y114.833 E4.52023
G1 X96.706 Y114.490 E4.61067
G1 X94.393 Y113.760 E4.70114
G1 X94.299 Y113.717 E4.70499
G1 X92.235 Y112.667 E4.79137
G1 X90.280 Y111.236 E4.88174
G1 X88.583 Y109.505 E4.97213
G1 X87.189 Y107.519 E5.06264
G1 X86.121 Y105.286 E5.15497
G1 X85.443 Y102.918 E5.24682
G1 X85.165 Y100.622 E5.33307
G1 X85.260 Y98.246 E5.42177
G1 X85.769 Y95.776 E5.51583
G1 X86.671 Y93.478 E5.60791
G1 X87.913 Y91.395 E5.69834
G1 X89.393 Y89.623 E5.78446
G1 X91.188 Y88.066 E5.87307
G1 X93.342 Y86.741 E5.96739
G1 X95.590 Y85.835 E6.05778
G1 X97.955 Y85.306 E6.14817
G1 X100.255 Y85.172 E6.23410
G1 X100.470 Y85.180 E6.24213
G1 X102.735 Y85.418 E6.32705 F4200.000
G1 X105.060 Y86.052 E6.41693
G1 X107.261 Y87.060 E6.50723
G1 X109.274 Y88.416 E6.59775
G1 X111.011 Y90.052 E6.68677
G1 X112.545 Y92.067 E6.78118
G1 X113.668 Y94.207 E6.87132
G1 X114.426 Y96.486 E6.96091
G1 X114.739 Y98.201 E7.02593
G1 X114.849 Y100.048 E7.09494
G1 X114.659 Y102.392 E7.18265
G1 X114.078 Y104.736 E7.27272
G1 X113.137 Y106.929 E7.36173
G1 X111.771 Y109.064 E7.45626
G1 X111.483 Y109.382 E7.47225
G1 X114.054 Y95.974 F4800.000
G1 X104.051 Y85.971 E8.00282 F4200.000
G1 X103.473 Y85.813 E8.02530
G1 X114.263 Y96.604 E8.59765
G1 X114.358 Y97.118 E8.61728
G1 X102.895 Y85.656 E9.22530
G1 X102.375 Y85.556 E9.24515
G1 X114.452 Y97.633 E9.88572
G1 X114.545 Y98.147 E9.90533
G1 X101.905 Y85.507 E10.57580
G1 X101.436 Y85.458 E10.59352
G1 X114.591 Y98.613 E11.29134
G1 X114.617 Y99.060 E11.30813
G1 X100.966 Y85.408 E12.03228
G1 X100.496 Y85.359 E12.05001
G1 X114.644 Y99.507 E12.80050
G1 X114.671 Y99.954 E12.81729
G1 X100.065 Y85.348 E13.59205
G1 X99.668 Y85.371 E13.60698
G1 X114.659 Y100.363 E14.40219
G1 X114.628 Y100.752 E14.41682
G1 X99.270 Y85.395 E15.23144
G1 X98.873 Y85.418 E15.24636
G1 X114.596 Y101.141 E16.08037
G1 X114.564 Y101.529 E16.09500
G1 X98.476 Y85.441 E16.94840
G1 X98.079 Y85.464 E16.96333
G1 X114.533 Y101.918 E17.83612
G1 X114.501 Y102.307 E17.85075
G1 X97.714 Y85.520 E18.74121
G1 X97.371 Y85.597 E18.75441
G1 X114.437 Y102.663 E19.65967
G1 X114.353 Y102.999 E19.67267
G1 X97.027 Y85.674 E20.59169
G1 X96.683 Y85.751 E20.60490
G1 X114.268 Y103.336 E21.53769
G1 X114.184 Y103.672 E21.55069
G1 X96.340 Y85.827 E22.49725
G1 X95.996 Y85.904 E22.51046
G1 X114.100 Y104.008 E23.47078
G1 X114.016 Y104.345 E23.48379
G1 X95.652 Y85.981 E24.45788
G1 X95.346 Y86.095 E24.47015
G1 X113.932 Y104.681 E25.45606
G1 X113.811 Y104.981 E25.46818
G1 X95.046 Y86.215 E26.46358
G1 X94.746 Y86.336 E26.47570
G1 X113.685 Y105.275 E27.48029
G1 X113.559 Y105.569 E27.49230
G1 X94.447 Y86.457 E28.50609
G1 X94.147 Y86.578 E28.51821
G1 X113.433 Y105.864 E29.54120
G1 X113.307 Y106.158 E29.55321
G1 X93.847 Y86.699 E30.58540
G1 X93.548 Y86.820 E30.59752
G1 X113.180 Y106.452 E31.63891
G1 X113.054 Y106.746 E31.65091
G1 X93.266 Y86.958 E32.70055
G1 X93.006 Y87.118 E32.71202
G1 X112.908 Y107.020 E33.76770
G1 X112.744 Y107.277 E33.77911
G1 X92.745 Y87.278 E34.83990
G1 X92.485 Y87.439 E34.85136
G1 X112.579 Y107.533 E35.91725
G1 X112.415 Y107.789 E35.92866
G1 X92.225 Y87.599 E36.99965
G1 X91.965 Y87.759 E37.01111
G1 X112.251 Y108.046 E38.08720
G1 X112.087 Y108.302 E38.09862
G1 X91.704 Y87.919 E39.17981
G1 X91.444 Y88.079 E39.19128
G1 X111.923 Y108.558 E40.27757
G1 X111.759 Y108.815 E40.28899
G1 X91.194 Y88.250 E41.37982
G1 X90.969 Y88.445 E41.39100
G1 X111.583 Y109.059 E42.48444
G1 X111.383 Y109.279 E42.49560
G1 X90.744 Y88.641 E43.59037
G1 X90.519 Y88.836 E43.60155
G1 X111.183 Y109.500 E44.69765
G1 X110.983 Y109.720 E44.70881
G1 X90.294 Y89.031 E45.80623
G1 X90.069 Y89.226 E45.81741
G1 X110.782 Y109.940 E46.91617
G1 X110.582 Y110.161 E46.92733
G1 X89.843 Y89.422 E48.02741
G1 X89.624 Y89.623 E48.03857
G1 X110.382 Y110.381 E49.13966
G1 X110.175 Y110.594 E49.15081
G1 X89.414 Y89.833 E50.25205
G1 X89.217 Y90.057 E50.26322
