; generated by Slic3r 1.2.9 on 2017-04-04 at 15:03:06

; external perimeters extrusion width = 0.60mm
; perimeters extrusion width = 0.60mm
; infill extrusion width = 0.60mm
; solid infill extrusion width = 0.60mm
; top infill extrusion width = 0.60mm
; support material extrusion width = 0.60mm

M107
M190 S55 ; set bed temperature
M104 S200 ; set temperature
G28 ; home all axes
G1 Z5 F5000 ; lift nozzle

M109 S200 ; wait for temperature to be reached
G21 ; set units to millimeters
G90 ; use absolute coordinates
M82 ; use absolute distances for extrusion
G92 E0
G1 E-4.00000 F2400.00000
G92 E0
G1 Z0.300 F4800.000
G1 X73.919 Y92.225 F4800.000
G1 E4.00000 F2400.00000
G1 X74.128 Y92.065 E4.00981 F4200.000
G1 X75.751 Y91.127 E4.07974
G1 X75.997 Y91.025 E4.08967
G1 X77.217 Y90.644 E4.13731
G1 X96.681 Y86.424 E4.88013
G1 X97.237 Y86.329 E4.90117
G1 X98.034 Y86.239 E4.93108
G1 X98.597 Y86.208 E4.95212
G1 X101.403 Y86.208 E5.05675
G1 X101.966 Y86.239 E5.07780 F4200.000
G1 X102.763 Y86.329 E5.10771
G1 X103.637 Y86.486 E5.14083
G1 X122.783 Y90.644 E5.87157
G1 X124.007 Y91.027 E5.91940
G1 X124.249 Y91.127 E5.92914
G1 X125.872 Y92.065 E5.99907
G1 X126.080 Y92.224 E6.00880
G1 X127.405 Y93.550 E6.07873
G1 X127.564 Y93.757 E6.08847
G1 X128.500 Y95.377 E6.15825
G1 X128.602 Y95.622 E6.16814
G1 X129.085 Y97.421 E6.23763
G1 X129.121 Y97.692 E6.24781
G1 X129.182 Y98.629 E6.28285
G1 X129.182 Y105.621 E6.54362
G1 X129.121 Y106.558 E6.57866
G1 X129.087 Y106.816 E6.58835
G1 X128.602 Y108.628 E6.65832
G1 X128.502 Y108.870 E6.66806
G1 X127.564 Y110.493 E6.73799
G1 X127.405 Y110.701 E6.74773
G1 X126.080 Y112.026 E6.81766
G1 X125.872 Y112.185 E6.82740
G1 X124.249 Y113.123 E6.89732
G1 X124.007 Y113.223 E6.90706
G1 X122.196 Y113.708 E6.97699
G1 X121.937 Y113.742 E6.98673
G1 X121.000 Y113.803 E7.02177
G1 X79.000 Y113.803 E8.58822
G1 X78.063 Y113.742 E8.62322
G1 X77.804 Y113.708 E8.63299
G1 X75.994 Y113.223 E8.70286
G1 X75.751 Y113.123 E8.71266
G1 X74.128 Y112.185 E8.78259
G1 X73.921 Y112.026 E8.79233
G1 X72.595 Y110.700 E8.86226
G1 X72.436 Y110.493 E8.87200
G1 X71.498 Y108.869 E8.94197
G1 X71.398 Y108.628 E8.95166
G1 X70.913 Y106.817 E9.02159
G1 X70.879 Y106.558 E9.03133
G1 X70.818 Y105.621 E9.06637
G1 X70.818 Y98.629 E9.32714
G1 X70.879 Y97.692 E9.36218
G1 X70.913 Y97.433 E9.37191
G1 X71.398 Y95.622 E9.44184
G1 X71.502 Y95.372 E9.45192
G1 X72.436 Y93.757 E9.52151
G1 X72.596 Y93.548 E9.53132
G1 X73.855 Y92.289 E9.59775
G1 X74.099 Y92.459 F4800.000
G1 X74.308 Y92.299 E9.60756 F4200.000
G1 X75.864 Y91.401 E9.67461
G1 X76.110 Y91.299 E9.68454
G1 X77.279 Y90.933 E9.73021
G1 X96.731 Y86.715 E10.47254
G1 X97.287 Y86.621 E10.49357
G1 X98.051 Y86.535 E10.52225
G1 X98.614 Y86.503 E10.54329
G1 X101.386 Y86.503 E10.64668
G1 X101.949 Y86.535 E10.66772 F4200.000
G1 X102.713 Y86.621 E10.69640
G1 X103.574 Y86.774 E10.72902
G1 X122.721 Y90.933 E11.45975
G1 X123.894 Y91.301 E11.50562
G1 X124.135 Y91.401 E11.51536
G1 X125.692 Y92.299 E11.58241
G1 X125.900 Y92.458 E11.59214
G1 X127.171 Y93.730 E11.65920
G1 X127.330 Y93.937 E11.66893
G1 X128.227 Y95.490 E11.73584
G1 X128.329 Y95.735 E11.74572
G1 X128.792 Y97.460 E11.81236
G1 X128.828 Y97.730 E11.82252
G1 X128.887 Y98.629 E11.85611
G1 X128.887 Y105.621 E12.11688
G1 X128.828 Y106.520 E12.15048
G1 X128.793 Y106.786 E12.16048
G1 X128.329 Y108.515 E12.22727
G1 X128.229 Y108.756 E12.23701
G1 X127.330 Y110.313 E12.30406
G1 X127.171 Y110.521 E12.31380
G1 X125.900 Y111.792 E12.38085
G1 X125.692 Y111.951 E12.39059
G1 X124.136 Y112.850 E12.45764
G1 X123.894 Y112.950 E12.46737
G1 X122.158 Y113.415 E12.53443
G1 X121.899 Y113.449 E12.54417
G1 X121.000 Y113.508 E12.57776
G1 X79.000 Y113.508 E14.14421
G1 X78.102 Y113.449 E14.17778
G1 X77.842 Y113.415 E14.18754
G1 X76.107 Y112.950 E14.25453
G1 X75.864 Y112.850 E14.26433
G1 X74.308 Y111.951 E14.33138
G1 X74.100 Y111.792 E14.34112
G1 X72.829 Y110.521 E14.40817
G1 X72.670 Y110.313 E14.41791
G1 X71.771 Y108.755 E14.48500
G1 X71.671 Y108.515 E14.49470
G1 X71.206 Y106.779 E14.56175
G1 X71.172 Y106.520 E14.57149
G1 X71.113 Y105.621 E14.60508
G1 X71.113 Y98.629 E14.86585
G1 X71.172 Y97.730 E14.89945
G1 X71.206 Y97.471 E14.90919
G1 X71.671 Y95.735 E14.97624
G1 X71.775 Y95.486 E14.98630
G1 X72.670 Y93.937 E15.05303
G1 X72.830 Y93.728 E15.06284
G1 X74.035 Y92.523 E15.12640
G1 X74.279 Y92.694 F4800.000
G1 X74.488 Y92.534 E15.13620 F4200.000
G1 X75.978 Y91.674 E15.20037
G1 X76.223 Y91.572 E15.21029
G1 X77.342 Y91.222 E15.25401
G1 X96.780 Y87.007 E15.99583
G1 X97.336 Y86.912 E16.01686
G1 X98.067 Y86.830 E16.04431
G1 X98.630 Y86.798 E16.06534
G1 X101.370 Y86.798 E16.16750
G1 X101.933 Y86.830 E16.18853 F4200.000
G1 X102.664 Y86.912 E16.21598
G1 X103.512 Y87.063 E16.24810
G1 X122.658 Y91.222 E16.97883
G1 X123.781 Y91.574 E17.02273
G1 X124.022 Y91.674 E17.03246
G1 X125.512 Y92.534 E17.09664
G1 X125.720 Y92.693 E17.10638
G1 X126.936 Y93.910 E17.17055
G1 X127.095 Y94.117 E17.18029
G1 X127.954 Y95.603 E17.24432
G1 X128.055 Y95.848 E17.25420
G1 X128.499 Y97.499 E17.31797
G1 X128.535 Y97.769 E17.32812
G1 X128.591 Y98.629 E17.36027
G1 X128.591 Y105.621 E17.62104
G1 X128.535 Y106.481 E17.65319
G1 X128.500 Y106.747 E17.66318
G1 X128.055 Y108.402 E17.72710
G1 X127.956 Y108.643 E17.73684
G1 X127.095 Y110.134 E17.80102
G1 X126.936 Y110.341 E17.81075
G1 X125.720 Y111.557 E17.87493
G1 X125.512 Y111.716 E17.88466
G1 X124.022 Y112.577 E17.94884
G1 X123.781 Y112.676 E17.95857
G1 X122.119 Y113.122 E18.02275
G1 X121.860 Y113.156 E18.03249
G1 X121.000 Y113.212 E18.06464
G1 X79.000 Y113.212 E19.63109
G1 X78.140 Y113.156 E19.66321
G1 X77.881 Y113.122 E19.67298
G1 X76.220 Y112.677 E19.73709
G1 X75.978 Y112.577 E19.74689
G1 X74.488 Y111.716 E19.81106
G1 X74.280 Y111.557 E19.82080
G1 X73.064 Y110.341 E19.88497
G1 X72.905 Y110.133 E19.89471
G1 X72.044 Y108.642 E19.95893
G1 X71.945 Y108.402 E19.96862
G1 X71.499 Y106.740 E20.03279
G1 X71.465 Y106.481 E20.04253
G1 X71.409 Y105.621 E20.07469
G1 X71.409 Y98.629 E20.33546
G1 X71.465 Y97.769 E20.36761
G1 X71.499 Y97.510 E20.37735
G1 X71.945 Y95.848 E20.44152
G1 X72.048 Y95.599 E20.45157
G1 X72.905 Y94.117 E20.51543
G1 X73.065 Y93.908 E20.52524
G1 X74.215 Y92.758 E20.58592
G1 X74.459 Y92.928 F4800.000
G1 X74.667 Y92.768 E20.59572 F4200.000
G1 X76.091 Y91.947 E20.65702
G1 X76.336 Y91.845 E20.66693
G1 X77.405 Y91.511 E20.70868
G1 X96.551 Y87.352 E21.43942
G1 X97.386 Y87.204 E21.47104
G1 X98.084 Y87.125 E21.49725
G1 X98.647 Y87.093 E21.51828
G1 X101.353 Y87.093 E21.61920
G1 X101.916 Y87.125 E21.64023 F4200.000
G1 X102.614 Y87.204 E21.66644
G1 X103.449 Y87.352 E21.69806
G1 X122.595 Y91.511 E22.42880
G1 X123.668 Y91.847 E22.47072
G1 X123.909 Y91.947 E22.48046
G1 X125.333 Y92.768 E22.54176
G1 X125.540 Y92.927 E22.55149
G1 X126.702 Y94.090 E22.61279
G1 X126.861 Y94.297 E22.62252
G1 X127.681 Y95.717 E22.68369
G1 X127.782 Y95.961 E22.69356
G1 X128.206 Y97.538 E22.75447
G1 X128.242 Y97.808 E22.76460
G1 X128.296 Y98.629 E22.79531
G1 X128.296 Y105.621 E23.05608
G1 X128.242 Y106.443 E23.08679
G1 X128.207 Y106.708 E23.09676
G1 X127.782 Y108.289 E23.15782
G1 X127.682 Y108.530 E23.16756
G1 X126.861 Y109.954 E23.22886
G1 X126.702 Y110.161 E23.23860
G1 X125.540 Y111.323 E23.29989
G1 X125.333 Y111.482 E23.30963
G1 X123.909 Y112.303 E23.37092
G1 X123.668 Y112.403 E23.38066
G1 X122.081 Y112.829 E23.44196
G1 X121.822 Y112.863 E23.45169
G1 X121.000 Y112.917 E23.48240
G1 X79.000 Y112.917 E25.04885
G1 X78.179 Y112.863 E25.07954
G1 X77.919 Y112.829 E25.08930
G1 X76.333 Y112.404 E25.15054
G1 X76.091 Y112.303 E25.16033
G1 X74.667 Y111.482 E25.22163
G1 X74.460 Y111.323 E25.23136
G1 X73.298 Y110.161 E25.29266
G1 X73.139 Y109.953 E25.30240
G1 X72.321 Y108.538 E25.36337
G1 X72.218 Y108.289 E25.37343
G1 X71.792 Y106.702 E25.43473
G1 X71.758 Y106.443 E25.44447
G1 X71.704 Y105.621 E25.47518
G1 X71.704 Y98.629 E25.73595
G1 X71.758 Y97.807 E25.76666
G1 X71.792 Y97.549 E25.77640
G1 X72.218 Y95.961 E25.83769
G1 X72.321 Y95.713 E25.84773
G1 X73.139 Y94.297 E25.90873
G1 X73.299 Y94.088 E25.91853
G1 X74.395 Y92.992 E25.97634
G1 E21.97634 F2400.00000
G92 E0
G1 X102.107 Y102.698 F4800.000
G1 E4.00000 F2400.00000
G1 X101.214 Y103.118 E4.03678 F4200.000
G1 X100.246 Y103.303 E4.07353
G1 X99.263 Y103.241 E4.11030
G1 X98.330 Y102.938 E4.14687
G1 X97.494 Y102.408 E4.18378
G1 X96.819 Y101.690 E4.22053
G1 X96.345 Y100.826 E4.25729
G1 X96.100 Y99.872 E4.29404
G1 X96.100 Y98.886 E4.33080
G1 X96.345 Y97.932 E4.36755
G1 X96.819 Y97.068 E4.40431
G1 X97.494 Y96.350 E4.44106
G1 X98.326 Y95.822 E4.47782
G1 X99.263 Y95.517 E4.51457
G1 X100.247 Y95.455 E4.55132 F4200.000
G1 X101.215 Y95.640 E4.58808
G1 X102.107 Y96.060 E4.62483
G1 X102.866 Y96.688 E4.66159
G1 X103.445 Y97.485 E4.69834
G1 X103.808 Y98.401 E4.73510
G1 X103.931 Y99.379 E4.77185
G1 X103.808 Y100.357 E4.80861
G1 X103.445 Y101.273 E4.84536
G1 X102.866 Y102.070 E4.88212
G1 X102.176 Y102.641 E4.91551
G1 X105.820 Y104.365 F4800.000
G1 X119.487 Y104.365 E5.42523 F4200.000
G1 X119.487 Y98.641 E5.63873
G1 X119.516 Y98.417 E5.64714
G1 X119.598 Y98.220 E5.65511
G1 X119.728 Y98.050 E5.66308
G1 X119.898 Y97.920 E5.67105
G1 X120.095 Y97.839 E5.67902
G1 X120.319 Y97.809 E5.68743
G1 X120.988 Y97.809 E5.71240
G1 X121.212 Y97.839 E5.72082
G1 X121.409 Y97.920 E5.72878
G1 X121.579 Y98.050 E5.73675
G1 X121.709 Y98.220 E5.74472
G1 X121.791 Y98.417 E5.75269
G1 X121.820 Y98.641 E5.76110
G1 X121.820 Y105.609 E6.02099
G1 X121.791 Y105.833 E6.02940
G1 X121.709 Y106.030 E6.03737
G1 X121.579 Y106.200 E6.04534
G1 X121.409 Y106.330 E6.05331
G1 X121.212 Y106.412 E6.06128
G1 X120.988 Y106.441 E6.06969
G1 X79.012 Y106.441 E7.63526
G1 X78.788 Y106.412 E7.64367
G1 X78.591 Y106.330 E7.65164
G1 X78.421 Y106.200 E7.65961
G1 X78.291 Y106.030 E7.66758
G1 X78.209 Y105.833 E7.67555
G1 X78.180 Y105.609 E7.68396
G1 X78.180 Y98.641 E7.94385
G1 X78.209 Y98.417 E7.95226
G1 X78.291 Y98.220 E7.96023
G1 X78.421 Y98.050 E7.96820
G1 X78.591 Y97.920 E7.97617
G1 X78.788 Y97.839 E7.98413
G1 X79.012 Y97.809 E7.99255
G1 X79.681 Y97.809 E8.01752
G1 X79.905 Y97.839 E8.02593
G1 X80.102 Y97.920 E8.03390
G1 X80.272 Y98.050 E8.04187
G1 X80.402 Y98.220 E8.04984
G1 X80.484 Y98.417 E8.05781
G1 X80.513 Y98.641 E8.06622
G1 X80.513 Y104.365 E8.27972
G1 X94.180 Y104.365 E8.78944
G1 X94.180 Y98.384 E9.01252
G1 X94.211 Y97.839 E9.03286
G1 X94.301 Y97.307 E9.05302
G1 X94.451 Y96.787 E9.07318
G1 X94.658 Y96.288 E9.09334
G1 X94.919 Y95.815 E9.11349
G1 X95.232 Y95.374 E9.13365
G1 X95.592 Y94.971 E9.15381
G1 X95.995 Y94.611 E9.17397
G1 X96.436 Y94.298 E9.19413
G1 X96.909 Y94.037 E9.21429
G1 X97.408 Y93.830 E9.23444
G1 X97.928 Y93.680 E9.25460
G1 X98.460 Y93.590 E9.27476
G1 X99.005 Y93.559 E9.29511
G1 X100.995 Y93.559 E9.36932
G1 X101.537 Y93.589 E9.38958
G1 X102.073 Y93.680 E9.40983
G1 X102.592 Y93.830 E9.42999
G1 X103.091 Y94.037 E9.45014
G1 X103.564 Y94.298 E9.47030
G1 X104.005 Y94.611 E9.49046
G1 X104.408 Y94.971 E9.51062
G1 X104.768 Y95.374 E9.53078
G1 X105.080 Y95.813 E9.55085
G1 X105.342 Y96.288 E9.57109
G1 X105.549 Y96.787 E9.59125
G1 X105.699 Y97.307 E9.61141
G1 X105.789 Y97.839 E9.63157
G1 X105.820 Y98.384 E9.65191
G1 X105.820 Y104.275 E9.87164
G1 X105.443 Y100.191 F4800.000
G1 X105.443 Y104.742 E10.04135 F4200.000
G1 X109.956 Y104.742 E10.20965
G1 X109.998 Y104.900 E10.21575
G1 X108.834 Y106.064 E10.27717
G1 X102.769 Y106.064 E10.50338
G1 X102.036 Y103.332 E10.60887
G1 X102.540 Y102.829 E10.63543
G1 X103.143 Y102.330 E10.66460
G1 X103.419 Y101.949 E10.68215
G1 X105.233 Y100.135 E10.77784
G1 X105.443 Y100.191 E10.78595
G1 X104.473 Y95.609 F4800.000
G1 X104.529 Y95.688 E10.78956 F4200.000
G1 X103.922 Y96.296 E10.82161
G1 X104.847 Y99.749 E10.95494
G1 X104.180 Y100.416 E10.99012
G1 X104.311 Y99.379 E11.02910
G1 X104.176 Y98.307 E11.06941
G1 X103.778 Y97.302 E11.10971
G1 X103.143 Y96.428 E11.15002
G1 X102.310 Y95.739 E11.19032
G1 X101.530 Y95.372 E11.22247
G1 X103.536 Y95.909 E11.29990
G1 X104.172 Y95.273 E11.33349
G1 X104.473 Y95.609 E11.35033
G1 X100.813 Y95.180 F4800.000
G1 X100.271 Y95.076 E11.37092 F4200.000
G1 X99.971 Y95.095 E11.38211
G1 X100.082 Y94.984 E11.38797
G1 X100.813 Y95.180 E11.41617
G1 X99.696 Y94.598 F4800.000
G1 X99.129 Y95.165 E11.44607 F4200.000
G1 X98.164 Y95.478 E11.48390
G1 X97.252 Y96.057 E11.52421
G1 X96.512 Y96.845 E11.56451
G1 X96.055 Y97.676 E11.59988
G1 X94.692 Y97.311 E11.65253
G1 X94.807 Y96.912 E11.66801
G1 X94.997 Y96.451 E11.68659
G1 X95.238 Y96.015 E11.70517
G1 X95.527 Y95.609 E11.72375
G1 X95.859 Y95.238 E11.74233
G1 X96.230 Y94.906 E11.76091
G1 X96.636 Y94.617 E11.77949
G1 X97.072 Y94.376 E11.79807
G1 X97.533 Y94.186 E11.81665
G1 X98.011 Y94.048 E11.83523
G1 X98.503 Y93.964 E11.85381
G1 X99.016 Y93.936 E11.87298
G1 X99.519 Y93.936 E11.89174
G1 X99.696 Y94.598 E11.91731
G1 E7.91731 F2400.00000
G92 E0
G1 X97.252 Y102.701 F4800.000
G1 E4.00000 F2400.00000
G1 X97.414 Y102.803 E4.00715 F4200.000
G1 X95.000 Y105.218 E4.13448
G1 X95.227 Y106.064 E4.16718
G1 X89.002 Y106.064 E4.39934
G1 X90.325 Y104.742 E4.46909
G1 X94.280 Y104.742 E4.61661
G1 X94.614 Y104.831 E4.62949
G1 X97.006 Y102.439 E4.75568
G1 X97.252 Y102.701 E4.76909
G1 E0.76909 F2400.00000
G92 E0
G1 X88.230 Y106.064 F4800.000
G1 E4.00000 F2400.00000
G1 X85.143 Y106.064 E4.11513 F4200.000
G1 X84.124 Y105.791 E4.15446
G1 X83.851 Y106.064 E4.16885
G1 X83.079 Y106.064 E4.19767
G1 X83.738 Y105.405 E4.23244
G1 X83.560 Y104.742 E4.25805
G1 X89.552 Y104.742 E4.48153
G1 X88.230 Y106.064 E4.55128
G1 E0.55128 F2400.00000
G92 E0
G1 X79.807 Y98.206 F4800.000
G1 E4.00000 F2400.00000
G1 X79.913 Y98.249 E4.00427 F4200.000
G1 X80.003 Y98.319 E4.00854
G1 X80.073 Y98.410 E4.01281
G1 X80.117 Y98.516 E4.01708
G1 X80.137 Y98.666 E4.02272
G1 X80.137 Y100.952 E4.10800
G1 X78.973 Y100.640 E4.15293
G1 X78.557 Y101.057 E4.17489
G1 X78.557 Y100.284 E4.20371
G1 X78.587 Y100.254 E4.20530
G1 X78.557 Y100.142 E4.20964
G1 X78.557 Y98.666 E4.26469
G1 X78.576 Y98.516 E4.27033
G1 X78.620 Y98.410 E4.27460
G1 X78.690 Y98.319 E4.27887
G1 X78.781 Y98.249 E4.28314
G1 X78.886 Y98.206 E4.28741
G1 X79.036 Y98.186 E4.29305
G1 X79.657 Y98.186 E4.31619
G1 X79.807 Y98.206 E4.32183
G1 E0.32183 F2400.00000
G92 E0
G1 X113.288 Y106.064 F4800.000
G1 E4.00000 F2400.00000
G1 X109.606 Y106.064 E4.13733 F4200.000
G1 X110.384 Y105.286 E4.17837
G1 X113.288 Y106.064 E4.29050
G1 X114.757 Y106.064 F4800.000
G1 X113.985 Y106.064 E4.31932 F4200.000
G1 X115.307 Y104.742 E4.38907
G1 X116.080 Y104.742 E4.41789
G1 X114.757 Y106.064 E4.48764
G1 X121.443 Y105.395 F4800.000
G1 X121.260 Y104.712 E4.51402 F4200.000
G1 X121.443 Y104.529 E4.52367
G1 X121.443 Y105.395 E4.55597
G1 X121.114 Y98.206 F4800.000
G1 X121.219 Y98.249 E4.56024 F4200.000
G1 X121.310 Y98.319 E4.56451
G1 X121.380 Y98.410 E4.56878
G1 X121.424 Y98.516 E4.57305
G1 X121.443 Y98.666 E4.57870
G1 X121.443 Y103.757 E4.76857
G1 X120.874 Y104.326 E4.79861
G1 X119.863 Y104.055 E4.83763
G1 X119.863 Y98.666 E5.03864
G1 X119.883 Y98.516 E5.04428
G1 X119.927 Y98.410 E5.04855
G1 X119.997 Y98.319 E5.05282
G1 X120.087 Y98.249 E5.05709
G1 X120.193 Y98.206 E5.06136
G1 X120.343 Y98.186 E5.06701
G1 X120.964 Y98.186 E5.09014
G1 X121.114 Y98.206 E5.09578
G1 E1.09578 F2400.00000
G92 E0
G1 Z0.300 F4800.000
M104 S190 ; set temperature
G1 Z0.550 F4800.000
G1 X102.954 Y102.153 F4800.000
G1 E4.00000 F2400.00000
G1 X102.171 Y102.800 E4.05834 F900.000
G1 X101.257 Y103.231 E4.11641
G1 X100.248 Y103.424 E4.17540
G1 X99.243 Y103.360 E4.23323
G1 X98.293 Y103.053 E4.29058
G1 X97.417 Y102.502 E4.35003
G1 X96.722 Y101.761 E4.40841
G1 X96.238 Y100.881 E4.46608
G1 X95.979 Y99.887 E4.52509
G1 X95.983 Y98.860 E4.58410
G1 X96.232 Y97.887 E4.64177
G1 X96.722 Y96.997 E4.70012
G1 X97.417 Y96.257 E4.75846
G1 X98.275 Y95.712 E4.81681
G1 X99.241 Y95.398 E4.87516
G1 X100.243 Y95.335 E4.93283 F900.000
G1 X101.252 Y95.525 E4.99181
G1 X102.171 Y95.957 E5.05019
G1 X102.954 Y96.605 E5.10853
G1 X103.551 Y97.427 E5.16688
G1 X103.925 Y98.371 E5.22523
G1 X104.052 Y99.379 E5.28358
G1 X103.925 Y100.387 E5.34193
G1 X103.551 Y101.331 E5.40027
G1 X103.007 Y102.080 E5.45345
G1 X105.700 Y104.485 F4800.000
G1 X119.607 Y104.485 E6.25227 F1350.000
G1 X119.607 Y98.649 E6.58752
G1 X119.633 Y98.449 E6.59912
