; generated by Slic3r 1.2.9 on 2017-04-03 at 11:41:47

; external perimeters extrusion width = 0.60mm
; perimeters extrusion width = 0.60mm
; infill extrusion width = 0.60mm
; solid infill extrusion width = 0.60mm
; top infill extrusion width = 0.60mm
; support material extrusion width = 0.60mm

M107
M190 S55 ; set bed temperature
M104 S200 ; set temperature
G28 ; home all axes
G1 Z5 F5000 ; lift nozzle

M109 S200 ; wait for temperature to be reached
G21 ; set units to millimeters
G90 ; use absolute coordinates
M82 ; use absolute distances for extrusion
G92 E0
G1 E-4.00000 F2400.00000
G92 E0
G1 Z0.300 F4800.000
G1 X74.438 Y98.384 F4800.000
G1 E4.00000 F2400.00000
G1 X92.777 Y87.909 E4.78773 F4200.000
G1 X93.357 Y87.587 E4.81245
G1 X94.082 Y87.238 E4.84245
G1 X94.600 Y87.024 E4.86338
G1 X95.374 Y86.754 E4.89392
G1 X95.921 Y86.597 E4.91515
G1 X96.693 Y86.422 E4.94467
G1 X97.239 Y86.329 E4.96534
G1 X97.880 Y86.250 E4.98943
G1 X98.857 Y86.198 E5.02590
G1 X101.141 Y86.198 E5.11110
G1 X102.120 Y86.250 E5.14767 F4200.000
G1 X102.761 Y86.329 E5.17176
G1 X103.307 Y86.422 E5.19242
G1 X104.079 Y86.597 E5.22194
G1 X104.626 Y86.754 E5.24317
G1 X105.400 Y87.024 E5.27373
G1 X105.918 Y87.238 E5.29464
G1 X106.643 Y87.587 E5.32464
G1 X125.562 Y98.384 E6.13709
G1 X127.411 Y99.897 E6.22618
G1 X128.661 Y101.933 E6.31527
G1 X129.182 Y104.621 E6.41739
G1 X129.182 Y106.621 E6.49199
G1 X128.785 Y108.976 E6.58108
G1 X127.638 Y111.071 E6.67017
G1 X125.866 Y112.674 E6.75926
G1 X123.667 Y113.607 E6.84835
G1 X122.000 Y113.803 E6.91096
G1 X78.000 Y113.803 E8.55200
G1 X75.645 Y113.406 E8.64109
G1 X73.550 Y112.259 E8.73018
G1 X71.947 Y110.487 E8.81927
G1 X71.014 Y108.288 E8.90836
G1 X70.818 Y106.621 E8.97098
G1 X70.818 Y104.621 E9.04557
G1 X71.215 Y102.266 E9.13466
G1 X72.362 Y100.171 E9.22375
G1 X74.369 Y98.443 E9.32252
G1 X74.584 Y98.641 F4800.000
G1 X92.924 Y88.165 E10.11025 F4200.000
G1 X93.500 Y87.846 E10.13481
G1 X94.195 Y87.512 E10.16358
G1 X94.713 Y87.297 E10.18450
G1 X95.455 Y87.038 E10.21379
G1 X96.002 Y86.882 E10.23502
G1 X96.742 Y86.714 E10.26333
G1 X97.288 Y86.621 E10.28399
G1 X97.903 Y86.545 E10.30709
G1 X98.862 Y86.494 E10.34292
G1 X101.135 Y86.493 E10.42768
G1 X102.097 Y86.545 E10.46360 F4200.000
G1 X102.712 Y86.621 E10.48670
G1 X103.258 Y86.714 E10.50736
G1 X103.998 Y86.882 E10.53567
G1 X104.545 Y87.038 E10.55690
G1 X105.287 Y87.297 E10.58620
G1 X105.805 Y87.512 E10.60711
G1 X106.500 Y87.846 E10.63588
G1 X125.416 Y98.641 E11.44817
G1 X127.220 Y100.129 E11.53539
G1 X128.422 Y102.135 E11.62262
G1 X128.887 Y104.621 E11.71695
G1 X128.887 Y106.621 E11.79154
G1 X128.490 Y108.926 E11.87877
G1 X127.344 Y110.965 E11.96599
G1 X125.582 Y112.503 E12.05321
G1 X123.408 Y113.362 E12.14044
G1 X122.000 Y113.508 E12.19321
G1 X78.000 Y113.508 E13.83425
G1 X75.695 Y113.111 E13.92148
G1 X73.656 Y111.965 E14.00870
G1 X72.118 Y110.203 E14.09593
G1 X71.259 Y108.029 E14.18315
G1 X71.113 Y106.621 E14.23593
G1 X71.113 Y104.621 E14.31052
G1 X71.510 Y102.316 E14.39774
G1 X72.656 Y100.277 E14.48497
G1 X74.516 Y98.699 E14.57594
G1 X74.731 Y98.898 F4800.000
G1 X93.071 Y88.422 E15.36367 F4200.000
G1 X93.643 Y88.105 E15.38808
G1 X94.308 Y87.785 E15.41561
G1 X94.827 Y87.570 E15.43653
G1 X95.536 Y87.322 E15.46456
G1 X96.083 Y87.166 E15.48579
G1 X96.792 Y87.005 E15.51289
G1 X97.338 Y86.912 E15.53355
G1 X97.926 Y86.839 E15.55566
G1 X98.868 Y86.789 E15.59084
G1 X101.129 Y86.789 E15.67517
G1 X102.074 Y86.839 E15.71044 F4200.000
G1 X102.662 Y86.912 E15.73255
G1 X103.208 Y87.005 E15.75321
G1 X103.917 Y87.166 E15.78030
G1 X104.464 Y87.322 E15.80153
G1 X105.174 Y87.570 E15.82958
G1 X105.692 Y87.785 E15.85049
G1 X106.357 Y88.105 E15.87802
G1 X125.269 Y98.898 E16.69015
G1 X127.029 Y100.360 E16.77547
G1 X128.182 Y102.335 E16.86079
G1 X128.591 Y104.621 E16.94740
G1 X128.591 Y106.621 E17.02199
G1 X128.194 Y108.874 E17.10731
G1 X127.051 Y110.855 E17.19263
G1 X125.300 Y112.327 E17.27795
G1 X123.151 Y113.111 E17.36326
G1 X122.000 Y113.212 E17.40635
G1 X78.000 Y113.212 E19.04739
G1 X75.747 Y112.815 E19.13270
G1 X73.766 Y111.672 E19.21802
G1 X72.294 Y109.921 E19.30334
G1 X71.510 Y107.772 E19.38866
G1 X71.409 Y106.621 E19.43174
G1 X71.409 Y104.621 E19.50633
G1 X71.806 Y102.368 E19.59165
G1 X72.949 Y100.387 E19.67697
G1 X74.662 Y98.955 E19.76022
G1 X74.877 Y99.154 F4800.000
G1 X93.217 Y88.679 E20.54795 F4200.000
G1 X93.786 Y88.364 E20.57220
G1 X94.421 Y88.058 E20.59850
G1 X94.940 Y87.843 E20.61943
G1 X95.617 Y87.607 E20.64620
G1 X96.165 Y87.450 E20.66743
G1 X96.841 Y87.296 E20.69330
G1 X97.388 Y87.204 E20.71397
G1 X97.949 Y87.134 E20.73508
G1 X98.874 Y87.085 E20.76962
G1 X101.124 Y87.085 E20.85351
G1 X102.051 Y87.134 E20.88814 F4200.000
G1 X102.612 Y87.204 E20.90926
G1 X103.159 Y87.296 E20.92992
G1 X103.835 Y87.450 E20.95580
G1 X104.383 Y87.607 E20.97703
G1 X105.061 Y87.843 E21.00381
G1 X105.579 Y88.058 E21.02472
G1 X106.214 Y88.364 E21.05102
G1 X125.123 Y99.154 E21.86300
G1 X126.836 Y100.590 E21.94636
G1 X127.940 Y102.534 E22.02973
G1 X128.296 Y104.621 E22.10870
G1 X128.296 Y106.621 E22.18330
G1 X127.899 Y108.821 E22.26666
G1 X126.758 Y110.743 E22.35003
G1 X125.018 Y112.146 E22.43340
G1 X122.000 Y112.917 E22.54957
G1 X78.000 Y112.917 E24.19061
G1 X75.800 Y112.520 E24.27398
G1 X73.878 Y111.379 E24.35735
G1 X72.475 Y109.639 E24.44071
G1 X71.704 Y106.621 E24.55689
G1 X71.704 Y104.621 E24.63148
G1 X72.101 Y102.421 E24.71485
G1 X73.242 Y100.499 E24.79822
G1 X74.808 Y99.211 E24.87383
G1 E20.87383 F2400.00000
G92 E0
G1 X102.102 Y103.384 F4800.000
G1 E4.00000 F2400.00000
G1 X101.604 Y103.608 E4.02037 F4200.000
G1 X101.082 Y103.770 E4.04074
G1 X100.545 Y103.869 E4.06111
G1 X100.000 Y103.902 E4.08148
G1 X99.455 Y103.869 E4.10185
G1 X98.918 Y103.770 E4.12221
G1 X98.396 Y103.608 E4.14258
G1 X97.898 Y103.384 E4.16295
G1 X97.431 Y103.101 E4.18332
G1 X97.001 Y102.764 E4.20369
G1 X96.615 Y102.378 E4.22406
G1 X96.278 Y101.948 E4.24443
G1 X95.995 Y101.481 E4.26480
G1 X95.771 Y100.983 E4.28517
G1 X95.609 Y100.461 E4.30554
G1 X95.510 Y99.924 E4.32590
G1 X95.477 Y99.379 E4.34627
G1 X95.510 Y98.834 E4.36664
G1 X95.609 Y98.297 E4.38701
G1 X95.771 Y97.775 E4.40738
G1 X95.995 Y97.277 E4.42775
G1 X96.278 Y96.810 E4.44812
G1 X96.615 Y96.380 E4.46849
G1 X97.001 Y95.994 E4.48886
G1 X97.431 Y95.657 E4.50924
G1 X97.903 Y95.372 E4.52977
G1 X98.397 Y95.150 E4.54998
G1 X98.915 Y94.989 E4.57022
G1 X99.459 Y94.889 E4.59086
G1 X100.002 Y94.856 E4.61116 F4200.000
G1 X100.545 Y94.889 E4.63145
G1 X101.083 Y94.988 E4.65185
G1 X101.600 Y95.149 E4.67202
G1 X102.097 Y95.372 E4.69235
G1 X102.569 Y95.657 E4.71290
G1 X102.999 Y95.994 E4.73328
G1 X103.385 Y96.380 E4.75365
G1 X103.722 Y96.810 E4.77402
G1 X104.005 Y97.277 E4.79439
G1 X104.229 Y97.775 E4.81476
G1 X104.391 Y98.297 E4.83513
G1 X104.490 Y98.834 E4.85550
G1 X104.523 Y99.379 E4.87587
G1 X104.490 Y99.924 E4.89624
G1 X104.391 Y100.461 E4.91660
G1 X104.229 Y100.983 E4.93697
G1 X104.005 Y101.481 E4.95734
G1 X103.722 Y101.948 E4.97771
G1 X103.385 Y102.378 E4.99808
G1 X102.999 Y102.764 E5.01845
G1 X102.569 Y103.101 E5.03882
G1 X102.179 Y103.337 E5.05583
G1 X101.964 Y103.121 F4800.000
G1 X101.499 Y103.331 E5.07487 F4200.000
G1 X101.011 Y103.483 E5.09390
G1 X100.509 Y103.575 E5.11294
G1 X100.000 Y103.605 E5.13197
G1 X99.491 Y103.575 E5.15101
G1 X98.989 Y103.483 E5.17004
G1 X98.501 Y103.331 E5.18908
G1 X98.036 Y103.121 E5.20811
G1 X97.599 Y102.857 E5.22715
G1 X97.197 Y102.543 E5.24618
G1 X96.836 Y102.182 E5.26522
G1 X96.522 Y101.780 E5.28425
G1 X96.258 Y101.343 E5.30329
G1 X96.048 Y100.878 E5.32232
G1 X95.896 Y100.390 E5.34136
G1 X95.804 Y99.888 E5.36039
G1 X95.774 Y99.379 E5.37943
G1 X95.804 Y98.870 E5.39847
G1 X95.896 Y98.368 E5.41750
G1 X96.048 Y97.880 E5.43654
G1 X96.258 Y97.415 E5.45557
G1 X96.522 Y96.978 E5.47461
G1 X96.836 Y96.576 E5.49364
G1 X97.197 Y96.215 E5.51268
G1 X97.599 Y95.901 E5.53172
G1 X98.040 Y95.635 E5.55092
G1 X98.502 Y95.427 E5.56980
G1 X98.986 Y95.276 E5.58870
G1 X99.495 Y95.183 E5.60801
G1 X100.002 Y95.153 E5.62697 F4200.000
G1 X100.510 Y95.183 E5.64593
G1 X101.013 Y95.276 E5.66500
G1 X101.495 Y95.426 E5.68384
G1 X101.960 Y95.635 E5.70284
G1 X102.401 Y95.901 E5.72205
G1 X102.803 Y96.215 E5.74110
G1 X103.164 Y96.576 E5.76013
G1 X103.478 Y96.978 E5.77917
G1 X103.742 Y97.415 E5.79820
G1 X103.952 Y97.880 E5.81724
G1 X104.104 Y98.368 E5.83627
G1 X104.196 Y98.870 E5.85531
G1 X104.226 Y99.379 E5.87434
G1 X104.196 Y99.888 E5.89338
G1 X104.104 Y100.390 E5.91241
G1 X103.952 Y100.878 E5.93145
G1 X103.742 Y101.343 E5.95048
G1 X103.478 Y101.780 E5.96952
G1 X103.164 Y102.182 E5.98855
G1 X102.803 Y102.543 E6.00759
G1 X102.401 Y102.857 E6.02662
G1 X102.041 Y103.075 E6.04230
G1 X101.827 Y102.859 F4800.000
G1 X101.394 Y103.054 E6.06000 F4200.000
G1 X100.941 Y103.195 E6.07770
G1 X100.474 Y103.281 E6.09541
G1 X100.000 Y103.309 E6.11311
G1 X99.526 Y103.281 E6.13081
G1 X99.059 Y103.195 E6.14851
G1 X98.606 Y103.054 E6.16621
G1 X98.173 Y102.859 E6.18391
G1 X97.767 Y102.614 E6.20161
G1 X97.394 Y102.321 E6.21932
G1 X97.058 Y101.985 E6.23702
G1 X96.765 Y101.612 E6.25472
G1 X96.520 Y101.206 E6.27242
G1 X96.325 Y100.773 E6.29012
G1 X96.184 Y100.320 E6.30782
G1 X96.098 Y99.853 E6.32552
G1 X96.070 Y99.379 E6.34323
G1 X96.098 Y98.905 E6.36093
G1 X96.184 Y98.438 E6.37863
G1 X96.325 Y97.985 E6.39633
G1 X96.520 Y97.552 E6.41403
G1 X96.765 Y97.146 E6.43173
G1 X97.058 Y96.773 E6.44943
G1 X97.394 Y96.437 E6.46714
G1 X97.767 Y96.144 E6.48484
G1 X98.178 Y95.897 E6.50270
G1 X98.607 Y95.704 E6.52026
G1 X99.056 Y95.564 E6.53783
G1 X99.530 Y95.477 E6.55579
G1 X100.002 Y95.449 E6.57342 F4200.000
G1 X100.474 Y95.477 E6.59105
G1 X100.942 Y95.563 E6.60878
G1 X101.390 Y95.703 E6.62630
G1 X101.822 Y95.897 E6.64397
G1 X102.233 Y96.144 E6.66184
G1 X102.606 Y96.437 E6.67955
G1 X102.942 Y96.773 E6.69725
G1 X103.235 Y97.146 E6.71495
G1 X103.480 Y97.552 E6.73265
G1 X103.675 Y97.985 E6.75035
G1 X103.816 Y98.438 E6.76806
G1 X103.902 Y98.905 E6.78576
G1 X103.930 Y99.379 E6.80346
G1 X103.902 Y99.853 E6.82116
G1 X103.816 Y100.320 E6.83886
G1 X103.675 Y100.773 E6.85656
G1 X103.480 Y101.206 E6.87426
G1 X103.235 Y101.612 E6.89196
G1 X102.942 Y101.985 E6.90967
G1 X102.606 Y102.321 E6.92737
G1 X102.233 Y102.614 E6.94507
G1 X101.904 Y102.813 E6.95941
G1 X101.798 Y103.333 F4800.000
G1 X105.229 Y105.392 F4800.000
G1 X121.229 Y105.392 E7.55616 F4200.000
G1 X121.229 Y105.850 E7.57322
G1 X78.771 Y105.850 E9.15673
G1 X78.771 Y105.392 E9.17379
G1 X94.771 Y105.392 E9.77053
G1 X94.771 Y98.401 E10.03129
G1 X94.799 Y97.906 E10.04978
G1 X94.878 Y97.438 E10.06746
G1 X95.010 Y96.983 E10.08515
G1 X95.191 Y96.545 E10.10283
G1 X95.420 Y96.130 E10.12051
G1 X95.695 Y95.743 E10.13819
G1 X96.009 Y95.392 E10.15575
G1 X96.364 Y95.074 E10.17356
G1 X96.751 Y94.799 E10.19123
G1 X97.166 Y94.570 E10.20892
G1 X97.603 Y94.389 E10.22657
G1 X98.067 Y94.256 E10.24457
G1 X98.529 Y94.178 E10.26204
G1 X99.022 Y94.150 E10.28044
G1 X100.981 Y94.150 E10.35352
G1 X101.471 Y94.178 E10.37184
G1 X101.933 Y94.256 E10.38930
G1 X102.397 Y94.389 E10.40730
G1 X102.834 Y94.570 E10.42496
G1 X103.249 Y94.799 E10.44264
G1 X103.636 Y95.074 E10.46031
G1 X103.991 Y95.392 E10.47812
G1 X104.305 Y95.743 E10.49568
G1 X104.580 Y96.130 E10.51336
G1 X104.809 Y96.545 E10.53105
G1 X104.990 Y96.983 E10.54873
G1 X105.122 Y97.438 E10.56641
G1 X105.201 Y97.906 E10.58409
G1 X105.229 Y98.401 E10.60258
G1 X105.229 Y105.302 E10.85998
G1 X105.524 Y105.097 F4800.000
G1 X121.524 Y105.097 E11.45672 F4200.000
G1 X121.524 Y106.145 E11.49584
G1 X78.476 Y106.145 E13.10140
G1 X78.476 Y105.097 E13.14051
G1 X94.476 Y105.097 E13.73725
G1 X94.476 Y98.392 E13.98730
G1 X94.505 Y97.873 E14.00672
G1 X94.590 Y97.372 E14.02564
G1 X94.730 Y96.885 E14.04456
G1 X94.924 Y96.416 E14.06348
G1 X95.170 Y95.972 E14.08240
G1 X95.463 Y95.559 E14.10132
G1 X95.799 Y95.183 E14.12011
G1 X96.180 Y94.842 E14.13916
G1 X96.593 Y94.549 E14.15808
G1 X97.037 Y94.303 E14.17699
G1 X97.506 Y94.109 E14.19590
G1 X98.001 Y93.968 E14.21514
G1 X98.496 Y93.884 E14.23383
G1 X99.013 Y93.855 E14.25317
G1 X100.989 Y93.855 E14.32686
G1 X101.505 Y93.884 E14.34611
G1 X101.999 Y93.968 E14.36480
G1 X102.494 Y94.109 E14.38404
G1 X102.963 Y94.303 E14.40294
G1 X103.407 Y94.549 E14.42186
G1 X103.820 Y94.842 E14.44078
G1 X104.201 Y95.183 E14.45983
G1 X104.537 Y95.559 E14.47862
G1 X104.830 Y95.972 E14.49754
G1 X105.076 Y96.416 E14.51646
G1 X105.270 Y96.885 E14.53538
G1 X105.410 Y97.372 E14.55430
G1 X105.495 Y97.873 E14.57322
G1 X105.524 Y98.392 E14.59264
G1 X105.524 Y105.007 E14.83933
G1 X105.820 Y104.801 F4800.000
G1 X121.820 Y104.801 E15.43607 F4200.000
G1 X121.820 Y106.441 E15.49723
G1 X78.180 Y106.441 E17.12484
G1 X78.180 Y104.801 E17.18601
G1 X94.180 Y104.801 E17.78275
G1 X94.180 Y98.384 E18.02208
G1 X94.211 Y97.839 E18.04243
G1 X94.301 Y97.307 E18.06258
G1 X94.451 Y96.787 E18.08274
G1 X94.658 Y96.288 E18.10290
G1 X94.919 Y95.815 E18.12306
G1 X95.232 Y95.374 E18.14322
G1 X95.590 Y94.974 E18.16325
G1 X95.995 Y94.611 E18.18353
G1 X96.436 Y94.298 E18.20369
G1 X96.909 Y94.037 E18.22385
G1 X97.408 Y93.830 E18.24400
G1 X97.936 Y93.679 E18.26448
G1 X98.463 Y93.589 E18.28440
G1 X99.005 Y93.559 E18.30467
G1 X100.997 Y93.559 E18.37898
G1 X101.538 Y93.589 E18.39916
G1 X102.064 Y93.679 E18.41907
G1 X102.592 Y93.830 E18.43955
G1 X103.091 Y94.037 E18.45970
G1 X103.564 Y94.298 E18.47986
G1 X104.005 Y94.611 E18.50002
G1 X104.410 Y94.974 E18.52030
G1 X104.768 Y95.374 E18.54033
G1 X105.081 Y95.815 E18.56049
G1 X105.342 Y96.288 E18.58065
G1 X105.549 Y96.787 E18.60081
G1 X105.699 Y97.307 E18.62097
G1 X105.789 Y97.839 E18.64112
G1 X105.820 Y98.384 E18.66147
G1 X105.820 Y104.711 E18.89744
G1 X105.820 Y105.401 F4800.000
G1 X104.958 Y97.551 F4800.000
G1 X101.830 Y94.422 E19.06251 F4200.000
G1 X102.450 Y94.624 F4800.000
G1 X104.755 Y96.929 E19.18412 F4200.000
G1 X104.189 Y97.200 F4800.000
G1 X105.037 Y98.048 E19.22884 F4200.000
G1 X105.060 Y98.490 E19.24535
G1 X104.465 Y97.894 E19.27676
G1 X104.603 Y98.451 E19.29817
G1 X105.060 Y98.908 E19.32227
G1 X104.669 Y98.934 E19.33692
G1 X105.060 Y99.326 E19.35758
G1 X104.688 Y99.372 E19.37157
G1 X105.060 Y99.744 E19.39120
G1 X104.664 Y99.767 E19.40599
G1 X105.060 Y100.162 E19.42687
G1 X105.060 Y100.581 E19.44248
G1 X104.612 Y100.133 E19.46611
G1 X104.544 Y100.483 E19.47942
G1 X105.060 Y100.999 E19.50663
G1 X105.060 Y101.417 E19.52224
G1 X104.445 Y100.802 E19.55469
G1 X104.334 Y101.109 E19.56689
G1 X105.060 Y101.835 E19.60518
G1 X105.060 Y102.253 E19.62079
G1 X104.205 Y101.398 E19.66593
G1 X104.059 Y101.671 E19.67747
G1 X105.060 Y102.672 E19.73028
G1 X105.060 Y103.090 E19.74588
G1 X103.902 Y101.931 E19.80700
G1 X103.727 Y102.175 E19.81818
G1 X105.060 Y103.508 E19.88854
G1 X105.060 Y103.926 E19.90415
G1 X103.543 Y102.409 E19.98420
G1 X103.340 Y102.625 E19.99524
G1 X105.060 Y104.345 E20.08599
G1 X105.060 Y104.763 E20.10159
G1 X103.131 Y102.834 E20.20337
G1 X102.902 Y103.022 E20.21446
G1 X105.060 Y105.181 E20.32834
G1 X105.060 Y105.599 E20.34395
G1 X102.667 Y103.206 E20.47021
G1 X102.410 Y103.367 E20.48153
G1 X104.724 Y105.681 E20.60364
G1 X104.306 Y105.681 E20.61924
G1 X102.149 Y103.525 E20.73303
G1 X101.861 Y103.655 E20.74483
G1 X103.888 Y105.681 E20.85175
G1 X103.469 Y105.681 E20.86736
G1 X101.567 Y103.779 E20.96772
G1 X101.248 Y103.878 E20.98018
G1 X103.051 Y105.681 E21.07530
G1 X102.633 Y105.681 E21.09090
G1 X100.914 Y103.962 E21.18161
G1 X100.560 Y104.027 E21.19502
G1 X102.215 Y105.681 E21.28231
G1 X101.797 Y105.681 E21.29791
G1 X100.172 Y104.056 E21.38364
G1 X99.757 Y104.060 E21.39912
G1 X101.378 Y105.681 E21.48467
G1 X100.960 Y105.681 E21.50028
G1 X99.304 Y104.025 E21.58767
G1 X98.790 Y103.930 E21.60715
G1 X100.542 Y105.681 E21.69957
G1 X100.124 Y105.681 E21.71518
G1 X98.166 Y103.723 E21.81850
G1 X97.279 Y103.255 F4800.000
G1 X99.706 Y105.681 E21.94652 F4200.000
G1 X99.287 Y105.681 E21.96213
G1 X94.940 Y101.334 E22.19151
G1 X94.940 Y101.752 E22.20712
G1 X98.869 Y105.681 E22.41444
G1 X98.451 Y105.681 E22.43004
G1 X94.940 Y102.170 E22.61530
G1 X94.940 Y102.588 E22.63090
G1 X98.033 Y105.681 E22.79409
G1 X97.614 Y105.681 E22.80969
G1 X94.940 Y103.007 E22.95082
G1 X94.940 Y103.425 E22.96642
