; generated by Slic3r 1.2.9 on 2017-04-04 at 16:50:20

; external perimeters extrusion width = 0.60mm
; perimeters extrusion width = 0.60mm
; infill extrusion width = 0.60mm
; solid infill extrusion width = 0.60mm
; top infill extrusion width = 0.60mm
; support material extrusion width = 0.60mm

M107
M190 S55 ; set bed temperature
M104 S200 ; set temperature
G28 ; home all axes
G1 Z5 F5000 ; lift nozzle

M109 S200 ; wait for temperature to be reached
G21 ; set units to millimeters
G90 ; use absolute coordinates
M82 ; use absolute distances for extrusion
G92 E0
G1 E-4.00000 F2400.00000
G92 E0
G1 Z0.300 F4800.000
G1 X74.134 Y88.088 F4800.000
G1 E4.00000 F2400.00000
G1 X76.333 Y87.154 E4.08909 F4200.000
G1 X77.661 Y86.966 E4.13913
G1 X93.830 Y86.203 E4.74284
G1 X106.170 Y86.203 E5.20309
G1 X122.339 Y86.966 E5.80679 F4200.000
G1 X124.673 Y87.474 E5.89588
G1 X126.711 Y88.719 E5.98497
G1 X128.229 Y90.564 E6.07406
G1 X129.057 Y92.805 E6.16315
G1 X129.182 Y94.141 E6.21320
G1 X129.182 Y100.517 E6.45101
G1 X128.785 Y102.872 E6.54010
G1 X127.638 Y104.967 E6.62919
G1 X125.866 Y106.570 E6.71828
G1 X123.995 Y107.417 E6.79489
G1 X103.734 Y113.272 E7.58146
G1 X103.110 Y113.437 E7.60554
G1 X102.387 Y113.588 E7.63309
G1 X101.749 Y113.687 E7.65717
G1 X101.014 Y113.763 E7.68472
G1 X100.369 Y113.796 E7.70880
G1 X99.631 Y113.796 E7.73635
G1 X98.986 Y113.763 E7.76043
G1 X98.251 Y113.687 E7.78797
G1 X97.613 Y113.588 E7.81206
G1 X96.892 Y113.437 E7.83955
G1 X96.098 Y113.226 E7.87019
G1 X76.005 Y107.417 E8.65026
G1 X73.853 Y106.381 E8.73935
G1 X72.159 Y104.697 E8.82844
G1 X71.111 Y102.550 E8.91753
G1 X70.818 Y100.517 E8.99414
G1 X70.818 Y94.141 E9.23195
G1 X71.215 Y91.785 E9.32104
G1 X72.362 Y89.690 E9.41013
G1 X74.067 Y88.148 E9.49587
G1 X74.341 Y88.325 F4800.000
G1 X74.418 Y88.259 E9.49964 F4200.000
G1 X77.675 Y87.262 E9.62670
G1 X93.844 Y86.498 E10.23040
G1 X106.156 Y86.498 E10.68962
G1 X122.325 Y87.262 E11.29332 F4200.000
G1 X124.608 Y87.767 E11.38054
G1 X126.591 Y89.007 E11.46777
G1 X128.044 Y90.840 E11.55499
G1 X128.887 Y94.141 E11.68206
G1 X128.887 Y100.517 E11.91987
G1 X128.490 Y102.822 E12.00709
G1 X127.344 Y104.861 E12.09432
G1 X125.582 Y106.399 E12.18154
G1 X123.913 Y107.133 E12.24957
G1 X103.659 Y112.987 E13.03587
G1 X103.035 Y113.151 E13.05995
G1 X102.341 Y113.295 E13.08637
G1 X101.703 Y113.395 E13.11045
G1 X100.999 Y113.467 E13.13686
G1 X100.354 Y113.501 E13.16095
G1 X99.646 Y113.501 E13.18736
G1 X99.001 Y113.467 E13.21144
G1 X98.297 Y113.395 E13.23784
G1 X97.659 Y113.295 E13.26194
G1 X96.967 Y113.151 E13.28830
G1 X96.180 Y112.942 E13.31866
G1 X76.087 Y107.133 E14.09874
G1 X73.983 Y106.111 E14.18596
G1 X72.343 Y104.445 E14.27319
G1 X71.355 Y102.325 E14.36041
G1 X71.113 Y100.517 E14.42844
G1 X71.113 Y94.141 E14.66625
G1 X71.510 Y91.836 E14.75347
G1 X72.656 Y89.797 E14.84070
G1 X74.274 Y88.385 E14.92080
G1 X74.544 Y88.566 F4800.000
G1 X74.700 Y88.435 E14.92842 F4200.000
G1 X77.689 Y87.557 E15.04460
G1 X93.858 Y86.793 E15.64830
G1 X106.142 Y86.793 E16.10648
G1 X122.311 Y87.557 E16.71018 F4200.000
G1 X124.543 Y88.060 E16.79550
G1 X126.468 Y89.295 E16.88081
G1 X127.855 Y91.114 E16.96613
G1 X128.591 Y94.141 E17.08231
G1 X128.591 Y100.517 E17.32012
G1 X128.194 Y102.770 E17.40544
G1 X127.051 Y104.751 E17.49076
G1 X125.300 Y106.223 E17.57608
G1 X123.831 Y106.849 E17.63563
G1 X103.584 Y112.701 E18.42167
G1 X102.960 Y112.865 E18.44575
G1 X102.296 Y113.003 E18.47103
G1 X101.658 Y113.103 E18.49511
G1 X100.984 Y113.172 E18.52039
G1 X100.339 Y113.205 E18.54448
G1 X99.661 Y113.205 E18.56976
G1 X99.016 Y113.172 E18.59384
G1 X98.342 Y113.103 E18.61911
G1 X97.704 Y113.003 E18.64320
G1 X97.042 Y112.865 E18.66843
G1 X96.262 Y112.658 E18.69852
G1 X76.169 Y106.849 E19.47860
G1 X74.115 Y105.842 E19.56392
G1 X72.529 Y104.193 E19.64923
G1 X71.602 Y102.102 E19.73455
G1 X71.409 Y100.517 E19.79411
G1 X71.409 Y94.141 E20.03192
G1 X71.806 Y91.888 E20.11724
G1 X72.949 Y89.906 E20.20256
G1 X74.475 Y88.624 E20.27689
G1 X74.740 Y88.810 F4800.000
G1 X74.982 Y88.616 E20.28846 F4200.000
G1 X77.703 Y87.852 E20.39387
G1 X93.872 Y87.088 E20.99757
G1 X106.128 Y87.088 E21.45470
G1 X122.297 Y87.852 E22.05840 F4200.000
G1 X124.476 Y88.352 E22.14177
G1 X126.342 Y89.582 E22.22514
G1 X127.661 Y91.387 E22.30851
G1 X128.296 Y94.141 E22.41391
G1 X128.296 Y100.517 E22.65172
G1 X127.899 Y102.717 E22.73509
G1 X126.758 Y104.639 E22.81846
G1 X125.018 Y106.042 E22.90183
G1 X123.749 Y106.565 E22.95303
G1 X103.509 Y112.415 E23.73880
G1 X102.884 Y112.579 E23.76288
G1 X102.251 Y112.711 E23.78703
G1 X101.613 Y112.811 E23.81111
G1 X100.969 Y112.877 E23.83526
G1 X100.324 Y112.910 E23.85934
G1 X99.676 Y112.910 E23.88349
G1 X99.031 Y112.877 E23.90757
G1 X98.388 Y112.811 E23.93170
G1 X97.749 Y112.711 E23.95580
G1 X97.117 Y112.579 E23.97989
G1 X96.491 Y112.415 E24.00403
G1 X76.251 Y106.565 E24.78979
G1 X74.248 Y105.573 E24.87316
G1 X72.718 Y103.943 E24.95653
G1 X71.854 Y101.882 E25.03990
G1 X71.704 Y100.517 E25.09110
G1 X71.704 Y94.141 E25.32891
G1 X72.101 Y91.941 E25.41228
G1 X73.242 Y90.018 E25.49565
G1 X74.670 Y88.867 E25.56409
G1 E21.56409 F2400.00000
G92 E0
G1 X102.107 Y103.664 F4800.000
G1 E4.00000 F2400.00000
G1 X101.215 Y104.083 E4.03675 F4200.000
G1 X100.247 Y104.268 E4.07351
G1 X99.263 Y104.206 E4.11026
G1 X98.326 Y103.902 E4.14702
G1 X97.494 Y103.373 E4.18377
G1 X96.819 Y102.655 E4.22053
G1 X96.345 Y101.792 E4.25728
G1 X96.100 Y100.837 E4.29404
G1 X96.100 Y99.852 E4.33079
G1 X96.345 Y98.897 E4.36755
G1 X96.819 Y98.033 E4.40430
G1 X97.494 Y97.315 E4.44106
G1 X98.329 Y96.786 E4.47791
G1 X99.263 Y96.482 E4.51457
G1 X100.247 Y96.420 E4.55132 F4200.000
G1 X101.214 Y96.605 E4.58806
G1 X102.106 Y97.025 E4.62482
G1 X102.866 Y97.653 E4.66159
G1 X103.445 Y98.450 E4.69835
G1 X103.808 Y99.367 E4.73510
G1 X103.931 Y100.344 E4.77185
G1 X103.808 Y101.322 E4.80861
G1 X103.445 Y102.238 E4.84536
G1 X102.866 Y103.036 E4.88212
G1 X102.176 Y103.606 E4.91552
G1 X106.110 Y100.337 F4800.000
G1 X106.047 Y101.137 E4.94546 F4200.000
G1 X105.933 Y101.754 E4.96885
G1 X105.757 Y102.356 E4.99224
G1 X105.520 Y102.937 E5.01563
G1 X105.225 Y103.490 E5.03902
G1 X104.874 Y104.010 E5.06241
G1 X104.472 Y104.491 E5.08580
G1 X104.022 Y104.928 E5.10919
G1 X103.530 Y105.317 E5.13258
G1 X103.001 Y105.653 E5.15597
G1 X102.440 Y105.934 E5.17937
G1 X101.853 Y106.155 E5.20276
G1 X101.246 Y106.314 E5.22615
G1 X100.626 Y106.410 E5.24954
G1 X100.000 Y106.443 E5.27293
G1 X99.374 Y106.410 E5.29632
G1 X98.754 Y106.314 E5.31971
G1 X98.147 Y106.155 E5.34310
G1 X97.560 Y105.934 E5.36649
G1 X96.999 Y105.653 E5.38988
G1 X96.470 Y105.317 E5.41327
G1 X95.978 Y104.928 E5.43667
G1 X95.528 Y104.491 E5.46006
G1 X95.126 Y104.010 E5.48345
G1 X94.775 Y103.490 E5.50684
G1 X94.479 Y102.934 E5.53033
G1 X94.243 Y102.356 E5.55362
G1 X94.067 Y101.754 E5.57701
G1 X93.953 Y101.137 E5.60040
G1 X93.890 Y100.337 E5.63034
G1 X78.180 Y100.337 E6.21627
G1 X78.180 Y94.321 E6.44065
G1 X79.989 Y94.321 E6.50811
G1 X79.989 Y98.197 E6.65268
G1 X94.349 Y98.197 E7.18825
G1 X94.349 Y93.557 E7.36131
G1 X105.651 Y93.557 E7.78286
G1 X105.651 Y98.197 E7.95591
G1 X120.011 Y98.197 E8.49149
G1 X120.011 Y94.321 E8.63606
G1 X121.820 Y94.321 E8.70351
G1 X121.820 Y100.337 E8.92790
G1 X106.200 Y100.337 E9.51047
G1 X105.738 Y100.268 F4800.000
G1 X105.233 Y100.133 E9.52993 F4200.000
G1 X104.208 Y101.158 E9.58401
G1 X104.176 Y101.416 E9.59371
G1 X103.778 Y102.421 E9.63401
G1 X103.143 Y103.295 E9.67431
G1 X102.310 Y103.984 E9.71462
G1 X102.223 Y104.025 E9.71822
G1 X102.600 Y105.433 E9.77255
G1 X102.815 Y105.325 E9.78153
G1 X103.312 Y105.010 E9.80347
G1 X103.773 Y104.645 E9.82542
G1 X104.195 Y104.235 E9.84736
G1 X104.572 Y103.783 E9.86931
G1 X104.901 Y103.295 E9.89125
G1 X105.179 Y102.776 E9.91320
G1 X105.401 Y102.232 E9.93514
G1 X105.566 Y101.667 E9.95708
G1 X105.673 Y101.088 E9.97903
G1 X105.738 Y100.268 E10.00970
G1 X110.557 Y99.960 F4800.000
G1 X111.944 Y98.574 E10.08285 F4200.000
G1 X111.171 Y98.574 E10.11166
G1 X109.785 Y99.960 E10.18481
G1 X110.557 Y99.960 E10.21362
G1 X115.723 Y99.173 F4800.000
G1 X116.322 Y98.574 E10.24524 F4200.000
G1 X113.486 Y98.574 E10.35104
G1 X115.723 Y99.173 E10.43743
G1 E6.43743 F2400.00000
G92 E0
G1 X121.443 Y96.935 F4800.000
G1 E4.00000 F2400.00000
G1 X120.388 Y96.652 E4.04075 F4200.000
G1 X120.388 Y98.574 E4.11241
G1 X117.095 Y98.574 E4.23522
G1 X116.109 Y99.559 E4.28722
G1 X116.217 Y99.960 E4.30270
G1 X121.443 Y99.960 E4.49763
G1 X121.443 Y96.935 E4.61046
G1 E0.61046 F2400.00000
G92 E0
G1 X105.275 Y94.941 F4800.000
G1 E4.00000 F2400.00000
G1 X105.275 Y94.168 E4.02882 F4200.000
G1 X103.536 Y95.907 E4.12055
G1 X100.082 Y94.982 E4.25389
G1 X98.841 Y96.223 E4.31935
G1 X99.192 Y96.109 E4.33311
G1 X100.271 Y96.041 E4.37342
G1 X101.332 Y96.244 E4.41370
G1 X102.310 Y96.704 E4.45401
G1 X103.143 Y97.393 E4.49433
G1 X103.778 Y98.267 E4.53463
G1 X104.176 Y99.272 E4.57494
G1 X104.304 Y100.290 E4.61320
G1 X104.847 Y99.747 E4.64183
G1 X103.922 Y96.294 E4.77516
G1 X105.275 Y94.941 E4.84653
G1 X99.696 Y94.596 F4800.000
G1 X99.519 Y93.934 E4.87209 F4200.000
G1 X94.725 Y93.934 E5.05087
G1 X94.725 Y97.318 E5.17708
G1 X96.499 Y97.793 E5.24557
G1 X99.696 Y94.596 E5.41420
G1 E1.41420 F2400.00000
G92 E0
G1 X96.912 Y103.304 F4800.000
G1 E4.00000 F2400.00000
G1 X96.538 Y102.905 E4.02039 F4200.000
G1 X95.533 Y103.910 E4.07336
G1 X95.894 Y104.321 E4.09378
G1 X96.912 Y103.304 E4.14746
G1 E0.14746 F2400.00000
G92 E0
G1 X85.416 Y98.574 F4800.000
G1 E4.00000 F2400.00000
G1 X79.612 Y98.574 E4.21648 F4200.000
G1 X79.612 Y94.849 E4.35541
G1 X78.557 Y95.904 E4.41108
G1 X78.557 Y99.960 E4.56237
G1 X84.030 Y99.960 E4.76649
G1 X85.416 Y98.574 E4.83963
G1 X84.802 Y99.960 F4800.000
G1 X89.953 Y99.960 E5.03174 F4200.000
G1 X91.340 Y98.574 E5.10489
G1 X90.567 Y98.574 E5.13371
G1 X89.463 Y99.678 E5.19197
G1 X86.010 Y98.753 E5.32530
G1 X84.802 Y99.960 E5.38898
G1 E1.38898 F2400.00000
G92 E0
G1 X78.557 Y95.131 F4800.000
G1 E4.00000 F2400.00000
G1 X78.990 Y94.697 E4.02288 F4200.000
G1 X78.557 Y94.697 E4.03907
G1 X78.557 Y95.131 E4.05525
G1 E0.05525 F2400.00000
G92 E0
G1 Z0.300 F4800.000
M104 S190 ; set temperature
G1 Z0.550 F4800.000
G1 X104.052 Y100.344 F4800.000
G1 E4.00000 F2400.00000
G1 X103.925 Y101.352 E4.05835 F900.000
G1 X103.551 Y102.297 E4.11670
G1 X102.954 Y103.118 E4.17505
G1 X102.171 Y103.766 E4.23339
G1 X101.252 Y104.198 E4.29174
G1 X100.254 Y104.389 E4.35012
G1 X99.229 Y104.321 E4.40910
G1 X98.275 Y104.011 E4.46677
G1 X97.417 Y103.467 E4.52512
G1 X96.722 Y102.726 E4.58346
G1 X96.238 Y101.846 E4.64113
G1 X95.980 Y100.853 E4.70011
G1 X95.980 Y99.836 E4.75849
G1 X96.232 Y98.852 E4.81684
G1 X96.722 Y97.962 E4.87519
G1 X97.417 Y97.222 E4.93355
G1 X98.282 Y96.674 E4.99236
G1 X99.255 Y96.362 E5.05103
G1 X100.253 Y96.300 E5.10845 F900.000
G1 X101.255 Y96.491 E5.16707
G1 X102.171 Y96.923 E5.22526
G1 X102.954 Y97.570 E5.28361
G1 X103.551 Y98.392 E5.34195
G1 X103.925 Y99.336 E5.40030
G1 X104.041 Y100.255 E5.45348
G1 X105.999 Y100.217 F4800.000
G1 X105.928 Y101.122 E5.50561 F1350.000
G1 X105.816 Y101.726 E5.54092
G1 X105.644 Y102.316 E5.57624
G1 X105.411 Y102.886 E5.61155
G1 X105.122 Y103.428 E5.64687
G1 X104.778 Y103.938 E5.68218
G1 X104.384 Y104.409 E5.71750
G1 X103.943 Y104.838 E5.75281
G1 X103.461 Y105.219 E5.78813
G1 X102.942 Y105.549 E5.82344
G1 X102.391 Y105.823 E5.85876
G1 X101.816 Y106.040 E5.89407
G1 X101.221 Y106.196 E5.92939
G1 X100.614 Y106.291 E5.96470
G1 X100.000 Y106.323 E6.00002
G1 X99.386 Y106.291 E6.03533
G1 X98.779 Y106.196 E6.07065
G1 X98.184 Y106.040 E6.10596
G1 X97.609 Y105.823 E6.14128
G1 X97.058 Y105.549 E6.17659
G1 X96.539 Y105.219 E6.21191
G1 X96.057 Y104.838 E6.24722
G1 X95.616 Y104.409 E6.28254
G1 X95.222 Y103.938 E6.31785
G1 X94.883 Y103.434 E6.35273
G1 X94.589 Y102.885 E6.38849
G1 X94.356 Y102.316 E6.42380
G1 X94.184 Y101.726 E6.45911
G1 X94.072 Y101.122 E6.49443
G1 X94.001 Y100.217 E6.54655
G1 X78.300 Y100.217 E7.44843
G1 X78.300 Y94.441 E7.78023
G1 X79.869 Y94.441 E7.87033
G1 X79.869 Y98.317 E8.09299
G1 X94.469 Y98.317 E8.93162
G1 X94.469 Y93.677 E9.19815
G1 X105.531 Y93.677 E9.83361
G1 X105.531 Y98.317 E10.10013
G1 X120.131 Y98.317 E10.93877
G1 X120.131 Y94.441 E11.16143
G1 X121.700 Y94.441 E11.25153
G1 X121.700 Y100.217 E11.58333
G1 X106.089 Y100.217 E12.48003
G1 X105.067 Y94.762 F4800.000
G1 X104.063 Y95.766 E12.56157 F3000.000
G1 X105.233 Y100.133 E12.82128
G1 X105.534 Y100.214 E12.83912
G1 X105.466 Y101.061 E12.88796
G1 X105.364 Y101.619 E12.92053
G1 X105.205 Y102.163 E12.95309
G1 X104.990 Y102.688 E12.98566
G1 X104.723 Y103.188 E13.01823
G1 X104.406 Y103.658 E13.05080
G1 X104.043 Y104.093 E13.08337
G1 X103.636 Y104.488 E13.11593
G1 X103.191 Y104.840 E13.14850
G1 X102.792 Y105.094 E13.17569
G1 X102.520 Y104.080 E13.23598
G1 X103.295 Y103.439 E13.29376
G1 X103.961 Y102.522 E13.35885
G1 X104.378 Y101.468 E13.42394
G1 X104.504 Y100.477 E13.48137
G1 X104.706 Y100.275 E13.49777
G1 X103.536 Y95.907 E13.75748
G1 X100.082 Y94.982 E13.96282
G1 X99.857 Y94.141 E14.01282
G1 X105.067 Y94.141 E14.31209
G1 X105.067 Y94.762 E14.34775
G1 X99.555 Y95.124 F4800.000
G1 X98.591 Y96.087 E14.42604 F3000.000
G1 X98.084 Y96.250 E14.45662
G1 X97.119 Y96.861 E14.52222
G1 X96.343 Y97.687 E14.58734
G1 X96.312 Y97.743 E14.59099
G1 X94.933 Y97.373 E14.67301
G1 X94.933 Y94.141 E14.85865
G1 X99.291 Y94.141 E15.10901
G1 X99.555 Y95.124 E15.16741
G1 E11.16741 F2400.00000
G92 E0
G1 X97.119 Y103.827 F4800.000
G1 E4.00000 F2400.00000
G1 X98.075 Y104.435 E4.06509 F3000.000
G1 X99.141 Y104.781 E4.12945
G1 X100.283 Y104.856 E4.19518
G1 X101.397 Y104.643 E4.26033
G1 X102.026 Y104.347 E4.30028
G1 X102.295 Y105.352 E4.36004
G1 X101.675 Y105.597 E4.39836
G1 X101.126 Y105.741 E4.43093
G1 X100.566 Y105.828 E4.46349
G1 X100.000 Y105.858 E4.49606
G1 X99.434 Y105.828 E4.52863
G1 X98.874 Y105.741 E4.56120
G1 X98.325 Y105.597 E4.59377
G1 X97.795 Y105.397 E4.62634
G1 X97.287 Y105.144 E4.65890
G1 X96.809 Y104.840 E4.69147
G1 X96.364 Y104.488 E4.72404
G1 X95.957 Y104.093 E4.75661
G1 X95.857 Y103.973 E4.76563
G1 X96.578 Y103.252 E4.82421
G1 X97.119 Y103.827 E4.86958
G1 E0.86958 F2400.00000
G92 E0
G1 X90.048 Y99.753 F4800.000
G1 E4.00000 F2400.00000
G1 X89.483 Y99.753 E4.03249 F3000.000
G1 X89.463 Y99.678 E4.03691
G1 X86.115 Y98.781 E4.23597
G1 X90.746 Y98.781 E4.50195
G1 X89.990 Y99.537 E4.56333
G1 X90.048 Y99.753 E4.57615
G1 X85.451 Y98.781 F4800.000
G1 X85.482 Y98.894 E4.58288 F3000.000
G1 X84.624 Y99.753 E4.65259
G1 X78.764 Y99.753 E4.98915
G1 X78.764 Y95.310 E5.24435
G1 X79.169 Y94.905 E5.27722
G1 X79.404 Y94.905 E5.29073
G1 X79.404 Y98.781 E5.51339
G1 X85.451 Y98.781 E5.86075
G1 E1.86075 F2400.00000
G92 E0
G1 X115.723 Y99.173 F4800.000
G1 E4.00000 F2400.00000
G1 X115.878 Y99.753 E4.03446 F3000.000
G1 X110.379 Y99.753 E4.35036
G1 X111.350 Y98.781 E4.42925
G1 X114.261 Y98.781 E4.59647
G1 X115.723 Y99.173 E4.68340
G1 E0.68340 F2400.00000
G92 E0
G1 X121.236 Y96.879 F4800.000
G1 E4.00000 F2400.00000
G1 X121.236 Y99.753 E4.16504 F3000.000
G1 X116.444 Y99.753 E4.44028
G1 X116.251 Y99.032 E4.48315
G1 X116.501 Y98.781 E4.50349
G1 X120.596 Y98.781 E4.73869
G1 X120.596 Y96.708 E4.85779
G1 X121.236 Y96.879 E4.89584
G1 E0.89584 F2400.00000
G92 E0
G1 Z0.650 F4800.000
G1 Z0.800 F4800.000
G1 X104.052 Y100.344 F4800.000
G1 E4.00000 F2400.00000
G1 X103.925 Y101.352 E4.05835 F900.000
G1 X103.551 Y102.297 E4.11670
G1 X102.954 Y103.118 E4.17505
G1 X102.171 Y103.766 E4.23339
G1 X101.252 Y104.198 E4.29174
G1 X100.254 Y104.389 E4.35009
G1 X99.241 Y104.325 E4.40844
G1 X98.275 Y104.011 E4.46679
G1 X97.417 Y103.467 E4.52514
G1 X96.722 Y102.726 E4.58348
G1 X96.232 Y101.836 E4.64183
G1 X95.980 Y100.852 E4.70018
G1 X95.980 Y99.836 E4.75853
G1 X96.232 Y98.852 E4.81688
G1 X96.722 Y97.962 E4.87523
G1 X97.417 Y97.222 E4.93359
G1 X98.287 Y96.672 E4.99267
G1 X99.263 Y96.361 E5.05153
G1 X100.251 Y96.300 E5.10841 F900.000
G1 X101.254 Y96.491 E5.16704
G1 X102.171 Y96.923 E5.22529
G1 X102.954 Y97.570 E5.28364
G1 X103.551 Y98.392 E5.34198
G1 X103.925 Y99.336 E5.40033
G1 X104.041 Y100.255 E5.45351
G1 X105.999 Y100.217 F4800.000
G1 X105.928 Y101.122 E5.50564 F1350.000
G1 X105.816 Y101.726 E5.54095
