; generated by Slic3r 1.2.9 on 2017-04-04 at 11:05:29

; external perimeters extrusion width = 0.60mm
; perimeters extrusion width = 0.60mm
; infill extrusion width = 0.60mm
; solid infill extrusion width = 0.60mm
; top infill extrusion width = 0.60mm
; support material extrusion width = 0.60mm

M107
M190 S55 ; set bed temperature
M104 S200 ; set temperature
G28 ; home all axes
G1 Z5 F5000 ; lift nozzle

M109 S200 ; wait for temperature to be reached
G21 ; set units to millimeters
G90 ; use absolute coordinates
M82 ; use absolute distances for extrusion
G92 E0
G1 E-4.00000 F2400.00000
G92 E0
G1 Z0.300 F4800.000
G1 X75.832 Y98.542 F4800.000
G1 E5.00000 F2400.00000
G1 X89.221 Y88.239 E5.63010 F4200.000
G1 X90.054 Y87.639 E5.66838
G1 X91.144 Y86.954 E5.71639
G1 X92.281 Y86.350 E5.76441
G1 X92.755 Y86.128 E5.78392
G1 X93.948 Y85.643 E5.83194
G1 X95.173 Y85.247 E5.87996
G1 X96.423 Y84.940 E5.92799
G1 X97.693 Y84.726 E5.97601
G1 X98.974 Y84.604 E6.02403
G1 X100.261 Y84.576 E6.07203
G1 X101.548 Y84.642 E6.12007 F4200.000
G1 X102.825 Y84.802 E6.16808
G1 X104.087 Y85.054 E6.21609
G1 X105.328 Y85.397 E6.26412
G1 X106.052 Y85.643 E6.29264
G1 X107.245 Y86.128 E6.34066
G1 X108.400 Y86.698 E6.38868
G1 X109.509 Y87.351 E6.43670
G1 X109.946 Y87.639 E6.45622
G1 X110.779 Y88.239 E6.49449
G1 X129.380 Y102.554 E7.36990
G1 X131.005 Y104.305 E7.45899
G1 X131.965 Y106.492 E7.54808
G1 X132.155 Y108.873 E7.63717
G1 X131.554 Y111.185 E7.72626
G1 X130.227 Y113.172 E7.81535
G1 X128.323 Y114.614 E7.90444
G1 X125.000 Y115.428 E8.03204
G1 X75.000 Y115.428 E9.89685
G1 X72.645 Y115.031 E9.98594
G1 X70.550 Y113.883 E10.07503
G1 X68.947 Y112.112 E10.16412
G1 X68.014 Y109.913 E10.25321
G1 X67.853 Y107.530 E10.34230
G1 X68.483 Y105.226 E10.43140
G1 X70.620 Y102.554 E10.55899
G1 X75.761 Y98.597 E10.80095
G1 X76.013 Y98.777 F4800.000
G1 X89.401 Y88.473 E11.43105 F4200.000
G1 X90.226 Y87.880 E11.46893
G1 X91.297 Y87.207 E11.51613
G1 X92.416 Y86.613 E11.56335
G1 X92.870 Y86.400 E11.58206
G1 X94.043 Y85.923 E11.62928
G1 X95.247 Y85.533 E11.67650
G1 X96.477 Y85.231 E11.72371
G1 X97.725 Y85.020 E11.77093
G1 X98.985 Y84.900 E11.81815
G1 X100.250 Y84.872 E11.86535
G1 X101.515 Y84.936 E11.91258 F4200.000
G1 X102.771 Y85.093 E11.95979
G1 X104.013 Y85.340 E12.00700
G1 X105.233 Y85.677 E12.05422
G1 X105.957 Y85.923 E12.08275
G1 X107.130 Y86.400 E12.12996
G1 X108.265 Y86.961 E12.17718
G1 X109.356 Y87.604 E12.22440
G1 X109.775 Y87.880 E12.24311
G1 X110.599 Y88.473 E12.28098
G1 X129.200 Y102.788 E13.15639
G1 X130.784 Y104.508 E13.24362
G1 X131.702 Y106.660 E13.33084
G1 X131.846 Y108.994 E13.41807
G1 X131.201 Y111.242 E13.50529
G1 X129.841 Y113.144 E13.59252
G1 X127.923 Y114.482 E13.67974
G1 X125.000 Y115.133 E13.79141
G1 X75.000 Y115.133 E15.65623
G1 X72.695 Y114.736 E15.74345
G1 X70.656 Y113.590 E15.83067
G1 X69.118 Y111.828 E15.91790
G1 X68.259 Y109.653 E16.00512
G1 X68.176 Y107.316 E16.09235
G1 X68.881 Y105.086 E16.17957
G1 X70.800 Y102.788 E16.29124
G1 X75.941 Y98.831 E16.53320
G1 X76.193 Y99.011 F4800.000
G1 X89.582 Y88.708 E17.16330 F4200.000
G1 X90.398 Y88.120 E17.20078
G1 X91.451 Y87.459 E17.24718
G1 X92.550 Y86.876 E17.29359
G1 X92.986 Y86.672 E17.31150
G1 X94.138 Y86.203 E17.35792
G1 X95.322 Y85.819 E17.40433
G1 X96.530 Y85.522 E17.45075
G1 X97.757 Y85.314 E17.49716
G1 X98.996 Y85.195 E17.54358
G1 X100.240 Y85.167 E17.58997
G1 X101.483 Y85.230 E17.63640 F4200.000
G1 X102.718 Y85.383 E17.68281
G1 X103.938 Y85.626 E17.72921
G1 X105.138 Y85.957 E17.77563
G1 X105.862 Y86.203 E17.80416
G1 X107.014 Y86.672 E17.85057
G1 X108.130 Y87.225 E17.89698
G1 X109.202 Y87.856 E17.94340
G1 X109.603 Y88.121 E17.96131
G1 X110.418 Y88.708 E17.99878
G1 X129.020 Y103.022 E18.87419
G1 X130.563 Y104.711 E18.95951
G1 X131.436 Y106.825 E19.04482
G1 X131.534 Y109.111 E19.13014
G1 X130.845 Y111.292 E19.21546
G1 X129.452 Y113.106 E19.30078
G1 X127.523 Y114.335 E19.38610
G1 X125.000 Y114.837 E19.48202
G1 X75.000 Y114.837 E21.34684
G1 X72.747 Y114.440 E21.43216
G1 X70.766 Y113.297 E21.51747
G1 X69.294 Y111.545 E21.60279
G1 X68.510 Y109.397 E21.68811
G1 X68.508 Y107.109 E21.77343
G1 X69.287 Y104.958 E21.85875
G1 X70.980 Y103.022 E21.95467
G1 X76.122 Y99.066 E22.19663
G1 X76.373 Y99.245 F4800.000
G1 X89.762 Y88.942 E22.82673 F4200.000
G1 X90.569 Y88.361 E22.86381
G1 X91.605 Y87.712 E22.90940
G1 X92.685 Y87.139 E22.95501
G1 X93.101 Y86.945 E22.97212
G1 X94.233 Y86.483 E23.01773
G1 X95.396 Y86.105 E23.06334
G1 X96.584 Y85.813 E23.10895
G1 X97.789 Y85.607 E23.15457
G1 X99.007 Y85.491 E23.20018
G1 X100.229 Y85.463 E23.24577
G1 X101.451 Y85.524 E23.29140 F4200.000
G1 X102.664 Y85.674 E23.33700
G1 X103.863 Y85.912 E23.38260
G1 X105.043 Y86.237 E23.42822
G1 X105.767 Y86.483 E23.45674
G1 X106.899 Y86.945 E23.50235
G1 X107.995 Y87.488 E23.54797
G1 X109.048 Y88.109 E23.59358
G1 X109.431 Y88.361 E23.61068
G1 X110.238 Y88.942 E23.64775
G1 X128.839 Y103.256 E24.52316
G1 X130.341 Y104.913 E24.60653
G1 X131.169 Y106.989 E24.68990
G1 X131.219 Y109.224 E24.77326
G1 X130.486 Y111.335 E24.85663
G1 X129.060 Y113.057 E24.94000
G1 X127.123 Y114.173 E25.02337
G1 X125.000 Y114.541 E25.10375
G1 X75.000 Y114.541 E26.96856
G1 X72.800 Y114.145 E27.05193
G1 X70.878 Y113.004 E27.13530
G1 X69.475 Y111.264 E27.21867
G1 X68.769 Y109.143 E27.30204
G1 X68.848 Y106.909 E27.38540
G1 X69.703 Y104.844 E27.46877
G1 X71.161 Y103.256 E27.54915
G1 X76.302 Y99.300 E27.79111
G1 E23.79111 F2400.00000
G92 E0
G1 X102.111 Y102.301 F4800.000
G1 E5.00000 F2400.00000
G1 X101.629 Y102.518 E5.01973 F4200.000
G1 X101.108 Y102.682 E5.04009
G1 X100.565 Y102.783 E5.06070
G1 X100.012 Y102.818 E5.08135
G1 X99.460 Y102.786 E5.10196
G1 X98.920 Y102.689 E5.12243
G1 X98.369 Y102.517 E5.14396
G1 X97.874 Y102.294 E5.16423
G1 X97.400 Y102.007 E5.18487
G1 X96.976 Y101.675 E5.20495
G1 X96.578 Y101.279 E5.22592
G1 X96.237 Y100.843 E5.24654
G1 X95.955 Y100.377 E5.26686
G1 X95.725 Y99.868 E5.28770
G1 X95.560 Y99.340 E5.30832
G1 X95.461 Y98.797 E5.32892
G1 X95.427 Y98.246 E5.34951
G1 X95.461 Y97.695 E5.37011
G1 X95.560 Y97.151 E5.39070
G1 X95.725 Y96.624 E5.41132
G1 X95.955 Y96.114 E5.43217
G1 X96.237 Y95.648 E5.45248
G1 X96.578 Y95.213 E5.47310
G1 X96.974 Y94.818 E5.49395
G1 X97.402 Y94.483 E5.51426
G1 X97.875 Y94.197 E5.53486
G1 X98.379 Y93.970 E5.55545
G1 X98.906 Y93.806 E5.57605
G1 X99.449 Y93.706 E5.59664
G1 X99.992 Y93.674 E5.61695 F4200.000
G1 X100.550 Y93.706 E5.63780
G1 X101.094 Y93.806 E5.65842
G1 X101.621 Y93.970 E5.67902
G1 X102.125 Y94.197 E5.69961
G1 X102.598 Y94.483 E5.72020
G1 X103.032 Y94.823 E5.74080
G1 X103.423 Y95.214 E5.76139
G1 X103.763 Y95.648 E5.78199
G1 X104.049 Y96.121 E5.80258
G1 X104.275 Y96.624 E5.82318
G1 X104.440 Y97.151 E5.84377
G1 X104.539 Y97.695 E5.86436
G1 X104.573 Y98.246 E5.88496
G1 X104.539 Y98.797 E5.90555
G1 X104.440 Y99.340 E5.92615
G1 X104.275 Y99.867 E5.94674
G1 X104.049 Y100.371 E5.96734
G1 X103.763 Y100.843 E5.98793
G1 X103.422 Y101.279 E6.00855
G1 X103.025 Y101.675 E6.02949
G1 X102.596 Y102.010 E6.04979
G1 X102.188 Y102.255 E6.06752
G1 X101.974 Y102.039 F4800.000
G1 X101.523 Y102.242 E6.08595 F4200.000
G1 X101.036 Y102.395 E6.10499
G1 X100.528 Y102.489 E6.12427
G1 X100.011 Y102.522 E6.14359
G1 X99.495 Y102.492 E6.16286
G1 X98.991 Y102.401 E6.18198
G1 X98.474 Y102.240 E6.20216
G1 X98.011 Y102.032 E6.22109
G1 X97.568 Y101.764 E6.24040
G1 X97.172 Y101.453 E6.25917
G1 X96.799 Y101.082 E6.27880
G1 X96.481 Y100.675 E6.29808
G1 X96.217 Y100.239 E6.31707
G1 X96.002 Y99.763 E6.33658
G1 X95.848 Y99.269 E6.35586
G1 X95.755 Y98.761 E6.37512
G1 X95.724 Y98.246 E6.39438
G1 X95.755 Y97.730 E6.41364
G1 X95.848 Y97.222 E6.43290
G1 X96.002 Y96.729 E6.45218
G1 X96.217 Y96.252 E6.47169
G1 X96.481 Y95.816 E6.49068
G1 X96.799 Y95.410 E6.50995
G1 X97.170 Y95.040 E6.52947
G1 X97.571 Y94.726 E6.54846
G1 X98.013 Y94.459 E6.56772
G1 X98.484 Y94.247 E6.58698
G1 X98.977 Y94.094 E6.60624
G1 X99.485 Y94.000 E6.62550
G1 X99.993 Y93.970 E6.64449 F4200.000
G1 X100.515 Y94.000 E6.66400
G1 X101.023 Y94.094 E6.68328
G1 X101.516 Y94.247 E6.70254
G1 X101.987 Y94.459 E6.72180
G1 X102.429 Y94.726 E6.74106
G1 X102.836 Y95.045 E6.76032
G1 X103.201 Y95.410 E6.77958
G1 X103.519 Y95.816 E6.79884
G1 X103.787 Y96.258 E6.81810
G1 X103.999 Y96.729 E6.83736
G1 X104.152 Y97.222 E6.85662
G1 X104.245 Y97.730 E6.87588
G1 X104.276 Y98.246 E6.89514
G1 X104.245 Y98.761 E6.91440
G1 X104.152 Y99.269 E6.93366
G1 X103.999 Y99.762 E6.95292
G1 X103.787 Y100.233 E6.97218
G1 X103.519 Y100.675 E6.99145
G1 X103.201 Y101.082 E7.01072
G1 X102.828 Y101.453 E7.03032
G1 X102.428 Y101.766 E7.04928
G1 X102.051 Y101.993 E7.06569
G1 X101.837 Y101.776 F4800.000
G1 X101.418 Y101.965 E7.08280 F4200.000
G1 X100.964 Y102.107 E7.10054
G1 X100.491 Y102.195 E7.11849
G1 X100.010 Y102.226 E7.13646
G1 X99.530 Y102.198 E7.15440
G1 X99.061 Y102.113 E7.17218
G1 X98.579 Y101.964 E7.19101
G1 X98.149 Y101.770 E7.20859
G1 X97.737 Y101.520 E7.22657
G1 X97.368 Y101.232 E7.24402
G1 X97.021 Y100.885 E7.26232
G1 X96.724 Y100.507 E7.28025
G1 X96.479 Y100.102 E7.29792
G1 X96.278 Y99.657 E7.31610
G1 X96.135 Y99.198 E7.33403
G1 X96.049 Y98.726 E7.35196
G1 X96.020 Y98.246 E7.36988
G1 X96.049 Y97.766 E7.38781
G1 X96.135 Y97.293 E7.40574
G1 X96.278 Y96.834 E7.42367
G1 X96.479 Y96.390 E7.44185
G1 X96.724 Y95.985 E7.45951
G1 X97.021 Y95.606 E7.47745
G1 X97.366 Y95.262 E7.49563
G1 X97.739 Y94.970 E7.51329
G1 X98.150 Y94.721 E7.53122
G1 X98.589 Y94.524 E7.54914
G1 X99.047 Y94.381 E7.56707
G1 X99.520 Y94.294 E7.58500
G1 X99.993 Y94.266 E7.60266 F4200.000
G1 X100.480 Y94.294 E7.62084
G1 X100.953 Y94.381 E7.63878
G1 X101.411 Y94.524 E7.65670
G1 X101.850 Y94.721 E7.67463
G1 X102.261 Y94.970 E7.69256
G1 X102.639 Y95.266 E7.71048
G1 X102.979 Y95.606 E7.72841
G1 X103.276 Y95.985 E7.74634
G1 X103.524 Y96.396 E7.76426
G1 X103.722 Y96.834 E7.78219
G1 X103.865 Y97.293 E7.80011
G1 X103.951 Y97.766 E7.81804
G1 X103.980 Y98.246 E7.83597
G1 X103.951 Y98.726 E7.85389
G1 X103.865 Y99.198 E7.87182
G1 X103.722 Y99.657 E7.88975
G1 X103.524 Y100.096 E7.90767
G1 X103.276 Y100.507 E7.92560
G1 X102.979 Y100.885 E7.94353
G1 X102.632 Y101.231 E7.96180
G1 X102.260 Y101.522 E7.97941
G1 X101.914 Y101.730 E7.99449
G1 X101.808 Y102.235 F4800.000
G1 E3.99449 F2400.00000
G92 E0
G1 X122.536 Y107.475 F4800.000
G1 E5.00000 F2400.00000
G1 X77.464 Y107.475 E6.68102 F4200.000
G1 X77.423 Y107.354 E6.68576
G1 X94.061 Y94.551 E7.46875
G1 X94.649 Y94.132 E7.49569
G1 X95.254 Y93.764 E7.52210
G1 X95.884 Y93.440 E7.54851
G1 X96.536 Y93.164 E7.57493
G1 X97.207 Y92.936 E7.60134
G1 X97.892 Y92.757 E7.62775
G1 X98.588 Y92.629 E7.65417
G1 X99.292 Y92.552 E7.68056
G1 X100.011 Y92.526 E7.70740
G1 X100.708 Y92.552 E7.73340
G1 X101.412 Y92.629 E7.75982
G1 X102.108 Y92.757 E7.78623
G1 X102.793 Y92.936 E7.81264
G1 X103.464 Y93.164 E7.83906
G1 X104.116 Y93.440 E7.86547
G1 X104.746 Y93.764 E7.89188
G1 X105.351 Y94.132 E7.91830
G1 X105.939 Y94.551 E7.94523
G1 X122.577 Y107.354 E8.72822
G1 X122.565 Y107.389 E8.72960
G1 X123.405 Y107.770 F4800.000
G1 X76.595 Y107.770 E10.47544 F4200.000
G1 X76.554 Y107.650 E10.48018
G1 X93.885 Y94.313 E11.29577
G1 X94.486 Y93.885 E11.32331
G1 X95.109 Y93.505 E11.35053
G1 X95.759 Y93.172 E11.37775
G1 X96.431 Y92.888 E11.40496
G1 X97.122 Y92.653 E11.43218
G1 X97.828 Y92.469 E11.45940
G1 X98.545 Y92.336 E11.48662
G1 X99.270 Y92.257 E11.51382
G1 X100.011 Y92.231 E11.54147
G1 X100.729 Y92.257 E11.56827
G1 X101.455 Y92.336 E11.59548
G1 X102.172 Y92.469 E11.62270
G1 X102.878 Y92.653 E11.64992
G1 X103.569 Y92.888 E11.67713
G1 X104.241 Y93.172 E11.70435
G1 X104.891 Y93.505 E11.73157
G1 X105.514 Y93.885 E11.75878
G1 X106.115 Y94.313 E11.78632
G1 X123.446 Y107.650 E12.60192
G1 X123.434 Y107.685 E12.60330
G1 X124.274 Y108.066 F4800.000
G1 X75.726 Y108.066 E14.41395 F4200.000
G1 X75.685 Y107.946 E14.41869
G1 X93.709 Y94.076 E15.26689
G1 X94.323 Y93.638 E15.29503
G1 X94.965 Y93.247 E15.32305
G1 X95.634 Y92.904 E15.35108
G1 X96.325 Y92.611 E15.37910
G1 X97.037 Y92.369 E15.40712
G1 X97.764 Y92.180 E15.43514
G1 X98.502 Y92.044 E15.46316
G1 X99.249 Y91.962 E15.49118
G1 X100.011 Y91.935 E15.51962
G1 X100.751 Y91.962 E15.54722
G1 X101.498 Y92.044 E15.57524
G1 X102.236 Y92.180 E15.60326
G1 X102.963 Y92.369 E15.63128
G1 X103.675 Y92.611 E15.65930
G1 X104.366 Y92.904 E15.68732
G1 X105.035 Y93.247 E15.71534
G1 X105.677 Y93.638 E15.74336
G1 X106.291 Y94.076 E15.77151
G1 X124.315 Y107.946 E16.61971
G1 X124.303 Y107.981 E16.62109
G1 X123.790 Y107.711 F4800.000
G1 E12.62109 F2400.00000
G92 E0
G1 Z0.300 F4800.000
M104 S195 ; set temperature
G1 Z0.600 F4800.000
G1 X104.336 Y99.890 F4800.000
G1 E5.00000 F2400.00000
G1 X104.106 Y100.401 E5.03784 F900.000
G1 X103.816 Y100.880 E5.07568
G1 X103.470 Y101.323 E5.11367
G1 X103.053 Y101.735 E5.15327
G1 X102.629 Y102.066 E5.18961
G1 X102.113 Y102.372 E5.23016
G1 X101.666 Y102.573 E5.26328
G1 X101.150 Y102.737 E5.29985
G1 X100.600 Y102.843 E5.33776
G1 X100.036 Y102.882 E5.37590
G1 X99.476 Y102.853 E5.41382
G1 X98.934 Y102.758 E5.45099
G1 X98.327 Y102.570 E5.49397
G1 X97.840 Y102.349 E5.53004
G1 X97.359 Y102.057 E5.56810
G1 X96.950 Y101.737 E5.60318
G1 X96.531 Y101.323 E5.64303
G1 X96.184 Y100.880 E5.68105
G1 X95.906 Y100.420 E5.71735
G1 X95.665 Y99.892 E5.75657
G1 X95.498 Y99.356 E5.79456
G1 X95.401 Y98.827 E5.83086
G1 X95.363 Y98.246 E5.87023
G1 X95.401 Y97.664 E5.90960
G1 X95.498 Y97.136 E5.94590
G1 X95.664 Y96.601 E5.98374
G1 X95.894 Y96.091 E6.02158
G1 X96.184 Y95.612 E6.05942
G1 X96.530 Y95.169 E6.09741
G1 X96.943 Y94.761 E6.13663
G1 X97.366 Y94.430 E6.17293
G1 X97.845 Y94.140 E6.21077
G1 X98.356 Y93.910 E6.24861
G1 X98.890 Y93.743 E6.28645
G1 X99.441 Y93.642 E6.32429
G1 X99.977 Y93.610 E6.36059 F900.000
G1 X100.557 Y93.642 E6.39981
G1 X101.110 Y93.743 E6.43780
G1 X101.644 Y93.910 E6.47564
G1 X102.155 Y94.140 E6.51348
G1 X102.634 Y94.430 E6.55132
G1 X103.075 Y94.775 E6.58916
G1 X103.471 Y95.171 E6.62700
G1 X103.816 Y95.612 E6.66484
G1 X104.106 Y96.091 E6.70268
G1 X104.336 Y96.601 E6.74052
G1 X104.502 Y97.136 E6.77836
G1 X104.603 Y97.687 E6.81620
G1 X104.637 Y98.246 E6.85404
G1 X104.603 Y98.805 E6.89188
G1 X104.502 Y99.356 E6.92972
G1 X104.363 Y99.804 E6.96148
G1 X103.834 Y99.700 F4800.000
G1 X103.631 Y100.151 E6.99494 F900.000
G1 X103.375 Y100.575 E7.02840
G1 X103.069 Y100.966 E7.06192
G1 X102.699 Y101.332 E7.09712
G1 X102.327 Y101.622 E7.12901
G1 X101.866 Y101.896 E7.16521
G1 X101.474 Y102.072 E7.19422
G1 X101.018 Y102.217 E7.22658
G1 X100.530 Y102.311 E7.26016
G1 X100.032 Y102.346 E7.29390
G1 X99.537 Y102.320 E7.32742
G1 X99.060 Y102.236 E7.36010
G1 X98.517 Y102.068 E7.39852
G1 X98.091 Y101.875 E7.43014
G1 X97.664 Y101.616 E7.46388
G1 X97.305 Y101.335 E7.49472
G1 X96.931 Y100.966 E7.53019
G1 X96.625 Y100.575 E7.56371
G1 X96.380 Y100.170 E7.59572
G1 X96.166 Y99.701 E7.63057
G1 X96.019 Y99.227 E7.66409
G1 X95.933 Y98.761 E7.69610
G1 X95.899 Y98.246 E7.73100
G1 X95.933 Y97.730 E7.76590
G1 X96.019 Y97.264 E7.79791
G1 X96.166 Y96.792 E7.83137
G1 X96.369 Y96.340 E7.86483
G1 X96.625 Y95.916 E7.89830
G1 X96.931 Y95.526 E7.93181
G1 X97.298 Y95.163 E7.96666
G1 X97.671 Y94.871 E7.99867
G1 X98.094 Y94.615 E8.03213
G1 X98.546 Y94.412 E8.06559
G1 X99.019 Y94.264 E8.09905
G1 X99.506 Y94.175 E8.13252
G1 X99.979 Y94.147 E8.16453 F900.000
G1 X100.493 Y94.175 E8.19938
G1 X100.981 Y94.264 E8.23289
G1 X101.454 Y94.412 E8.26635
G1 X101.906 Y94.615 E8.29981
G1 X102.329 Y94.871 E8.33327
G1 X102.719 Y95.176 E8.36674
G1 X103.069 Y95.527 E8.40020
G1 X103.375 Y95.916 E8.43366
G1 X103.631 Y96.340 E8.46712
G1 X103.834 Y96.792 E8.50058
G1 X103.981 Y97.264 E8.53404
G1 X104.071 Y97.752 E8.56750
G1 X104.101 Y98.246 E8.60096
G1 X104.071 Y98.740 E8.63443
G1 X103.981 Y99.227 E8.66789
G1 X103.861 Y99.614 E8.69527
G1 X104.139 Y100.090 F4800.000
G1 E4.69527 F2400.00000
G92 E0
G1 X102.812 Y93.576 F4800.000
G1 E5.00000 F2400.00000
G1 X103.250 Y93.725 E5.03124 F2700.000
G1 X103.862 Y93.984 E5.07614
G1 X104.453 Y94.287 E5.12104
G1 X105.021 Y94.633 E5.16594
G1 X105.582 Y95.033 E5.21253
G1 X120.687 Y106.657 E6.50047
G1 X120.612 Y106.875 E6.51602
G1 X79.388 Y106.875 E9.30182
G1 X79.313 Y106.657 E9.31737
G1 X94.418 Y95.033 E10.60531
