; generated by Slic3r 1.2.9 on 2017-04-04 at 10:35:46

; external perimeters extrusion width = 0.60mm
; perimeters extrusion width = 0.60mm
; infill extrusion width = 0.60mm
; solid infill extrusion width = 0.60mm
; top infill extrusion width = 0.60mm
; support material extrusion width = 0.60mm

M107
M190 S55 ; set bed temperature
M104 S200 ; set temperature
G28 ; home all axes
G1 Z5 F5000 ; lift nozzle

M109 S200 ; wait for temperature to be reached
G21 ; set units to millimeters
G90 ; use absolute coordinates
M82 ; use absolute distances for extrusion
G92 E0
G1 E-4.00000 F2400.00000
G92 E0
G1 Z0.300 F4800.000
G1 X75.832 Y98.542 F4800.000
G1 E5.00000 F2400.00000
G1 X89.221 Y88.239 E5.63010 F4200.000
G1 X90.054 Y87.639 E5.66837
G1 X91.144 Y86.954 E5.71639
G1 X92.281 Y86.350 E5.76441
G1 X93.459 Y85.830 E5.81243
G1 X94.671 Y85.397 E5.86045
G1 X95.912 Y85.054 E5.90847
G1 X97.176 Y84.802 E5.95652
G1 X98.453 Y84.642 E6.00453
G1 X99.738 Y84.576 E6.05253
G1 X100.273 Y84.577 E6.07246
G1 X101.548 Y84.642 E6.12007 F4200.000
G1 X102.825 Y84.802 E6.16809
G1 X104.088 Y85.054 E6.21611
G1 X105.329 Y85.397 E6.26413
G1 X106.541 Y85.830 E6.31215
G1 X107.719 Y86.350 E6.36017
G1 X108.400 Y86.699 E6.38869
G1 X109.509 Y87.351 E6.43671
G1 X109.946 Y87.639 E6.45622
G1 X110.779 Y88.239 E6.49449
G1 X129.380 Y102.554 E7.36990
G1 X131.005 Y104.305 E7.45899
G1 X131.965 Y106.492 E7.54808
G1 X132.155 Y108.873 E7.63717
G1 X131.554 Y111.185 E7.72626
G1 X130.227 Y113.172 E7.81535
G1 X128.323 Y114.614 E7.90444
G1 X125.000 Y115.428 E8.03204
G1 X75.000 Y115.428 E9.89685
G1 X72.645 Y115.031 E9.98594
G1 X70.550 Y113.883 E10.07503
G1 X68.947 Y112.112 E10.16412
G1 X68.014 Y109.913 E10.25321
G1 X67.853 Y107.530 E10.34230
G1 X68.483 Y105.226 E10.43140
G1 X70.620 Y102.554 E10.55899
G1 X75.761 Y98.597 E10.80095
G1 X76.013 Y98.777 F4800.000
G1 X89.401 Y88.473 E11.43105 F4200.000
G1 X90.226 Y87.880 E11.46891
G1 X91.297 Y87.206 E11.51613
G1 X92.416 Y86.613 E11.56335
G1 X93.574 Y86.102 E11.61057
G1 X94.766 Y85.677 E11.65778
G1 X95.987 Y85.340 E11.70500
G1 X97.229 Y85.092 E11.75224
G1 X98.485 Y84.936 E11.79946
G1 X99.749 Y84.872 E11.84665
G1 X100.262 Y84.872 E11.86578
G1 X101.515 Y84.936 E11.91258 F4200.000
G1 X102.772 Y85.093 E11.95980
G1 X104.013 Y85.340 E12.00702
G1 X105.233 Y85.677 E12.05424
G1 X106.426 Y86.102 E12.10145
G1 X107.584 Y86.613 E12.14867
G1 X108.265 Y86.962 E12.17719
G1 X109.356 Y87.604 E12.22441
G1 X109.775 Y87.880 E12.24311
G1 X110.599 Y88.473 E12.28098
G1 X129.200 Y102.788 E13.15639
G1 X130.784 Y104.508 E13.24362
G1 X131.702 Y106.660 E13.33084
G1 X131.846 Y108.994 E13.41807
G1 X131.201 Y111.242 E13.50529
G1 X129.841 Y113.144 E13.59252
G1 X127.923 Y114.482 E13.67974
G1 X125.000 Y115.133 E13.79141
G1 X75.000 Y115.133 E15.65622
G1 X72.695 Y114.736 E15.74345
G1 X70.656 Y113.590 E15.83067
G1 X69.118 Y111.828 E15.91790
G1 X68.259 Y109.653 E16.00512
G1 X68.176 Y107.316 E16.09235
G1 X68.881 Y105.086 E16.17957
G1 X70.800 Y102.788 E16.29124
G1 X75.941 Y98.831 E16.53320
G1 X76.193 Y99.011 F4800.000
G1 X89.582 Y88.708 E17.16330 F4200.000
G1 X90.397 Y88.121 E17.20076
G1 X91.451 Y87.459 E17.24718
G1 X92.550 Y86.876 E17.29359
G1 X93.689 Y86.374 E17.34001
G1 X94.862 Y85.957 E17.38642
G1 X96.061 Y85.626 E17.43284
G1 X97.283 Y85.383 E17.47928
G1 X98.518 Y85.230 E17.52568
G1 X99.760 Y85.167 E17.57208
G1 X100.251 Y85.168 E17.59040
G1 X101.483 Y85.230 E17.63640 F4200.000
G1 X102.718 Y85.383 E17.68282
G1 X103.939 Y85.626 E17.72923
G1 X105.138 Y85.957 E17.77565
G1 X106.311 Y86.374 E17.82206
G1 X107.450 Y86.876 E17.86847
G1 X108.130 Y87.225 E17.89700
G1 X109.202 Y87.856 E17.94341
G1 X109.603 Y88.121 E17.96131
G1 X110.418 Y88.708 E17.99878
G1 X129.020 Y103.022 E18.87419
G1 X130.563 Y104.711 E18.95951
G1 X131.436 Y106.825 E19.04482
G1 X131.534 Y109.111 E19.13014
G1 X130.845 Y111.292 E19.21546
G1 X129.452 Y113.106 E19.30078
G1 X127.523 Y114.335 E19.38610
G1 X125.000 Y114.837 E19.48202
G1 X75.000 Y114.837 E21.34684
G1 X72.747 Y114.440 E21.43216
G1 X70.766 Y113.297 E21.51747
G1 X69.294 Y111.545 E21.60279
G1 X68.510 Y109.397 E21.68811
G1 X68.508 Y107.109 E21.77343
G1 X69.287 Y104.958 E21.85875
G1 X70.980 Y103.022 E21.95467
G1 X76.122 Y99.066 E22.19663
G1 X76.373 Y99.245 F4800.000
G1 X89.762 Y88.942 E22.82673 F4200.000
G1 X90.569 Y88.361 E22.86379
G1 X91.605 Y87.712 E22.90940
G1 X92.685 Y87.139 E22.95501
G1 X93.805 Y86.646 E23.00063
G1 X94.957 Y86.237 E23.04623
G1 X96.136 Y85.912 E23.09185
G1 X97.336 Y85.674 E23.13748
G1 X98.550 Y85.524 E23.18309
G1 X99.771 Y85.463 E23.22868
G1 X100.240 Y85.463 E23.24620
G1 X101.451 Y85.524 E23.29140 F4200.000
G1 X102.664 Y85.674 E23.33701
G1 X103.864 Y85.912 E23.38262
G1 X105.043 Y86.237 E23.42823
G1 X106.195 Y86.646 E23.47384
G1 X107.315 Y87.139 E23.51945
G1 X107.995 Y87.488 E23.54798
G1 X109.049 Y88.109 E23.59358
G1 X109.431 Y88.361 E23.61068
G1 X110.238 Y88.942 E23.64775
G1 X128.839 Y103.256 E24.52316
G1 X130.341 Y104.913 E24.60653
G1 X131.169 Y106.989 E24.68990
G1 X131.219 Y109.224 E24.77326
G1 X130.486 Y111.335 E24.85663
G1 X129.060 Y113.057 E24.94000
G1 X127.123 Y114.173 E25.02337
G1 X125.000 Y114.541 E25.10375
G1 X75.000 Y114.541 E26.96856
G1 X72.800 Y114.145 E27.05193
G1 X70.878 Y113.004 E27.13530
G1 X69.475 Y111.264 E27.21867
G1 X68.769 Y109.143 E27.30203
G1 X68.848 Y106.909 E27.38540
G1 X69.703 Y104.844 E27.46877
G1 X71.161 Y103.256 E27.54915
G1 X76.302 Y99.300 E27.79111
G1 E23.79111 F2400.00000
G92 E0
G1 X102.037 Y102.115 F4800.000
G1 E5.00000 F2400.00000
G1 X101.546 Y102.336 E5.02007 F4200.000
G1 X101.040 Y102.493 E5.03984
G1 X100.545 Y102.584 E5.05861
G1 X99.992 Y102.618 E5.07926
G1 X99.466 Y102.586 E5.09890
G1 X98.972 Y102.495 E5.11766
G1 X98.440 Y102.331 E5.13841
G1 X97.965 Y102.116 E5.15784
G1 X97.519 Y101.847 E5.17729
G1 X97.105 Y101.522 E5.19692
G1 X96.739 Y101.157 E5.21618
G1 X96.402 Y100.731 E5.23643
G1 X96.128 Y100.278 E5.25620
G1 X95.911 Y99.796 E5.27592
G1 X95.753 Y99.285 E5.29585
G1 X95.659 Y98.773 E5.31528
G1 X95.627 Y98.246 E5.33497
G1 X95.659 Y97.719 E5.35466
G1 X95.754 Y97.199 E5.37436
G1 X95.912 Y96.695 E5.39405
G1 X96.128 Y96.214 E5.41374
G1 X96.398 Y95.768 E5.43317
G1 X96.727 Y95.347 E5.45310
G1 X97.100 Y94.973 E5.47282
G1 X97.510 Y94.652 E5.49225
G1 X97.967 Y94.374 E5.51218
G1 X98.449 Y94.157 E5.53190
G1 X98.954 Y94.000 E5.55159
G1 X99.473 Y93.905 E5.57129
G1 X99.993 Y93.874 E5.59071 F4200.000
G1 X100.526 Y93.905 E5.61065
G1 X101.046 Y94.000 E5.63037
G1 X101.551 Y94.157 E5.65006
G1 X102.032 Y94.374 E5.66975
G1 X102.478 Y94.643 E5.68918
G1 X102.899 Y94.972 E5.70911
G1 X103.273 Y95.346 E5.72883
G1 X103.599 Y95.762 E5.74853
G1 X103.872 Y96.214 E5.76822
G1 X104.088 Y96.695 E5.78791
G1 X104.246 Y97.199 E5.80761
G1 X104.341 Y97.719 E5.82730
G1 X104.373 Y98.246 E5.84699
G1 X104.341 Y98.773 E5.86669
G1 X104.246 Y99.292 E5.88638
G1 X104.088 Y99.796 E5.90607
G1 X103.872 Y100.278 E5.92577
G1 X103.598 Y100.731 E5.94553
G1 X103.260 Y101.158 E5.96584
G1 X102.895 Y101.523 E5.98506
G1 X102.482 Y101.846 E6.00464
G1 X102.114 Y102.068 E6.02067
G1 X101.899 Y101.853 F4800.000
G1 X101.441 Y102.059 E6.03940 F4200.000
G1 X100.969 Y102.205 E6.05783
G1 X100.509 Y102.290 E6.07529
G1 X99.992 Y102.322 E6.09460
G1 X99.502 Y102.292 E6.11289
G1 X99.042 Y102.207 E6.13034
G1 X98.545 Y102.054 E6.14975
G1 X98.103 Y101.854 E6.16783
G1 X97.687 Y101.603 E6.18596
G1 X97.301 Y101.301 E6.20426
G1 X96.961 Y100.960 E6.22220
G1 X96.646 Y100.563 E6.24112
G1 X96.390 Y100.140 E6.25953
G1 X96.188 Y99.691 E6.27790
G1 X96.041 Y99.215 E6.29650
G1 X95.953 Y98.737 E6.31460
G1 X95.924 Y98.246 E6.33296
G1 X95.953 Y97.754 E6.35132
G1 X96.042 Y97.270 E6.36968
G1 X96.188 Y96.800 E6.38804
G1 X96.390 Y96.351 E6.40640
G1 X96.642 Y95.936 E6.42450
G1 X96.948 Y95.543 E6.44310
G1 X97.297 Y95.195 E6.46148
G1 X97.679 Y94.895 E6.47958
G1 X98.105 Y94.636 E6.49818
G1 X98.554 Y94.434 E6.51656
G1 X99.024 Y94.288 E6.53492
G1 X99.509 Y94.199 E6.55328
G1 X99.993 Y94.170 E6.57138 F4200.000
G1 X100.491 Y94.199 E6.58998
G1 X100.976 Y94.288 E6.60835
G1 X101.446 Y94.434 E6.62671
G1 X101.894 Y94.636 E6.64507
G1 X102.310 Y94.887 E6.66317
G1 X102.703 Y95.194 E6.68177
G1 X103.051 Y95.543 E6.70015
G1 X103.355 Y95.930 E6.71851
G1 X103.610 Y96.351 E6.73687
G1 X103.812 Y96.800 E6.75523
G1 X103.958 Y97.270 E6.77359
G1 X104.047 Y97.754 E6.79195
G1 X104.076 Y98.246 E6.81031
G1 X104.047 Y98.737 E6.82867
G1 X103.958 Y99.221 E6.84703
G1 X103.812 Y99.691 E6.86539
G1 X103.610 Y100.140 E6.88375
G1 X103.354 Y100.563 E6.90215
G1 X103.039 Y100.961 E6.92112
G1 X102.699 Y101.301 E6.93904
G1 X102.313 Y101.602 E6.95728
G1 X101.976 Y101.806 E6.97199
G1 X101.761 Y101.591 F4800.000
G1 X101.336 Y101.782 E6.98937 F4200.000
G1 X100.899 Y101.918 E7.00647
G1 X100.473 Y101.996 E7.02262
G1 X99.992 Y102.026 E7.04058
G1 X99.538 Y101.998 E7.05753
G1 X99.113 Y101.920 E7.07366
G1 X98.650 Y101.777 E7.09173
G1 X98.241 Y101.592 E7.10847
G1 X97.855 Y101.359 E7.12527
G1 X97.497 Y101.079 E7.14223
G1 X97.182 Y100.763 E7.15887
G1 X96.889 Y100.394 E7.17646
G1 X96.653 Y100.003 E7.19350
G1 X96.465 Y99.586 E7.21053
G1 X96.328 Y99.144 E7.22780
G1 X96.247 Y98.701 E7.24457
G1 X96.220 Y98.246 E7.26160
G1 X96.247 Y97.790 E7.27863
G1 X96.330 Y97.341 E7.29565
G1 X96.465 Y96.905 E7.31268
G1 X96.653 Y96.489 E7.32970
G1 X96.885 Y96.104 E7.34648
G1 X97.170 Y95.739 E7.36375
G1 X97.493 Y95.416 E7.38078
G1 X97.847 Y95.139 E7.39756
G1 X98.243 Y94.899 E7.41482
G1 X98.659 Y94.711 E7.43185
G1 X99.095 Y94.575 E7.44888
G1 X99.544 Y94.493 E7.46591
G1 X99.993 Y94.466 E7.48268 F4200.000
G1 X100.456 Y94.493 E7.49995
G1 X100.905 Y94.575 E7.51698
G1 X101.341 Y94.711 E7.53401
G1 X101.757 Y94.898 E7.55103
G1 X102.142 Y95.131 E7.56781
G1 X102.507 Y95.416 E7.58508
G1 X102.830 Y95.739 E7.60211
G1 X103.111 Y96.098 E7.61914
G1 X103.347 Y96.489 E7.63616
G1 X103.535 Y96.905 E7.65319
G1 X103.670 Y97.341 E7.67021
G1 X103.753 Y97.790 E7.68724
G1 X103.780 Y98.246 E7.70426
G1 X103.753 Y98.701 E7.72129
G1 X103.670 Y99.150 E7.73832
G1 X103.535 Y99.586 E7.75534
G1 X103.347 Y100.003 E7.77237
G1 X103.111 Y100.394 E7.78941
G1 X102.817 Y100.764 E7.80705
G1 X102.503 Y101.079 E7.82365
G1 X102.145 Y101.358 E7.84056
G1 X101.838 Y101.544 E7.85394
G1 X101.733 Y102.056 F4800.000
G1 E3.85394 F2400.00000
G92 E0
G1 X122.536 Y107.475 F4800.000
G1 E5.00000 F2400.00000
G1 X77.464 Y107.475 E6.68102 F4200.000
G1 X77.423 Y107.354 E6.68576
G1 X94.061 Y94.551 E7.46875
G1 X94.649 Y94.132 E7.49569
G1 X95.254 Y93.764 E7.52210
G1 X95.884 Y93.440 E7.54851
G1 X96.536 Y93.164 E7.57493
G1 X97.207 Y92.936 E7.60134
G1 X97.892 Y92.757 E7.62775
G1 X98.588 Y92.629 E7.65417
G1 X99.292 Y92.552 E7.68056
G1 X100.011 Y92.526 E7.70740
G1 X100.708 Y92.552 E7.73340
G1 X101.412 Y92.629 E7.75982
G1 X102.108 Y92.757 E7.78623
G1 X102.793 Y92.936 E7.81264
G1 X103.464 Y93.164 E7.83906
G1 X104.116 Y93.440 E7.86547
G1 X104.746 Y93.764 E7.89188
G1 X105.351 Y94.132 E7.91830
G1 X105.939 Y94.551 E7.94523
G1 X122.577 Y107.354 E8.72822
G1 X122.565 Y107.389 E8.72960
G1 X123.405 Y107.770 F4800.000
G1 X76.595 Y107.770 E10.47544 F4200.000
G1 X76.554 Y107.650 E10.48018
G1 X93.885 Y94.313 E11.29577
G1 X94.486 Y93.885 E11.32331
G1 X95.109 Y93.505 E11.35053
G1 X95.759 Y93.172 E11.37775
G1 X96.431 Y92.888 E11.40496
G1 X97.122 Y92.653 E11.43218
G1 X97.828 Y92.469 E11.45940
G1 X98.545 Y92.336 E11.48662
G1 X99.270 Y92.257 E11.51382
G1 X100.011 Y92.231 E11.54147
G1 X100.729 Y92.257 E11.56827
G1 X101.455 Y92.336 E11.59548
G1 X102.172 Y92.469 E11.62270
G1 X102.878 Y92.653 E11.64992
G1 X103.569 Y92.888 E11.67713
G1 X104.241 Y93.172 E11.70435
G1 X104.891 Y93.505 E11.73157
G1 X105.514 Y93.885 E11.75878
G1 X106.115 Y94.313 E11.78632
G1 X123.446 Y107.650 E12.60192
G1 X123.434 Y107.685 E12.60330
G1 X124.274 Y108.066 F4800.000
G1 X75.726 Y108.066 E14.41395 F4200.000
G1 X75.685 Y107.946 E14.41869
G1 X93.709 Y94.076 E15.26689
G1 X94.323 Y93.638 E15.29503
G1 X94.965 Y93.247 E15.32305
G1 X95.634 Y92.904 E15.35107
G1 X96.325 Y92.611 E15.37910
G1 X97.037 Y92.369 E15.40712
G1 X97.764 Y92.180 E15.43514
G1 X98.502 Y92.044 E15.46316
G1 X99.249 Y91.962 E15.49118
G1 X100.011 Y91.935 E15.51962
G1 X100.751 Y91.962 E15.54722
G1 X101.498 Y92.044 E15.57524
G1 X102.236 Y92.180 E15.60326
G1 X102.963 Y92.369 E15.63128
G1 X103.675 Y92.611 E15.65930
G1 X104.366 Y92.904 E15.68732
G1 X105.035 Y93.247 E15.71534
G1 X105.677 Y93.638 E15.74336
G1 X106.291 Y94.076 E15.77151
G1 X124.315 Y107.946 E16.61971
G1 X124.303 Y107.981 E16.62109
G1 X123.790 Y107.711 F4800.000
G1 E12.62109 F2400.00000
G92 E0
G1 Z0.300 F4800.000
M104 S195 ; set temperature
G1 Z0.600 F4800.000
G1 X104.149 Y99.819 F4800.000
G1 E5.00000 F2400.00000
G1 X103.929 Y100.308 E5.03621 F900.000
G1 X103.649 Y100.771 E5.07281
G1 X103.281 Y101.227 E5.11237
G1 X102.929 Y101.579 E5.14603
G1 X102.513 Y101.902 E5.18158
G1 X102.076 Y102.167 E5.21614
G1 X101.560 Y102.400 E5.25442
G1 X101.042 Y102.558 E5.29101
G1 X100.588 Y102.642 E5.32222
G1 X99.976 Y102.683 E5.36364
G1 X99.446 Y102.648 E5.39956
G1 X98.993 Y102.565 E5.43068
G1 X98.399 Y102.383 E5.47265
G1 X97.931 Y102.171 E5.50740
G1 X97.489 Y101.904 E5.54225
G1 X97.071 Y101.578 E5.57809
G1 X96.719 Y101.227 E5.61168
G1 X96.351 Y100.771 E5.65123
G1 X96.071 Y100.308 E5.68784
G1 X95.850 Y99.817 E5.72419
G1 X95.688 Y99.286 E5.76171
G1 X95.595 Y98.781 E5.79645
G1 X95.563 Y98.246 E5.83266
G1 X95.595 Y97.711 E5.86887
G1 X95.692 Y97.184 E5.90508
G1 X95.851 Y96.672 E5.94128
G1 X96.071 Y96.184 E5.97749
G1 X96.348 Y95.725 E6.01370
G1 X96.679 Y95.303 E6.04991
G1 X97.058 Y94.925 E6.08612
G1 X97.479 Y94.594 E6.12232
G1 X97.938 Y94.317 E6.15853
G1 X98.427 Y94.097 E6.19474
G1 X98.938 Y93.938 E6.23095
G1 X99.510 Y93.833 E6.27025
G1 X99.984 Y93.810 E6.30229 F900.000
G1 X100.533 Y93.841 E6.33944
G1 X101.062 Y93.938 E6.37579
G1 X101.573 Y94.097 E6.41200
G1 X102.062 Y94.317 E6.44821
G1 X102.502 Y94.583 E6.48295
G1 X102.941 Y94.923 E6.52047
G1 X103.321 Y95.303 E6.55683
G1 X103.652 Y95.725 E6.59303
G1 X103.929 Y96.184 E6.62924
G1 X104.149 Y96.672 E6.66545
G1 X104.308 Y97.184 E6.70166
G1 X104.413 Y97.756 E6.74094
G1 X104.437 Y98.251 E6.77445
G1 X104.405 Y98.781 E6.81030
G1 X104.308 Y99.308 E6.84651
G1 X104.176 Y99.733 E6.87664
G1 X103.647 Y99.629 F4800.000
G1 X103.454 Y100.058 E6.90847 F900.000
G1 X103.209 Y100.463 E6.94044
G1 X102.882 Y100.868 E6.97560
G1 X102.574 Y101.176 E7.00507
G1 X102.209 Y101.460 E7.03629
G1 X101.826 Y101.692 E7.06653
G1 X101.370 Y101.898 E7.10033
G1 X100.915 Y102.037 E7.13253
G1 X100.521 Y102.109 E7.15957
G1 X99.976 Y102.146 E7.19651
G1 X99.512 Y102.115 E7.22793
G1 X99.120 Y102.044 E7.25487
G1 X98.589 Y101.881 E7.29240
G1 X98.181 Y101.696 E7.32268
G1 X97.793 Y101.462 E7.35327
G1 X97.426 Y101.176 E7.38475
G1 X97.118 Y100.868 E7.41415
G1 X96.791 Y100.463 E7.44931
G1 X96.546 Y100.058 E7.48128
G1 X96.353 Y99.628 E7.51316
G1 X96.209 Y99.159 E7.54630
G1 X96.128 Y98.716 E7.57676
G1 X96.099 Y98.246 E7.60859
G1 X96.128 Y97.776 E7.64042
G1 X96.213 Y97.312 E7.67224
G1 X96.353 Y96.863 E7.70407
G1 X96.546 Y96.433 E7.73590
G1 X96.790 Y96.030 E7.76773
G1 X97.080 Y95.659 E7.79956
G1 X97.413 Y95.326 E7.83139
G1 X97.784 Y95.036 E7.86322
G1 X98.187 Y94.792 E7.89505
G1 X98.617 Y94.599 E7.92688
G1 X99.067 Y94.459 E7.95871
G1 X99.571 Y94.366 E7.99339
G1 X99.982 Y94.347 E8.02115 F900.000
G1 X100.469 Y94.374 E8.05416
G1 X100.933 Y94.459 E8.08604
G1 X101.383 Y94.599 E8.11787
G1 X101.813 Y94.792 E8.14970
G1 X102.198 Y95.025 E8.18015
G1 X102.586 Y95.326 E8.21329
G1 X102.920 Y95.659 E8.24518
G1 X103.210 Y96.030 E8.27701
G1 X103.454 Y96.433 E8.30883
G1 X103.647 Y96.863 E8.34066
G1 X103.787 Y97.312 E8.37249
G1 X103.880 Y97.817 E8.40717
G1 X103.900 Y98.248 E8.43630
G1 X103.872 Y98.716 E8.46800
G1 X103.787 Y99.179 E8.49983
G1 X103.674 Y99.543 E8.52558
G1 X103.938 Y100.000 F4800.000
G1 E4.52558 F2400.00000
G92 E0
G1 X101.844 Y93.308 F4800.000
G1 E5.00000 F2400.00000
G1 X102.621 Y93.511 E5.05426 F2700.000
G1 X103.250 Y93.725 E5.09916
G1 X103.862 Y93.984 E5.14406
G1 X104.453 Y94.287 E5.18896
G1 X105.021 Y94.633 E5.23386
G1 X105.582 Y95.033 E5.28045
G1 X120.687 Y106.657 E6.56840
G1 X120.612 Y106.875 E6.58395
G1 X79.388 Y106.875 E9.36974
G1 X79.313 Y106.657 E9.38529
G1 X94.418 Y95.033 E10.67323
