; generated by Slic3r 1.2.9 on 2017-04-04 at 11:15:01

; external perimeters extrusion width = 0.60mm
; perimeters extrusion width = 0.60mm
; infill extrusion width = 0.60mm
; solid infill extrusion width = 0.60mm
; top infill extrusion width = 0.60mm
; support material extrusion width = 0.60mm

M107
M190 S55 ; set bed temperature
M104 S200 ; set temperature
G28 ; home all axes
G1 Z5 F5000 ; lift nozzle

M109 S200 ; wait for temperature to be reached
G21 ; set units to millimeters
G90 ; use absolute coordinates
M82 ; use absolute distances for extrusion
G92 E0
G1 E-4.00000 F2400.00000
G92 E0
G1 Z0.300 F4800.000
G1 X75.832 Y98.542 F4800.000
G1 E5.00000 F2400.00000
G1 X89.221 Y88.239 E5.63010 F4200.000
G1 X90.161 Y87.568 E5.67318
G1 X90.655 Y87.249 E5.69509
G1 X91.396 Y86.812 E5.72717
G1 X91.915 Y86.534 E5.74913
G1 X92.688 Y86.159 E5.78120
G1 X93.231 Y85.923 E5.80325
G1 X94.030 Y85.614 E5.83523
G1 X94.587 Y85.425 E5.85714
G1 X95.413 Y85.181 E5.88926
G1 X95.984 Y85.038 E5.91122
G1 X96.827 Y84.862 E5.94336
G1 X97.405 Y84.767 E5.96521
G1 X98.260 Y84.661 E5.99732
G1 X98.845 Y84.613 E6.01922
G1 X99.706 Y84.578 E6.05135
G1 X100.297 Y84.578 E6.07339
G1 X101.154 Y84.613 E6.10537 F4200.000
G1 X101.739 Y84.661 E6.12729
G1 X102.594 Y84.767 E6.15940
G1 X103.175 Y84.863 E6.18136
G1 X104.016 Y85.038 E6.21343
G1 X104.587 Y85.181 E6.23539
G1 X105.409 Y85.424 E6.26734
G1 X105.968 Y85.614 E6.28936
G1 X106.772 Y85.924 E6.32149
G1 X107.311 Y86.159 E6.34343
G1 X108.085 Y86.534 E6.37552
G1 X108.604 Y86.812 E6.39747
G1 X109.345 Y87.249 E6.42956
G1 X109.839 Y87.568 E6.45150
G1 X110.779 Y88.239 E6.49455
G1 X129.380 Y102.554 E7.36996
G1 X131.005 Y104.305 E7.45906
G1 X131.965 Y106.492 E7.54815
G1 X132.155 Y108.873 E7.63724
G1 X131.554 Y111.185 E7.72633
G1 X130.227 Y113.172 E7.81542
G1 X128.323 Y114.614 E7.90451
G1 X125.000 Y115.428 E8.03210
G1 X75.000 Y115.428 E9.89692
G1 X72.645 Y115.031 E9.98601
G1 X70.550 Y113.883 E10.07510
G1 X68.947 Y112.112 E10.16419
G1 X68.014 Y109.913 E10.25328
G1 X67.853 Y107.530 E10.34237
G1 X68.483 Y105.226 E10.43146
G1 X70.620 Y102.554 E10.55905
G1 X75.761 Y98.597 E10.80101
G1 X76.013 Y98.777 F4800.000
G1 X89.401 Y88.473 E11.43111 F4200.000
G1 X90.332 Y87.809 E11.47374
G1 X90.805 Y87.503 E11.49475
G1 X91.546 Y87.066 E11.52683
G1 X92.043 Y86.800 E11.54789
G1 X92.817 Y86.425 E11.57996
G1 X93.337 Y86.199 E11.60111
G1 X94.137 Y85.890 E11.63308
G1 X94.670 Y85.708 E11.65409
G1 X95.496 Y85.465 E11.68621
G1 X96.044 Y85.327 E11.70726
G1 X96.887 Y85.152 E11.73940
G1 X97.442 Y85.060 E11.76035
G1 X98.296 Y84.955 E11.79246
G1 X98.857 Y84.908 E11.81346
G1 X99.718 Y84.873 E11.84558
G1 X100.285 Y84.873 E11.86673
G1 X101.141 Y84.908 E11.89871 F4200.000
G1 X101.703 Y84.954 E11.91972
G1 X102.557 Y85.060 E11.95183
G1 X103.114 Y85.152 E11.97289
G1 X103.956 Y85.327 E12.00496
G1 X104.504 Y85.465 E12.02601
G1 X105.324 Y85.707 E12.05792
G1 X105.861 Y85.889 E12.07908
G1 X106.665 Y86.200 E12.11121
G1 X107.182 Y86.425 E12.13224
G1 X107.957 Y86.800 E12.16433
G1 X108.454 Y87.066 E12.18538
G1 X109.195 Y87.503 E12.21747
G1 X109.669 Y87.810 E12.23851
G1 X110.599 Y88.473 E12.28111
G1 X129.200 Y102.788 E13.15652
G1 X130.784 Y104.508 E13.24375
G1 X131.702 Y106.660 E13.33097
G1 X131.846 Y108.994 E13.41819
G1 X131.201 Y111.242 E13.50542
G1 X129.841 Y113.144 E13.59264
G1 X127.923 Y114.482 E13.67987
G1 X125.000 Y115.133 E13.79154
G1 X75.000 Y115.133 E15.65635
G1 X72.695 Y114.736 E15.74358
G1 X70.656 Y113.590 E15.83080
G1 X69.118 Y111.828 E15.91803
G1 X68.259 Y109.653 E16.00525
G1 X68.176 Y107.316 E16.09248
G1 X68.881 Y105.086 E16.17970
G1 X70.800 Y102.788 E16.29137
G1 X75.941 Y98.831 E16.53333
G1 X76.193 Y99.011 F4800.000
G1 X89.582 Y88.708 E17.16343 F4200.000
G1 X90.502 Y88.051 E17.20560
G1 X90.955 Y87.758 E17.22571
G1 X91.696 Y87.321 E17.25779
G1 X92.172 Y87.066 E17.27794
G1 X92.946 Y86.691 E17.31002
G1 X93.444 Y86.475 E17.33026
G1 X94.244 Y86.166 E17.36224
G1 X94.754 Y85.992 E17.38235
G1 X95.580 Y85.748 E17.41446
G1 X96.104 Y85.617 E17.43461
G1 X96.948 Y85.441 E17.46675
G1 X97.478 Y85.354 E17.48679
G1 X98.332 Y85.248 E17.51890
G1 X98.869 Y85.204 E17.53900
G1 X99.730 Y85.168 E17.57112
G1 X100.273 Y85.169 E17.59136
G1 X101.129 Y85.204 E17.62334 F4200.000
G1 X101.667 Y85.248 E17.64345
G1 X102.521 Y85.353 E17.67556
G1 X103.054 Y85.442 E17.69571
G1 X103.896 Y85.617 E17.72778
G1 X104.420 Y85.748 E17.74793
G1 X105.241 Y85.990 E17.77984
G1 X105.755 Y86.165 E17.80010
G1 X106.558 Y86.476 E17.83223
G1 X107.053 Y86.691 E17.85236
G1 X107.828 Y87.066 E17.88445
G1 X108.304 Y87.321 E17.90460
G1 X109.045 Y87.758 E17.93668
G1 X109.498 Y88.051 E17.95682
G1 X110.418 Y88.708 E17.99896
G1 X129.020 Y103.022 E18.87438
G1 X130.563 Y104.711 E18.95970
G1 X131.436 Y106.825 E19.04501
G1 X131.534 Y109.111 E19.13033
G1 X130.845 Y111.292 E19.21565
G1 X129.452 Y113.106 E19.30097
G1 X127.523 Y114.335 E19.38629
G1 X125.000 Y114.837 E19.48221
G1 X75.000 Y114.837 E21.34703
G1 X72.747 Y114.440 E21.43234
G1 X70.766 Y113.297 E21.51766
G1 X69.294 Y111.545 E21.60298
G1 X68.510 Y109.397 E21.68830
G1 X68.508 Y107.109 E21.77362
G1 X69.287 Y104.958 E21.85893
G1 X70.980 Y103.022 E21.95486
G1 X76.122 Y99.066 E22.19682
G1 X76.373 Y99.245 F4800.000
G1 X89.762 Y88.942 E22.82692 F4200.000
G1 X90.673 Y88.292 E22.86864
G1 X91.105 Y88.013 E22.88784
G1 X91.846 Y87.576 E22.91993
G1 X92.301 Y87.332 E22.93917
G1 X93.075 Y86.957 E22.97125
G1 X93.551 Y86.750 E22.99059
G1 X94.350 Y86.441 E23.02256
G1 X94.838 Y86.275 E23.04177
G1 X95.664 Y86.032 E23.07388
G1 X96.164 Y85.906 E23.09313
G1 X97.008 Y85.731 E23.12526
G1 X97.514 Y85.647 E23.14441
G1 X98.369 Y85.541 E23.17652
G1 X98.882 Y85.499 E23.19571
G1 X99.742 Y85.464 E23.22783
G1 X100.261 Y85.464 E23.24717
G1 X101.117 Y85.499 E23.27915 F4200.000
G1 X101.631 Y85.541 E23.29836
G1 X102.485 Y85.647 E23.33047
G1 X102.994 Y85.731 E23.34971
G1 X103.836 Y85.906 E23.38178
G1 X104.336 Y86.032 E23.40103
G1 X105.157 Y86.274 E23.43294
G1 X105.648 Y86.441 E23.45229
G1 X106.452 Y86.751 E23.48442
G1 X106.925 Y86.957 E23.50365
G1 X107.699 Y87.332 E23.53574
G1 X108.154 Y87.576 E23.55498
G1 X108.895 Y88.013 E23.58707
G1 X109.328 Y88.293 E23.60630
G1 X110.238 Y88.942 E23.64799
G1 X128.839 Y103.256 E24.52341
G1 X130.341 Y104.913 E24.60678
G1 X131.169 Y106.989 E24.69014
G1 X131.219 Y109.224 E24.77351
G1 X130.486 Y111.335 E24.85688
G1 X129.060 Y113.057 E24.94025
G1 X127.123 Y114.173 E25.02361
G1 X125.000 Y114.541 E25.10400
G1 X75.000 Y114.541 E26.96881
G1 X72.800 Y114.145 E27.05218
G1 X70.878 Y113.004 E27.13555
G1 X69.475 Y111.264 E27.21891
G1 X68.769 Y109.143 E27.30228
G1 X68.848 Y106.909 E27.38565
G1 X69.703 Y104.844 E27.46902
G1 X71.160 Y103.257 E27.54940
G1 X76.302 Y99.300 E27.79136
G1 E23.79136 F2400.00000
G92 E0
G1 X102.453 Y102.111 F4800.000
G1 E5.00000 F2400.00000
G1 X101.415 Y102.599 E5.04276 F4200.000
G1 X100.281 Y102.814 E5.08582
G1 X99.141 Y102.742 E5.12844
G1 X98.051 Y102.388 E5.17117
G1 X97.084 Y101.774 E5.21388
G1 X96.297 Y100.936 E5.25675
G1 X95.744 Y99.931 E5.29955
G1 X95.459 Y98.819 E5.34234
G1 X95.459 Y97.672 E5.38514
G1 X95.744 Y96.561 E5.42793
G1 X96.297 Y95.555 E5.47072
G1 X97.082 Y94.719 E5.51352
G1 X98.051 Y94.104 E5.55631
G1 X99.142 Y93.750 E5.59910
G1 X100.287 Y93.677 E5.64190 F4200.000
G1 X101.414 Y93.892 E5.68469
G1 X102.453 Y94.381 E5.72748
G1 X103.337 Y95.112 E5.77028
G1 X104.011 Y96.041 E5.81307
G1 X104.434 Y97.107 E5.85587
G1 X104.577 Y98.246 E5.89866
G1 X104.434 Y99.384 E5.94145
G1 X104.011 Y100.451 E5.98425
G1 X103.336 Y101.380 E6.02708
G1 X102.522 Y102.054 E6.06649
G1 X102.293 Y101.859 F4800.000
G1 X101.323 Y102.316 E6.10646 F4200.000
G1 X100.262 Y102.517 E6.14673
G1 X99.196 Y102.449 E6.18656
G1 X98.178 Y102.118 E6.22652
G1 X97.274 Y101.545 E6.26644
G1 X96.538 Y100.761 E6.30653
G1 X96.021 Y99.821 E6.34654
G1 X95.754 Y98.782 E6.38654
G1 X95.754 Y97.709 E6.42655
G1 X96.021 Y96.670 E6.46656
G1 X96.538 Y95.730 E6.50657
G1 X97.272 Y94.948 E6.54658
G1 X98.178 Y94.374 E6.58658
G1 X99.198 Y94.042 E6.62659
G1 X100.269 Y93.975 E6.66660 F4200.000
G1 X101.322 Y94.176 E6.70661
G1 X102.293 Y94.633 E6.74662
G1 X103.120 Y95.316 E6.78662
G1 X103.750 Y96.184 E6.82663
G1 X104.145 Y97.182 E6.86664
G1 X104.279 Y98.246 E6.90665
G1 X104.145 Y99.310 E6.94665
G1 X103.750 Y100.307 E6.98666
G1 X103.119 Y101.176 E7.02671
G1 X102.362 Y101.802 E7.06333
G1 X102.133 Y101.608 F4800.000
G1 X101.231 Y102.032 E7.10051 F4200.000
G1 X100.244 Y102.219 E7.13800
G1 X99.252 Y102.157 E7.17505
G1 X98.305 Y101.849 E7.21222
G1 X97.464 Y101.315 E7.24936
G1 X96.779 Y100.586 E7.28666
G1 X96.298 Y99.711 E7.32388
G1 X96.050 Y98.745 E7.36110
G1 X96.050 Y97.747 E7.39833
G1 X96.298 Y96.780 E7.43555
G1 X96.779 Y95.906 E7.47277
G1 X97.462 Y95.178 E7.50999
G1 X98.305 Y94.643 E7.54721
G1 X99.254 Y94.335 E7.58444
G1 X100.250 Y94.272 E7.62166 F4200.000
G1 X101.230 Y94.459 E7.65888
G1 X102.133 Y94.884 E7.69610
G1 X102.902 Y95.520 E7.73333
G1 X103.489 Y96.328 E7.77055
G1 X103.856 Y97.256 E7.80777
G1 X103.981 Y98.246 E7.84499
G1 X103.856 Y99.236 E7.88221
G1 X103.489 Y100.164 E7.91944
G1 X102.902 Y100.972 E7.95670
G1 X102.203 Y101.550 E7.99053
G1 X102.133 Y102.208 F4800.000
G1 E3.99053 F2400.00000
G92 E0
G1 X122.536 Y107.475 F4800.000
G1 E5.00000 F2400.00000
G1 X77.464 Y107.475 E6.68102 F4200.000
G1 X77.423 Y107.354 E6.68576
G1 X94.059 Y94.552 E7.46868
G1 X94.723 Y94.083 E7.49899
G1 X95.409 Y93.679 E7.52870
G1 X96.126 Y93.331 E7.55841
G1 X96.869 Y93.044 E7.58813
G1 X97.633 Y92.819 E7.61784
G1 X98.413 Y92.656 E7.64755
G1 X99.204 Y92.559 E7.67726
G1 X100.004 Y92.526 E7.70713
G1 X100.796 Y92.559 E7.73669
G1 X101.587 Y92.656 E7.76640
G1 X102.367 Y92.819 E7.79611
G1 X103.127 Y93.043 E7.82567
G1 X103.874 Y93.331 E7.85554
G1 X104.591 Y93.679 E7.88525
G1 X105.277 Y94.083 E7.91496
G1 X105.941 Y94.552 E7.94526
G1 X122.577 Y107.354 E8.72819
G1 X122.565 Y107.389 E8.72957
G1 X123.405 Y107.770 F4800.000
G1 X76.595 Y107.770 E10.47540 F4200.000
G1 X76.554 Y107.650 E10.48014
G1 X93.884 Y94.314 E11.29570
G1 X94.562 Y93.835 E11.32668
G1 X95.269 Y93.418 E11.35730
G1 X96.008 Y93.060 E11.38791
G1 X96.774 Y92.764 E11.41853
G1 X97.561 Y92.532 E11.44915
G1 X98.365 Y92.365 E11.47976
G1 X99.180 Y92.264 E11.51038
G1 X100.004 Y92.230 E11.54116
G1 X100.820 Y92.264 E11.57162
G1 X101.635 Y92.365 E11.60223
G1 X102.439 Y92.532 E11.63285
G1 X103.222 Y92.763 E11.66331
G1 X103.992 Y93.060 E11.69409
G1 X104.731 Y93.418 E11.72470
G1 X105.438 Y93.835 E11.75532
G1 X106.116 Y94.314 E11.78630
G1 X123.446 Y107.650 E12.60186
G1 X123.434 Y107.685 E12.60324
G1 X124.274 Y108.066 F4800.000
G1 X75.726 Y108.066 E14.41388 F4200.000
G1 X75.685 Y107.946 E14.41862
G1 X93.708 Y94.076 E15.26681
G1 X94.402 Y93.586 E15.29847
G1 X95.130 Y93.157 E15.32999
G1 X95.890 Y92.789 E15.36151
G1 X96.679 Y92.484 E15.39303
G1 X97.489 Y92.245 E15.42455
G1 X98.317 Y92.073 E15.45607
G1 X99.156 Y91.969 E15.48759
G1 X100.004 Y91.935 E15.51928
G1 X100.844 Y91.969 E15.55064
G1 X101.683 Y92.073 E15.58216
G1 X102.511 Y92.245 E15.61368
G1 X103.317 Y92.483 E15.64504
G1 X104.110 Y92.789 E15.67672
G1 X104.870 Y93.157 E15.70824
G1 X105.598 Y93.586 E15.73977
G1 X106.292 Y94.076 E15.77143
G1 X124.315 Y107.946 E16.61962
G1 X124.303 Y107.981 E16.62100
G1 X123.790 Y107.711 F4800.000
G1 E12.62100 F2400.00000
G92 E0
G1 Z0.300 F4800.000
M104 S195 ; set temperature
G1 Z0.600 F4800.000
G1 X104.211 Y100.122 F4800.000
G1 E5.00000 F2400.00000
G1 X104.068 Y100.482 E5.02616 F900.000
G1 X103.384 Y101.424 E5.10485
G1 X102.477 Y102.172 E5.18426
G1 X101.432 Y102.662 E5.26224
G1 X100.307 Y102.877 E5.33963
G1 X99.120 Y102.803 E5.42003
G1 X98.022 Y102.446 E5.49804
G1 X97.045 Y101.826 E5.57619
G1 X96.244 Y100.975 E5.65519
G1 X95.684 Y99.955 E5.73385
G1 X95.394 Y98.828 E5.81248
G1 X95.394 Y97.664 E5.89112
G1 X95.684 Y96.537 E5.96975
G1 X96.244 Y95.517 E6.04839
G1 X97.041 Y94.669 E6.12702
G1 X98.023 Y94.045 E6.20566
G1 X100.175 Y93.346 E6.35855 F900.000
G1 X100.175 Y93.591 E6.37507
G1 X101.435 Y93.831 E6.46170
G1 X102.487 Y94.326 E6.54033
G1 X103.384 Y95.068 E6.61897
G1 X104.068 Y96.009 E6.69760
G1 X104.496 Y97.091 E6.77624
G1 X104.642 Y98.246 E6.85487
G1 X104.496 Y99.400 E6.93350
G1 X104.244 Y100.039 E6.97989
G1 X103.713 Y99.925 F4800.000
G1 X103.595 Y100.222 E7.00149 F900.000
G1 X102.990 Y101.054 E7.07100
G1 X102.188 Y101.715 E7.14123
G1 X101.265 Y102.148 E7.21012
G1 X100.273 Y102.338 E7.27840
G1 X99.221 Y102.273 E7.34963
G1 X98.252 Y101.957 E7.41848
G1 X97.389 Y101.410 E7.48752
G1 X96.681 Y100.657 E7.55737
G1 X96.186 Y99.756 E7.62686
G1 X95.930 Y98.760 E7.69635
G1 X95.930 Y97.732 E7.76584
G1 X96.186 Y96.736 E7.83533
G1 X96.681 Y95.834 E7.90482
G1 X97.385 Y95.085 E7.97431
G1 X98.253 Y94.534 E8.04380
G1 X99.640 Y94.083 E8.14231 F900.000
G1 X99.640 Y94.190 E8.14954
G1 X100.258 Y94.152 E8.19138
G1 X101.268 Y94.344 E8.26087
G1 X102.198 Y94.782 E8.33036
G1 X102.991 Y95.438 E8.39985
G1 X103.595 Y96.269 E8.46934
G1 X103.974 Y97.226 E8.53883
G1 X104.102 Y98.246 E8.60832
G1 X103.974 Y99.266 E8.67781
G1 X103.746 Y99.841 E8.71963
G1 X103.911 Y100.175 F4800.000
G1 E4.71963 F2400.00000
G92 E0
G1 X102.846 Y93.577 F4800.000
G1 E5.00000 F2400.00000
G1 X103.634 Y93.882 E5.05716 F2700.000
G1 X104.307 Y94.208 E5.10767
G1 X104.951 Y94.588 E5.15818
G1 X105.584 Y95.035 E5.21059
G1 X120.687 Y106.657 E6.49832
G1 X120.612 Y106.875 E6.51387
G1 X79.388 Y106.875 E9.29966
G1 X79.313 Y106.657 E9.31521
G1 X94.416 Y95.035 E10.60294
G1 X95.049 Y94.588 E10.65535
G1 X95.693 Y94.208 E10.70586
G1 X96.366 Y93.882 E10.75637
G1 X97.063 Y93.613 E10.80688
G1 X97.299 Y93.543 E10.82354
G1 X97.415 Y93.797 E10.84243
G1 X96.697 Y94.253 E10.89989
G1 X95.808 Y95.200 E10.98767
G1 X95.182 Y96.338 E11.07545
G1 X94.859 Y97.596 E11.16323
G1 X94.859 Y98.895 E11.25101
G1 X95.182 Y100.153 E11.33879
G1 X95.808 Y101.292 E11.42660
G1 X96.702 Y102.243 E11.51476
G1 X97.792 Y102.934 E11.60202
G1 X99.018 Y103.334 E11.68918
G1 X100.342 Y103.416 E11.77877
G1 X101.599 Y103.175 E11.86525
G1 X102.765 Y102.628 E11.95233
G1 X103.777 Y101.794 E12.04091
G1 X104.541 Y100.742 E12.12878
G1 X105.019 Y99.535 E12.21656
G1 X105.182 Y98.246 E12.30434
G1 X105.019 Y96.957 E12.39212
G1 X104.541 Y95.749 E12.47989
G1 X103.778 Y94.698 E12.56767
G1 X102.707 Y93.813 E12.66154
G1 X102.800 Y93.655 E12.67393
G1 E8.67393 F2400.00000
G92 E0
G1 X122.187 Y107.410 F4800.000
G1 E5.00000 F2400.00000
G1 X77.813 Y107.410 E7.99856 F2700.000
G1 X77.739 Y107.192 E8.01411
G1 X94.098 Y94.604 E9.40897
G1 X94.758 Y94.137 E9.46360
G1 X95.440 Y93.735 E9.51708
G1 X96.152 Y93.390 E9.57056
G1 X96.890 Y93.105 E9.62404
G1 X97.649 Y92.881 E9.67751
G1 X98.424 Y92.720 E9.73099
G1 X99.209 Y92.623 E9.78444
G1 X100.012 Y92.591 E9.83878
G1 X100.791 Y92.623 E9.89142
G1 X101.576 Y92.720 E9.94490
G1 X102.351 Y92.881 E9.99838
G1 X103.110 Y93.105 E10.05186
G1 X103.848 Y93.390 E10.10533
G1 X104.560 Y93.735 E10.15881
G1 X105.242 Y94.137 E10.21229
G1 X105.902 Y94.604 E10.26693
G1 X122.261 Y107.192 E11.66178
G1 X122.216 Y107.325 E11.67125
G1 X123.761 Y107.946 F4800.000
G1 X76.239 Y107.946 E14.88258 F1350.000
G1 X76.165 Y107.728 E14.89813
G1 X93.780 Y94.173 E16.40011
G1 X94.467 Y93.687 E16.45697
G1 X95.186 Y93.263 E16.51342
G1 X95.938 Y92.899 E16.56986
G1 X96.717 Y92.598 E16.62631
G1 X97.519 Y92.361 E16.68276
G1 X98.336 Y92.191 E16.73920
G1 X99.165 Y92.089 E16.79564
G1 X100.013 Y92.055 E16.85295
G1 X100.835 Y92.089 E16.90854
G1 X101.664 Y92.191 E16.96499
G1 X102.481 Y92.361 E17.02144
G1 X103.283 Y92.598 E17.07788
G1 X104.062 Y92.899 E17.13433
G1 X104.814 Y93.263 E17.19078
G1 X105.533 Y93.687 E17.24722
G1 X106.220 Y94.173 E17.30409
G1 X123.835 Y107.728 E18.80607
G1 X123.790 Y107.861 E18.81554
G1 X123.277 Y107.591 F4800.000
G1 E14.81554 F2400.00000
G92 E0
G1 Z0.900 F4800.000
G1 X104.182 Y100.194 F4800.000
G1 E5.00000 F2400.00000
G1 X104.068 Y100.482 E5.02095 F900.000
G1 X103.384 Y101.424 E5.09960
G1 X102.483 Y102.168 E5.17854
G1 X101.431 Y102.662 E5.25712
G1 X100.318 Y102.876 E5.33371
G1 X99.113 Y102.802 E5.41530
G1 X98.021 Y102.445 E5.49289
G1 X97.048 Y101.828 E5.57077
G1 X96.245 Y100.975 E5.64995
G1 X95.684 Y99.955 E5.72862
G1 X95.394 Y98.828 E5.80726
G1 X95.394 Y97.664 E5.88589
G1 X95.677 Y96.562 E5.96274
